(Projekt farnsworth-test-glasses-back)
(Erstellt mit Estlcam Version 8 Build 8,107)
(Laufzeit ca. 00:00:09 Stunden)

(Benoetigte Werkzeuge:)
(Fraeser 3mm)

G90
M03 S25000
G00 Z5.0000


(Nr. 1: Tasche raeumen: Ausschnitt 1)
G00 X47.7751 Y73.8632 Z5.0000
G00 Z0.5000
G01 Z-0.0500 F900 S25000
G01 X45.6101 F1200
G02 X45.8248 Y75.0627 I1.8304 J0.2914
G01 X46.0899 Y75.5733
G01 X46.2372 Y75.8085
G01 X46.3768 Y75.9965
G01 X46.5073 Y76.1388
G02 X47.3763 Y76.5632 I1.3081 J-1.5765
G01 X48.6941
G00 Z5.0000
G00 X55.2903 Y73.8632
G00 Z0.5000
G01 Z-0.0500 F900
G01 X60.9848 F1200
G01 X60.8079
G01 Y71.1632
G01 X58.7451
G00 Z5.0000


(Nr. 2: Tasche Seitenwand: Ausschnitt 1)
G00 X46.0058 Y72.6407 Z5.0000
G00 Z0.5000
G01 Z-0.0500 F900
G01 X45.8918 Y72.7182 F1200
G01 X45.7732 Y72.8517
G01 X45.6407 Y73.0489
G01 X45.4645 Y73.3735
G01 X45.3719 Y73.5944
G01 X45.3119 Y73.8018
G01 X45.2810 Y74.0017
G01 X45.2772 Y74.2015
G01 X45.3011 Y74.4197
G01 X45.3548 Y74.6578
G01 X45.5207 Y75.1176
G01 X45.8308 Y75.7245
G02 X46.6794 Y76.6253 I1.8129 J-0.8578
G02 X48.3257 Y77.0525 I2.0812 J-4.6346
G02 X49.0521 Y76.6948 I-0.5201 J-1.9724
G01 X51.2720 Y75.2118
G01 X54.9983 Y74.6007
G01 X55.0211 Y74.8441
G01 X55.4364 Y75.3148
G02 X56.3767 Y76.0338 I2.5590 J-2.3727
G02 X57.9538 Y76.1181 I0.8766 J-1.6040
G01 X58.3316 Y75.9258
G01 X58.2685 Y75.9675
G03 X60.4514 Y74.6246 I11.6320 J16.4637
G01 X60.6964 Y74.4584
G01 X61.2842 Y74.0134
G01 X61.6219 Y73.7295
G02 X62.2078 Y72.8648 I-1.2884 J-1.5038
G02 X62.3181 Y71.8889 I-3.0813 J-0.8426
G02 X60.2865 Y70.7115 I-2.6350 J2.2053
G02 X59.2094 Y70.7366 I-0.4703 J2.9457
G01 X58.4569 Y70.9267
G01 X57.5664 Y71.1014
G01 X57.1043 Y71.2239
G02 X56.0853 Y71.6806 I1.2906 J4.2442
G02 X55.3621 Y72.3123 I1.0218 J1.8996
G02 X55.0577 Y73.1065 I1.7348 J1.1204
G01 X55.0101 Y73.4656
G01 X54.9903 Y73.8577
G01 X54.9862 Y74.5002
G01 X51.2755 Y75.2055
G03 X49.0520 Y74.4673 I0.7593 J-6.0047
G03 X46.9053 Y72.5388 I5.2725 J-8.0283
G02 X46.0058 Y72.6407 I-0.2480 J1.8319
G00 Z5.0000
G00 X0.0000 Y0.0000

M05
M30
