(Projekt farnsworth-test-body-outline)
(Erstellt mit Estlcam Version 8 Build 8,107)
(Laufzeit ca. 00:01:46 Stunden)

(Benoetigte Werkzeuge:)
(Fraeser 3,0)

G90
M03 S25000
G00 Z5.0000


(Nr. 1: Bohrung 2)
G00 X2.5003 Y2.5004
G00 Z0.5000
G01 Z-2.0000 F900 S25000
G00 Z0.5000
G00 Z-1.5000
G01 Z-4.0000
G00 Z0.5000
G00 Z-3.5000
G01 Z-5.5000
G00 Z5.0000


(Nr. 2: Bohrung 3)
G00 X120.0601 Y2.5001 Z5.0000
G00 Z0.5000
G01 Z-2.0000 F900
G00 Z0.5000
G00 Z-1.5000
G01 Z-4.0000
G00 Z0.5000
G00 Z-3.5000
G01 Z-5.5000
G00 Z5.0000


(Nr. 3: Bohrung 5)
G00 X120.0600 Y91.2734 Z5.0000
G00 Z0.5000
G01 Z-2.0000 F900
G00 Z0.5000
G00 Z-1.5000
G01 Z-4.0000
G00 Z0.5000
G00 Z-3.5000
G01 Z-5.5000
G00 Z5.0000


(Nr. 4: Bohrung 4)
G00 X2.5001 Y91.2735 Z5.0000
G00 Z0.5000
G01 Z-2.0000 F900
G00 Z0.5000
G00 Z-1.5000
G01 Z-4.0000
G00 Z0.5000
G00 Z-3.5000
G01 Z-5.5000
G00 Z5.0000


(Nr. 5: Teil 1)
G00 X31.0860 Y95.2736 Z5.0000
G00 Z0.5000
G01 Z-2.0000 F900
G01 X1.9804 F1200
G03 X-0.7405 Y93.9475 I0.0224 J-3.5004
G03 X-1.5000 Y91.8005 I2.7284 J-2.1729
G01 X-1.4984 Y57.2469
G01 X-1.4983 Y53.2469
G01 X-1.4959 Y1.8241
G01 X-1.4608 Y1.4760
G01 X-1.3906 Y1.1320
G03 X1.4065 Y-1.4496 I3.3996 J0.8774
G01 X1.7618 Y-1.4924
G01 X1.9727 Y-1.5000
G01 X14.3661
G01 X18.3661
G01 X87.4732
G01 X91.4732
G01 X120.5795
G03 X123.3005 Y-0.1739 I-0.0224 J3.5003
G03 X124.0599 Y1.9731 I-2.7273 J2.1725
G01 X124.0584 Y36.5275
G01 X124.0582 Y40.5275
G01 X124.0559 Y91.9496
G01 X124.0207 Y92.2977
G01 X123.9506 Y92.6417
G03 X121.1534 Y95.2232 I-3.3996 J-0.8774
G01 X120.7981 Y95.2660
G01 X120.5872 Y95.2736
G01 X108.1931
G01 X104.1931
G01 X35.0860
G01 X31.0860
G01 Z-4.0000 F900
G01 X1.9804 F1200
G03 X-0.7405 Y93.9475 I0.0224 J-3.5004
G03 X-1.5000 Y91.8005 I2.7284 J-2.1729
G01 X-1.4984 Y57.2469
G00 Z-3.5000
G01 X-1.4983 Y53.2469
G01 Z-4.0000 F900
G01 X-1.4959 Y1.8241 F1200
G01 X-1.4608 Y1.4760
G01 X-1.3906 Y1.1320
G03 X1.4065 Y-1.4496 I3.3996 J0.8774
G01 X1.7618 Y-1.4924
G01 X1.9727 Y-1.5000
G01 X14.3661
G00 Z-3.5000
G01 X18.3661
G01 Z-4.0000 F900
G01 X87.4732 F1200
G00 Z-3.5000
G01 X91.4732
G01 Z-4.0000 F900
G01 X120.5795 F1200
G03 X123.3005 Y-0.1739 I-0.0224 J3.5003
G03 X124.0599 Y1.9731 I-2.7273 J2.1725
G01 X124.0584 Y36.5275
G00 Z-3.5000
G01 X124.0582 Y40.5275
G01 Z-4.0000 F900
G01 X124.0559 Y91.9496 F1200
G01 X124.0207 Y92.2977
G01 X123.9506 Y92.6417
G03 X121.1534 Y95.2232 I-3.3996 J-0.8774
G01 X120.7981 Y95.2660
G01 X120.5872 Y95.2736
G01 X108.1931
G00 Z-3.5000
G01 X104.1931
G01 Z-4.0000 F900
G01 X35.0860 F1200
G00 Z-3.5000
G01 X31.0860
G01 Z-5.5000 F900
G01 X1.9804 F1200
G03 X-0.7405 Y93.9475 I0.0224 J-3.5004
G03 X-1.5000 Y91.8005 I2.7284 J-2.1729
G01 X-1.4984 Y57.2469
G00 Z-3.5000
G01 X-1.4983 Y53.2469
G01 Z-5.5000 F900
G01 X-1.4959 Y1.8241 F1200
G01 X-1.4608 Y1.4760
G01 X-1.3906 Y1.1320
G03 X1.4065 Y-1.4496 I3.3996 J0.8774
G01 X1.7618 Y-1.4924
G01 X1.9727 Y-1.5000
G01 X14.3661
G00 Z-3.5000
G01 X18.3661
G01 Z-5.5000 F900
G01 X87.4732 F1200
G00 Z-3.5000
G01 X91.4732
G01 Z-5.5000 F900
G01 X120.5795 F1200
G03 X123.3005 Y-0.1739 I-0.0224 J3.5003
G03 X124.0599 Y1.9731 I-2.7273 J2.1725
G01 X124.0584 Y36.5275
G00 Z-3.5000
G01 X124.0582 Y40.5275
G01 Z-5.5000 F900
G01 X124.0559 Y91.9496 F1200
G01 X124.0207 Y92.2977
G01 X123.9506 Y92.6417
G03 X121.1534 Y95.2232 I-3.3996 J-0.8774
G01 X120.7981 Y95.2660
G01 X120.5872 Y95.2736
G01 X108.1931
G00 Z-3.5000
G01 X104.1931
G01 Z-5.5000 F900
G01 X35.0860 F1200
G00 Z-3.5000
G01 X31.0860
G00 Z5.0000
G00 X0.0000 Y0.0000

M05
M30
