(Projekt farnsworth-test-glasses-front)
(Erstellt mit Estlcam Version 8 Build 8,107)
(Laufzeit ca. 00:00:10 Stunden)

(Benoetigte Werkzeuge:)
(Fraeser 3mm)

G90
M03 S25000
G00 Z5.0000


(Nr. 1: Tasche raeumen: Ausschnitt 1)
G00 X66.9538 Y72.5048 Z5.0000
G00 Z0.5000
G01 Z-0.1000 F900 S25000
G01 X64.6528 F1200
G01 X64.0728 Y72.9150
G01 X63.9295 Y73.0566
G01 X63.8688 Y73.1370
G01 X63.7528 Y73.3768
G01 X63.6775 Y73.5920
G02 X63.9646 Y75.2048 I2.0852 J0.4607
G01 X66.8101
G00 Z5.0000


(Nr. 2: Tasche Seitenwand: Ausschnitt 1)
G00 X63.5992 Y73.0055 Z5.0000
G00 Z0.5000
G01 Z-0.1000 F900
G02 X63.6300 Y75.2273 I1.9742 J1.0838 F1200
G02 X65.3390 Y76.2525 I1.6534 J-0.8192
G02 X66.2817 Y75.9805 I0.0064 J-1.7475
G02 X67.5288 Y74.8342 I-1.9977 J-3.4249
G02 X67.5046 Y73.0874 I-6.9037 J-0.7778
G01 X67.4335 Y72.7863
G01 X67.3272 Y72.5386
G02 X66.7682 Y71.8703 I-1.8812 J1.0056
G01 X66.5186 Y71.6960
G01 X66.1703 Y71.5060
G01 X66.0774 Y71.4708
G01 X65.9613 Y71.4566
G01 X65.7445 Y71.4910
G01 X65.5087 Y71.5903
G01 X64.3598 Y72.3376
G02 X63.5992 Y73.0055 I0.8153 J1.6956
G00 Z5.0000


(Nr. 3: Tasche raeumen: Ausschnitt 2)
G00 X76.0497 Y76.1377 Z5.0000
G00 Z0.5000
G01 Z-0.1000 F900
G01 X73.5818 F1200
G03 X73.4726 Y74.9534 I2.9720 J-0.8711
G01 X75.1854 Y73.4377
G01 X76.7930
G00 Z5.0000


(Nr. 4: Tasche Seitenwand: Ausschnitt 2)
G00 X73.1854 Y74.8054 Z5.0000
G00 Z0.5000
G01 Z-0.1000 F900
G02 X73.2658 Y76.1345 I4.0482 J0.4221 F1200
G02 X73.6780 Y76.8253 I1.1510 J-0.2183
G02 X74.6106 Y77.0138 I0.6641 J-0.8844
G01 X75.1808 Y76.8866
G01 X75.5070 Y76.7867
G01 X75.7488 Y76.6855
G01 X76.0197 Y76.5359
G01 X76.2066 Y76.4011
G01 X76.4006 Y76.2173
G01 X76.5437 Y76.0311
G01 X76.8419 Y75.5360
G01 X77.0093 Y75.1995
G02 X77.2593 Y73.8307 I-2.1076 J-1.0922
G02 X76.6420 Y72.7048 I-2.3110 J0.5349
G01 X76.5219 Y72.6216
G01 X76.4254 Y72.5882
G01 X75.7551 Y72.5308
G01 X75.5904 Y72.5417
G01 X75.1442 Y73.0549
G01 X74.8820 Y73.3174
G01 X73.1854 Y74.8054
G00 Z5.0000
G00 X0.0000 Y0.0000

M05
M30
