(Projekt farnsworth-test-body-outline)
(Erstellt mit Estlcam Version 8 Build 8,107)
(Laufzeit ca. 00:00:36 Stunden)

(Benoetigte Werkzeuge:)
(Fraeser 3,0)

G90
M03 S25000
G00 Z5.0000


(Nr. 1: Bohrung 2)
G00 X2.5003 Y2.5004
G00 Z0.5000
G01 Z-2.0000 F900 S25000
G00 Z0.5000
G00 Z-1.5000
G01 Z-4.0000
G00 Z0.5000
G00 Z-3.5000
G01 Z-5.5000
G00 Z5.0000


(Nr. 2: Bohrung 3)
G00 X120.0601 Y2.5001 Z5.0000
G00 Z0.5000
G01 Z-2.0000 F900
G00 Z0.5000
G00 Z-1.5000
G01 Z-4.0000
G00 Z0.5000
G00 Z-3.5000
G01 Z-5.5000
G00 Z5.0000


(Nr. 3: Bohrung 5)
G00 X120.0600 Y91.2734 Z5.0000
G00 Z0.5000
G01 Z-2.0000 F900
G00 Z0.5000
G00 Z-1.5000
G01 Z-4.0000
G00 Z0.5000
G00 Z-3.5000
G01 Z-5.5000
G00 Z5.0000


(Nr. 4: Bohrung 4)
G00 X2.5001 Y91.2735 Z5.0000
G00 Z0.5000
G01 Z-2.0000 F900
G00 Z0.5000
G00 Z-1.5000
G01 Z-4.0000
G00 Z0.5000
G00 Z-3.5000
G01 Z-5.5000
G00 Z5.0000
G00 X0.0000 Y0.0000

M05
M30
