(Projekt farnsworth-test-body-outline)
(Erstellt mit Estlcam Version 8 Build 8,107)
(Laufzeit ca. 00:05:22 Stunden)

(Benoetigte Werkzeuge:)
(Gravierer 0.5)

G90
M03 S12000
G00 Z5.0000


(Nr. 1: Gravur 31)
G00 X13.8744 Y19.0153
G00 Z0.5000
G01 Z-0.1000 F900 S12000
G02 X14.8040 Y18.2641 I-2.0687 J-3.5106 F1200
G01 X14.8616 Y18.1825
G01 X14.9082 Y18.0595
G01 X14.9012 Y17.9599
G01 X14.8654 Y17.8684
G01 X14.7772 Y17.8320
G02 X14.1756 Y18.1738 I0.5600 J1.6861
G02 X13.3696 Y18.9160 I2.6034 J3.6357
G02 X13.2375 Y19.2195 I0.2810 J0.3029
G01 X13.3276 Y19.2512
G01 X13.5200 Y19.1998
G01 X13.8744 Y19.0153
G01 Z-0.2000 F900
G02 X14.8040 Y18.2641 I-2.0687 J-3.5106 F1200
G01 X14.8616 Y18.1825
G01 X14.9082 Y18.0595
G01 X14.9012 Y17.9599
G01 X14.8654 Y17.8684
G01 X14.7772 Y17.8320
G02 X14.1756 Y18.1738 I0.5600 J1.6861
G02 X13.3696 Y18.9160 I2.6034 J3.6357
G02 X13.2375 Y19.2195 I0.2810 J0.3029
G01 X13.3276 Y19.2512
G01 X13.5200 Y19.1998
G01 X13.8744 Y19.0153
G01 Z-0.3000 F900
G02 X14.8040 Y18.2641 I-2.0687 J-3.5106 F1200
G01 X14.8616 Y18.1825
G01 X14.9082 Y18.0595
G01 X14.9012 Y17.9599
G01 X14.8654 Y17.8684
G01 X14.7772 Y17.8320
G02 X14.1756 Y18.1738 I0.5600 J1.6861
G02 X13.3696 Y18.9160 I2.6034 J3.6357
G02 X13.2375 Y19.2195 I0.2810 J0.3029
G01 X13.3276 Y19.2512
G01 X13.5200 Y19.1998
G01 X13.8744 Y19.0153
G01 Z-0.4000 F900
G02 X14.8040 Y18.2641 I-2.0687 J-3.5106 F1200
G01 X14.8616 Y18.1825
G01 X14.9082 Y18.0595
G01 X14.9012 Y17.9599
G01 X14.8654 Y17.8684
G01 X14.7772 Y17.8320
G02 X14.1756 Y18.1738 I0.5600 J1.6861
G02 X13.3696 Y18.9160 I2.6034 J3.6357
G02 X13.2375 Y19.2195 I0.2810 J0.3029
G01 X13.3276 Y19.2512
G01 X13.5200 Y19.1998
G01 X13.8744 Y19.0153
G01 Z-0.5000 F900
G02 X14.8040 Y18.2641 I-2.0687 J-3.5106 F1200
G01 X14.8616 Y18.1825
G01 X14.9082 Y18.0595
G01 X14.9012 Y17.9599
G01 X14.8654 Y17.8684
G01 X14.7772 Y17.8320
G02 X14.1756 Y18.1738 I0.5600 J1.6861
G02 X13.3696 Y18.9160 I2.6034 J3.6357
G02 X13.2375 Y19.2195 I0.2810 J0.3029
G01 X13.3276 Y19.2512
G01 X13.5200 Y19.1998
G01 X13.8744 Y19.0153
G00 Z5.0000


(Nr. 2: Gravur 30)
G00 X16.3453 Y21.2183 Z5.0000
G00 Z0.5000
G01 Z-0.1000 F900
G01 X16.2656 Y20.5951 F1200
G02 X16.0474 Y20.2783 I-0.4409 J0.0703
G02 X15.7770 Y20.4926 I-0.0121 J0.2624
G02 X15.7929 Y21.1845 I1.4722 J0.3125
G02 X16.1992 Y22.3102 I4.7407 J-1.0752
G02 X16.6843 Y22.9307 I1.3760 J-0.5759
G01 X16.8311 Y22.9042
G01 X16.8571 Y22.8217
G01 X16.8390 Y22.6474
G01 X16.7382 Y22.3110
G01 X16.4836 Y21.6984
G01 X16.3453 Y21.2183
G01 Z-0.2000 F900
G01 X16.2656 Y20.5951 F1200
G02 X16.0474 Y20.2783 I-0.4409 J0.0703
G02 X15.7770 Y20.4926 I-0.0121 J0.2624
G02 X15.7929 Y21.1845 I1.4722 J0.3125
G02 X16.1992 Y22.3102 I4.7407 J-1.0752
G02 X16.6843 Y22.9307 I1.3760 J-0.5759
G01 X16.8311 Y22.9042
G01 X16.8571 Y22.8217
G01 X16.8390 Y22.6474
G01 X16.7382 Y22.3110
G01 X16.4836 Y21.6984
G01 X16.3453 Y21.2183
G01 Z-0.3000 F900
G01 X16.2656 Y20.5951 F1200
G02 X16.0474 Y20.2783 I-0.4409 J0.0703
G02 X15.7770 Y20.4926 I-0.0121 J0.2624
G02 X15.7929 Y21.1845 I1.4722 J0.3125
G02 X16.1992 Y22.3102 I4.7407 J-1.0752
G02 X16.6843 Y22.9307 I1.3760 J-0.5759
G01 X16.8311 Y22.9042
G01 X16.8571 Y22.8217
G01 X16.8390 Y22.6474
G01 X16.7382 Y22.3110
G01 X16.4836 Y21.6984
G01 X16.3453 Y21.2183
G01 Z-0.4000 F900
G01 X16.2656 Y20.5951 F1200
G02 X16.0474 Y20.2783 I-0.4409 J0.0703
G02 X15.7770 Y20.4926 I-0.0121 J0.2624
G02 X15.7929 Y21.1845 I1.4722 J0.3125
G02 X16.1992 Y22.3102 I4.7407 J-1.0752
G02 X16.6843 Y22.9307 I1.3760 J-0.5759
G01 X16.8311 Y22.9042
G01 X16.8571 Y22.8217
G01 X16.8390 Y22.6474
G01 X16.7382 Y22.3110
G01 X16.4836 Y21.6984
G01 X16.3453 Y21.2183
G01 Z-0.5000 F900
G01 X16.2656 Y20.5951 F1200
G02 X16.0474 Y20.2783 I-0.4409 J0.0703
G02 X15.7770 Y20.4926 I-0.0121 J0.2624
G02 X15.7929 Y21.1845 I1.4722 J0.3125
G02 X16.1992 Y22.3102 I4.7407 J-1.0752
G02 X16.6843 Y22.9307 I1.3760 J-0.5759
G01 X16.8311 Y22.9042
G01 X16.8571 Y22.8217
G01 X16.8390 Y22.6474
G01 X16.7382 Y22.3110
G01 X16.4836 Y21.6984
G01 X16.3453 Y21.2183
G00 Z5.0000


(Nr. 3: Gravur 16)
G00 X45.9891 Y37.3340 Z5.0000
G00 Z0.5000
G01 Z-0.1000 F900
G02 X43.5558 Y35.9677 I-13.3671 J20.9550 F1200
G01 X43.3656 Y35.9094
G01 X43.2945 Y35.9634
G01 X43.2890 Y36.1211
G01 X43.3326 Y36.2095
G01 X43.4730 Y36.3514
G01 X43.7910 Y36.5937
G01 X44.1268 Y36.8109
G01 X44.8773 Y37.2390
G01 X45.4709 Y37.6099
G01 X46.1232 Y38.0728
G01 X46.7721 Y38.6117
G01 X46.9292 Y38.7130
G01 X47.1000 Y38.7877
G01 X47.1919 Y38.7794
G01 X47.2382 Y38.6924
G01 X47.2377 Y38.5932
G01 X47.1603 Y38.4097
G01 X47.0453 Y38.2464
G02 X45.9891 Y37.3340 I-4.1449 J3.7308
G01 Z-0.2000 F900
G02 X43.5558 Y35.9677 I-13.3671 J20.9550 F1200
G01 X43.3656 Y35.9094
G01 X43.2945 Y35.9634
G01 X43.2890 Y36.1211
G01 X43.3326 Y36.2095
G01 X43.4730 Y36.3514
G01 X43.7910 Y36.5937
G01 X44.1268 Y36.8109
G01 X44.8773 Y37.2390
G01 X45.4709 Y37.6099
G01 X46.1232 Y38.0728
G01 X46.7721 Y38.6117
G01 X46.9292 Y38.7130
G01 X47.1000 Y38.7877
G01 X47.1919 Y38.7794
G01 X47.2382 Y38.6924
G01 X47.2377 Y38.5932
G01 X47.1603 Y38.4097
G01 X47.0453 Y38.2464
G02 X45.9891 Y37.3340 I-4.1449 J3.7308
G01 Z-0.3000 F900
G02 X43.5558 Y35.9677 I-13.3671 J20.9550 F1200
G01 X43.3656 Y35.9094
G01 X43.2945 Y35.9634
G01 X43.2890 Y36.1211
G01 X43.3326 Y36.2095
G01 X43.4730 Y36.3514
G01 X43.7910 Y36.5937
G01 X44.1268 Y36.8109
G01 X44.8773 Y37.2390
G01 X45.4709 Y37.6099
G01 X46.1232 Y38.0728
G01 X46.7721 Y38.6117
G01 X46.9292 Y38.7130
G01 X47.1000 Y38.7877
G01 X47.1919 Y38.7794
G01 X47.2382 Y38.6924
G01 X47.2377 Y38.5932
G01 X47.1603 Y38.4097
G01 X47.0453 Y38.2464
G02 X45.9891 Y37.3340 I-4.1449 J3.7308
G01 Z-0.4000 F900
G02 X43.5558 Y35.9677 I-13.3671 J20.9550 F1200
G01 X43.3656 Y35.9094
G01 X43.2945 Y35.9634
G01 X43.2890 Y36.1211
G01 X43.3326 Y36.2095
G01 X43.4730 Y36.3514
G01 X43.7910 Y36.5937
G01 X44.1268 Y36.8109
G01 X44.8773 Y37.2390
G01 X45.4709 Y37.6099
G01 X46.1232 Y38.0728
G01 X46.7721 Y38.6117
G01 X46.9292 Y38.7130
G01 X47.1000 Y38.7877
G01 X47.1919 Y38.7794
G01 X47.2382 Y38.6924
G01 X47.2377 Y38.5932
G01 X47.1603 Y38.4097
G01 X47.0453 Y38.2464
G02 X45.9891 Y37.3340 I-4.1449 J3.7308
G01 Z-0.5000 F900
G02 X43.5558 Y35.9677 I-13.3671 J20.9550 F1200
G01 X43.3656 Y35.9094
G01 X43.2945 Y35.9634
G01 X43.2890 Y36.1211
G01 X43.3326 Y36.2095
G01 X43.4730 Y36.3514
G01 X43.7910 Y36.5937
G01 X44.1268 Y36.8109
G01 X44.8773 Y37.2390
G01 X45.4709 Y37.6099
G01 X46.1232 Y38.0728
G01 X46.7721 Y38.6117
G01 X46.9292 Y38.7130
G01 X47.1000 Y38.7877
G01 X47.1919 Y38.7794
G01 X47.2382 Y38.6924
G01 X47.2377 Y38.5932
G01 X47.1603 Y38.4097
G01 X47.0453 Y38.2464
G02 X45.9891 Y37.3340 I-4.1449 J3.7308
G00 Z5.0000


(Nr. 4: Gravur 18)
G00 X56.5437 Y35.4375 Z5.0000
G00 Z0.5000
G01 Z-0.1000 F900
G01 X56.9977 Y33.9034 F1200
G01 X57.1407 Y33.3207
G01 X57.1907 Y32.9731
G01 X57.2463 Y32.7999
G03 X57.8388 Y32.0928 I1.3746 J0.5500
G03 X58.9159 Y31.9324 I0.8944 J2.3090
G01 X59.4154 Y31.9525
G01 X60.1134 Y32.0053
G01 X62.7876 Y32.2743
G02 X63.2712 Y32.2041 I0.1465 J-0.6919
G01 X63.3187 Y32.1178
G01 X63.3312 Y32.0011
G01 X63.3193 Y31.8850
G02 X63.1628 Y31.7352 I-0.1713 J0.0224
G01 X62.7331 Y31.7785
G01 X62.2342 Y31.7494
G01 X61.6398 Y31.6681
G01 X60.8030 Y31.5082
G01 X60.2104 Y31.4145
G01 X59.6139 Y31.3509
G01 X59.0145 Y31.3270
G02 X57.7827 Y31.5332 I-0.1213 J3.0583
G02 X57.0614 Y32.2029 I0.7028 J1.4802
G02 X56.6363 Y33.2147 I4.3101 J2.4061
G01 X56.0741 Y35.2591
G01 X55.7747 Y36.2260
G01 X55.7350 Y36.4216
G02 X55.8260 Y36.7959 I0.4612 J0.0861
G01 X55.9195 Y36.8181
G01 X56.0024 Y36.7651
G01 X56.0929 Y36.6553
G01 X56.2869 Y36.1951
G01 X56.5437 Y35.4375
G01 Z-0.2000 F900
G01 X56.9977 Y33.9034 F1200
G01 X57.1407 Y33.3207
G01 X57.1907 Y32.9731
G01 X57.2463 Y32.7999
G03 X57.8388 Y32.0928 I1.3746 J0.5500
G03 X58.9159 Y31.9324 I0.8944 J2.3090
G01 X59.4154 Y31.9525
G01 X60.1134 Y32.0053
G01 X62.7876 Y32.2743
G02 X63.2712 Y32.2041 I0.1465 J-0.6919
G01 X63.3187 Y32.1178
G01 X63.3312 Y32.0011
G01 X63.3193 Y31.8850
G02 X63.1628 Y31.7352 I-0.1713 J0.0224
G01 X62.7331 Y31.7785
G01 X62.2342 Y31.7494
G01 X61.6398 Y31.6681
G01 X60.8030 Y31.5082
G01 X60.2104 Y31.4145
G01 X59.6139 Y31.3509
G01 X59.0145 Y31.3270
G02 X57.7827 Y31.5332 I-0.1213 J3.0583
G02 X57.0614 Y32.2029 I0.7028 J1.4802
G02 X56.6363 Y33.2147 I4.3101 J2.4061
G01 X56.0741 Y35.2591
G01 X55.7747 Y36.2260
G01 X55.7350 Y36.4216
G02 X55.8260 Y36.7959 I0.4612 J0.0861
G01 X55.9195 Y36.8181
G01 X56.0024 Y36.7651
G01 X56.0929 Y36.6553
G01 X56.2869 Y36.1951
G01 X56.5437 Y35.4375
G01 Z-0.3000 F900
G01 X56.9977 Y33.9034 F1200
G01 X57.1407 Y33.3207
G01 X57.1907 Y32.9731
G01 X57.2463 Y32.7999
G03 X57.8388 Y32.0928 I1.3746 J0.5500
G03 X58.9159 Y31.9324 I0.8944 J2.3090
G01 X59.4154 Y31.9525
G01 X60.1134 Y32.0053
G01 X62.7876 Y32.2743
G02 X63.2712 Y32.2041 I0.1465 J-0.6919
G01 X63.3187 Y32.1178
G01 X63.3312 Y32.0011
G01 X63.3193 Y31.8850
G02 X63.1628 Y31.7352 I-0.1713 J0.0224
G01 X62.7331 Y31.7785
G01 X62.2342 Y31.7494
G01 X61.6398 Y31.6681
G01 X60.8030 Y31.5082
G01 X60.2104 Y31.4145
G01 X59.6139 Y31.3509
G01 X59.0145 Y31.3270
G02 X57.7827 Y31.5332 I-0.1213 J3.0583
G02 X57.0614 Y32.2029 I0.7028 J1.4802
G02 X56.6363 Y33.2147 I4.3101 J2.4061
G01 X56.0741 Y35.2591
G01 X55.7747 Y36.2260
G01 X55.7350 Y36.4216
G02 X55.8260 Y36.7959 I0.4612 J0.0861
G01 X55.9195 Y36.8181
G01 X56.0024 Y36.7651
G01 X56.0929 Y36.6553
G01 X56.2869 Y36.1951
G01 X56.5437 Y35.4375
G01 Z-0.4000 F900
G01 X56.9977 Y33.9034 F1200
G01 X57.1407 Y33.3207
G01 X57.1907 Y32.9731
G01 X57.2463 Y32.7999
G03 X57.8388 Y32.0928 I1.3746 J0.5500
G03 X58.9159 Y31.9324 I0.8944 J2.3090
G01 X59.4154 Y31.9525
G01 X60.1134 Y32.0053
G01 X62.7876 Y32.2743
G02 X63.2712 Y32.2041 I0.1465 J-0.6919
G01 X63.3187 Y32.1178
G01 X63.3312 Y32.0011
G01 X63.3193 Y31.8850
G02 X63.1628 Y31.7352 I-0.1713 J0.0224
G01 X62.7331 Y31.7785
G01 X62.2342 Y31.7494
G01 X61.6398 Y31.6681
G01 X60.8030 Y31.5082
G01 X60.2104 Y31.4145
G01 X59.6139 Y31.3509
G01 X59.0145 Y31.3270
G02 X57.7827 Y31.5332 I-0.1213 J3.0583
G02 X57.0614 Y32.2029 I0.7028 J1.4802
G02 X56.6363 Y33.2147 I4.3101 J2.4061
G01 X56.0741 Y35.2591
G01 X55.7747 Y36.2260
G01 X55.7350 Y36.4216
G02 X55.8260 Y36.7959 I0.4612 J0.0861
G01 X55.9195 Y36.8181
G01 X56.0024 Y36.7651
G01 X56.0929 Y36.6553
G01 X56.2869 Y36.1951
G01 X56.5437 Y35.4375
G01 Z-0.5000 F900
G01 X56.9977 Y33.9034 F1200
G01 X57.1407 Y33.3207
G01 X57.1907 Y32.9731
G01 X57.2463 Y32.7999
G03 X57.8388 Y32.0928 I1.3746 J0.5500
G03 X58.9159 Y31.9324 I0.8944 J2.3090
G01 X59.4154 Y31.9525
G01 X60.1134 Y32.0053
G01 X62.7876 Y32.2743
G02 X63.2712 Y32.2041 I0.1465 J-0.6919
G01 X63.3187 Y32.1178
G01 X63.3312 Y32.0011
G01 X63.3193 Y31.8850
G02 X63.1628 Y31.7352 I-0.1713 J0.0224
G01 X62.7331 Y31.7785
G01 X62.2342 Y31.7494
G01 X61.6398 Y31.6681
G01 X60.8030 Y31.5082
G01 X60.2104 Y31.4145
G01 X59.6139 Y31.3509
G01 X59.0145 Y31.3270
G02 X57.7827 Y31.5332 I-0.1213 J3.0583
G02 X57.0614 Y32.2029 I0.7028 J1.4802
G02 X56.6363 Y33.2147 I4.3101 J2.4061
G01 X56.0741 Y35.2591
G01 X55.7747 Y36.2260
G01 X55.7350 Y36.4216
G02 X55.8260 Y36.7959 I0.4612 J0.0861
G01 X55.9195 Y36.8181
G01 X56.0024 Y36.7651
G01 X56.0929 Y36.6553
G01 X56.2869 Y36.1951
G01 X56.5437 Y35.4375
G00 Z5.0000


(Nr. 5: Gravur 22)
G00 X58.7000 Y32.7703 Z5.0000
G00 Z0.5000
G01 Z-0.1000 F900
G02 X58.3868 Y32.8755 I-0.1379 J0.1084 F1200
G02 X58.5687 Y33.2895 I0.2850 J0.1218
G02 X58.7506 Y33.1083 I-0.0421 J-0.2242
G02 X58.7000 Y32.7703 I-0.3846 J-0.1152
G01 Z-0.2000 F900
G02 X58.3868 Y32.8755 I-0.1379 J0.1084 F1200
G02 X58.5687 Y33.2895 I0.2850 J0.1218
G02 X58.7506 Y33.1083 I-0.0421 J-0.2242
G02 X58.7000 Y32.7703 I-0.3846 J-0.1152
G01 Z-0.3000 F900
G02 X58.3868 Y32.8755 I-0.1379 J0.1084 F1200
G02 X58.5687 Y33.2895 I0.2850 J0.1218
G02 X58.7506 Y33.1083 I-0.0421 J-0.2242
G02 X58.7000 Y32.7703 I-0.3846 J-0.1152
G01 Z-0.4000 F900
G02 X58.3868 Y32.8755 I-0.1379 J0.1084 F1200
G02 X58.5687 Y33.2895 I0.2850 J0.1218
G02 X58.7506 Y33.1083 I-0.0421 J-0.2242
G02 X58.7000 Y32.7703 I-0.3846 J-0.1152
G01 Z-0.5000 F900
G02 X58.3868 Y32.8755 I-0.1379 J0.1084 F1200
G02 X58.5687 Y33.2895 I0.2850 J0.1218
G02 X58.7506 Y33.1083 I-0.0421 J-0.2242
G02 X58.7000 Y32.7703 I-0.3846 J-0.1152
G00 Z5.0000


(Nr. 6: Gravur 19)
G00 X59.5682 Y29.3507 Z5.0000
G00 Z0.5000
G01 Z-0.1000 F900
G02 X59.9547 Y28.8574 I-0.2474 J-0.5919 F1200
G02 X59.8089 Y28.7480 I-0.1360 J0.0295
G01 X59.4319 Y28.8810
G02 X57.1390 Y29.8835 I6.8142 J18.7079
G02 X56.7683 Y30.2049 I0.3242 J0.7484
G01 X56.8218 Y30.2808
G01 X56.9186 Y30.3046
G01 X57.0539 Y30.3130
G01 X57.4426 Y30.2225
G01 X58.1967 Y29.9556
G01 X59.0286 Y29.6126
G01 X59.5682 Y29.3507
G01 Z-0.2000 F900
G02 X59.9547 Y28.8574 I-0.2474 J-0.5919 F1200
G02 X59.8089 Y28.7480 I-0.1360 J0.0295
G01 X59.4319 Y28.8810
G02 X57.1390 Y29.8835 I6.8142 J18.7079
G02 X56.7683 Y30.2049 I0.3242 J0.7484
G01 X56.8218 Y30.2808
G01 X56.9186 Y30.3046
G01 X57.0539 Y30.3130
G01 X57.4426 Y30.2225
G01 X58.1967 Y29.9556
G01 X59.0286 Y29.6126
G01 X59.5682 Y29.3507
G01 Z-0.3000 F900
G02 X59.9547 Y28.8574 I-0.2474 J-0.5919 F1200
G02 X59.8089 Y28.7480 I-0.1360 J0.0295
G01 X59.4319 Y28.8810
G02 X57.1390 Y29.8835 I6.8142 J18.7079
G02 X56.7683 Y30.2049 I0.3242 J0.7484
G01 X56.8218 Y30.2808
G01 X56.9186 Y30.3046
G01 X57.0539 Y30.3130
G01 X57.4426 Y30.2225
G01 X58.1967 Y29.9556
G01 X59.0286 Y29.6126
G01 X59.5682 Y29.3507
G01 Z-0.4000 F900
G02 X59.9547 Y28.8574 I-0.2474 J-0.5919 F1200
G02 X59.8089 Y28.7480 I-0.1360 J0.0295
G01 X59.4319 Y28.8810
G02 X57.1390 Y29.8835 I6.8142 J18.7079
G02 X56.7683 Y30.2049 I0.3242 J0.7484
G01 X56.8218 Y30.2808
G01 X56.9186 Y30.3046
G01 X57.0539 Y30.3130
G01 X57.4426 Y30.2225
G01 X58.1967 Y29.9556
G01 X59.0286 Y29.6126
G01 X59.5682 Y29.3507
G01 Z-0.5000 F900
G02 X59.9547 Y28.8574 I-0.2474 J-0.5919 F1200
G02 X59.8089 Y28.7480 I-0.1360 J0.0295
G01 X59.4319 Y28.8810
G02 X57.1390 Y29.8835 I6.8142 J18.7079
G02 X56.7683 Y30.2049 I0.3242 J0.7484
G01 X56.8218 Y30.2808
G01 X56.9186 Y30.3046
G01 X57.0539 Y30.3130
G01 X57.4426 Y30.2225
G01 X58.1967 Y29.9556
G01 X59.0286 Y29.6126
G01 X59.5682 Y29.3507
G00 Z5.0000


(Nr. 7: Gravur 21)
G00 X58.4734 Y27.5767 Z5.0000
G00 Z0.5000
G01 Z-0.1000 F900
G02 X56.9796 Y28.1198 I1.2476 J5.7570 F1200
G02 X56.5627 Y28.5360 I0.3893 J0.8067
G01 X56.5777 Y28.6291
G01 X56.6657 Y28.6694
G01 X56.7652 Y28.6709
G02 X58.5072 Y28.0091 I-1.3996 J-6.3068
G02 X58.7671 Y27.7434 I-0.2244 J-0.4795
G02 X58.4734 Y27.5767 I-0.2025 J0.0146
G01 Z-0.2000 F900
G02 X56.9796 Y28.1198 I1.2476 J5.7570 F1200
G02 X56.5627 Y28.5360 I0.3893 J0.8067
G01 X56.5777 Y28.6291
G01 X56.6657 Y28.6694
G01 X56.7652 Y28.6709
G02 X58.5072 Y28.0091 I-1.3996 J-6.3068
G02 X58.7671 Y27.7434 I-0.2244 J-0.4795
G02 X58.4734 Y27.5767 I-0.2025 J0.0146
G01 Z-0.3000 F900
G02 X56.9796 Y28.1198 I1.2476 J5.7570 F1200
G02 X56.5627 Y28.5360 I0.3893 J0.8067
G01 X56.5777 Y28.6291
G01 X56.6657 Y28.6694
G01 X56.7652 Y28.6709
G02 X58.5072 Y28.0091 I-1.3996 J-6.3068
G02 X58.7671 Y27.7434 I-0.2244 J-0.4795
G02 X58.4734 Y27.5767 I-0.2025 J0.0146
G01 Z-0.4000 F900
G02 X56.9796 Y28.1198 I1.2476 J5.7570 F1200
G02 X56.5627 Y28.5360 I0.3893 J0.8067
G01 X56.5777 Y28.6291
G01 X56.6657 Y28.6694
G01 X56.7652 Y28.6709
G02 X58.5072 Y28.0091 I-1.3996 J-6.3068
G02 X58.7671 Y27.7434 I-0.2244 J-0.4795
G02 X58.4734 Y27.5767 I-0.2025 J0.0146
G01 Z-0.5000 F900
G02 X56.9796 Y28.1198 I1.2476 J5.7570 F1200
G02 X56.5627 Y28.5360 I0.3893 J0.8067
G01 X56.5777 Y28.6291
G01 X56.6657 Y28.6694
G01 X56.7652 Y28.6709
G02 X58.5072 Y28.0091 I-1.3996 J-6.3068
G02 X58.7671 Y27.7434 I-0.2244 J-0.4795
G02 X58.4734 Y27.5767 I-0.2025 J0.0146
G00 Z5.0000


(Nr. 8: Gravur 20)
G00 X68.6572 Y28.6507 Z5.0000
G00 Z0.5000
G01 Z-0.1000 F900
G01 X68.0844 Y28.4721 F1200
G01 X67.5211 Y28.2657
G01 X67.0631 Y28.0655
G01 X66.4831 Y27.7565
G01 X66.3314 Y27.6993
G01 X66.1731 Y27.6662
G02 X65.9995 Y27.8071 I-0.0445 J0.1226
G02 X66.2210 Y28.1277 I0.5342 J-0.1323
G02 X67.5420 Y28.8265 I3.1665 J-4.3877
G02 X69.1713 Y29.3036 I3.4724 J-8.8367
G02 X70.3629 Y29.3616 I0.7619 J-3.3863
G02 X71.0286 Y29.1620 I-0.1755 J-1.7953
G02 X70.9712 Y28.9586 I-0.0571 J-0.0937
G01 X70.6764 Y28.9075
G01 X70.3766 Y28.9025
G01 X70.0280 Y28.9187
G01 X69.7293 Y28.8927
G01 X69.2381 Y28.8005
G01 X68.6572 Y28.6507
G01 Z-0.2000 F900
G01 X68.0844 Y28.4721 F1200
G01 X67.5211 Y28.2657
G01 X67.0631 Y28.0655
G01 X66.4831 Y27.7565
G01 X66.3314 Y27.6993
G01 X66.1731 Y27.6662
G02 X65.9995 Y27.8071 I-0.0445 J0.1226
G02 X66.2210 Y28.1277 I0.5342 J-0.1323
G02 X67.5420 Y28.8265 I3.1665 J-4.3877
G02 X69.1713 Y29.3036 I3.4724 J-8.8367
G02 X70.3629 Y29.3616 I0.7619 J-3.3863
G02 X71.0286 Y29.1620 I-0.1755 J-1.7953
G02 X70.9712 Y28.9586 I-0.0571 J-0.0937
G01 X70.6764 Y28.9075
G01 X70.3766 Y28.9025
G01 X70.0280 Y28.9187
G01 X69.7293 Y28.8927
G01 X69.2381 Y28.8005
G01 X68.6572 Y28.6507
G01 Z-0.3000 F900
G01 X68.0844 Y28.4721 F1200
G01 X67.5211 Y28.2657
G01 X67.0631 Y28.0655
G01 X66.4831 Y27.7565
G01 X66.3314 Y27.6993
G01 X66.1731 Y27.6662
G02 X65.9995 Y27.8071 I-0.0445 J0.1226
G02 X66.2210 Y28.1277 I0.5342 J-0.1323
G02 X67.5420 Y28.8265 I3.1665 J-4.3877
G02 X69.1713 Y29.3036 I3.4724 J-8.8367
G02 X70.3629 Y29.3616 I0.7619 J-3.3863
G02 X71.0286 Y29.1620 I-0.1755 J-1.7953
G02 X70.9712 Y28.9586 I-0.0571 J-0.0937
G01 X70.6764 Y28.9075
G01 X70.3766 Y28.9025
G01 X70.0280 Y28.9187
G01 X69.7293 Y28.8927
G01 X69.2381 Y28.8005
G01 X68.6572 Y28.6507
G01 Z-0.4000 F900
G01 X68.0844 Y28.4721 F1200
G01 X67.5211 Y28.2657
G01 X67.0631 Y28.0655
G01 X66.4831 Y27.7565
G01 X66.3314 Y27.6993
G01 X66.1731 Y27.6662
G02 X65.9995 Y27.8071 I-0.0445 J0.1226
G02 X66.2210 Y28.1277 I0.5342 J-0.1323
G02 X67.5420 Y28.8265 I3.1665 J-4.3877
G02 X69.1713 Y29.3036 I3.4724 J-8.8367
G02 X70.3629 Y29.3616 I0.7619 J-3.3863
G02 X71.0286 Y29.1620 I-0.1755 J-1.7953
G02 X70.9712 Y28.9586 I-0.0571 J-0.0937
G01 X70.6764 Y28.9075
G01 X70.3766 Y28.9025
G01 X70.0280 Y28.9187
G01 X69.7293 Y28.8927
G01 X69.2381 Y28.8005
G01 X68.6572 Y28.6507
G01 Z-0.5000 F900
G01 X68.0844 Y28.4721 F1200
G01 X67.5211 Y28.2657
G01 X67.0631 Y28.0655
G01 X66.4831 Y27.7565
G01 X66.3314 Y27.6993
G01 X66.1731 Y27.6662
G02 X65.9995 Y27.8071 I-0.0445 J0.1226
G02 X66.2210 Y28.1277 I0.5342 J-0.1323
G02 X67.5420 Y28.8265 I3.1665 J-4.3877
G02 X69.1713 Y29.3036 I3.4724 J-8.8367
G02 X70.3629 Y29.3616 I0.7619 J-3.3863
G02 X71.0286 Y29.1620 I-0.1755 J-1.7953
G02 X70.9712 Y28.9586 I-0.0571 J-0.0937
G01 X70.6764 Y28.9075
G01 X70.3766 Y28.9025
G01 X70.0280 Y28.9187
G01 X69.7293 Y28.8927
G01 X69.2381 Y28.8005
G01 X68.6572 Y28.6507
G00 Z5.0000


(Nr. 9: Gravur 24)
G00 X73.2836 Y33.8794 Z5.0000
G00 Z0.5000
G01 Z-0.1000 F900
G02 X73.6499 Y33.6981 I0.0901 J-0.2786 F1200
G02 X73.3012 Y33.3702 I-0.3390 J0.0111
G02 X73.0583 Y33.6665 I0.1028 J0.3319
G02 X73.2836 Y33.8794 I0.2289 J-0.0165
G01 Z-0.2000 F900
G02 X73.6499 Y33.6981 I0.0901 J-0.2786 F1200
G02 X73.3012 Y33.3702 I-0.3390 J0.0111
G02 X73.0583 Y33.6665 I0.1028 J0.3319
G02 X73.2836 Y33.8794 I0.2289 J-0.0165
G01 Z-0.3000 F900
G02 X73.6499 Y33.6981 I0.0901 J-0.2786 F1200
G02 X73.3012 Y33.3702 I-0.3390 J0.0111
G02 X73.0583 Y33.6665 I0.1028 J0.3319
G02 X73.2836 Y33.8794 I0.2289 J-0.0165
G01 Z-0.4000 F900
G02 X73.6499 Y33.6981 I0.0901 J-0.2786 F1200
G02 X73.3012 Y33.3702 I-0.3390 J0.0111
G02 X73.0583 Y33.6665 I0.1028 J0.3319
G02 X73.2836 Y33.8794 I0.2289 J-0.0165
G01 Z-0.5000 F900
G02 X73.6499 Y33.6981 I0.0901 J-0.2786 F1200
G02 X73.3012 Y33.3702 I-0.3390 J0.0111
G02 X73.0583 Y33.6665 I0.1028 J0.3319
G02 X73.2836 Y33.8794 I0.2289 J-0.0165
G00 Z5.0000


(Nr. 10: Gravur 17)
G00 X66.7261 Y38.3858 Z5.0000
G00 Z0.5000
G01 Z-0.1000 F900
G01 X66.7670 Y39.5850 F1200
G01 X66.8356 Y40.5826
G01 X66.9250 Y41.2765
G01 X66.9481 Y41.3738
G01 X67.0023 Y41.4759
G01 X67.0635 Y41.4052
G01 X67.1289 Y41.1129
G01 X67.1854 Y40.6162
G01 X67.2312 Y39.9177
G02 X67.2225 Y37.1194 I-24.7323 J-1.3219
G01 X67.1667 Y36.7236
G01 X67.1146 Y36.5967
G02 X66.8035 Y36.6915 I-0.1387 J0.1025
G01 X66.7636 Y36.8871
G01 X66.7340 Y37.2859
G01 X66.7261 Y38.3858
G01 Z-0.2000 F900
G01 X66.7670 Y39.5850 F1200
G01 X66.8356 Y40.5826
G01 X66.9250 Y41.2765
G01 X66.9481 Y41.3738
G01 X67.0023 Y41.4759
G01 X67.0635 Y41.4052
G01 X67.1289 Y41.1129
G01 X67.1854 Y40.6162
G01 X67.2312 Y39.9177
G02 X67.2225 Y37.1194 I-24.7323 J-1.3219
G01 X67.1667 Y36.7236
G01 X67.1146 Y36.5967
G02 X66.8035 Y36.6915 I-0.1387 J0.1025
G01 X66.7636 Y36.8871
G01 X66.7340 Y37.2859
G01 X66.7261 Y38.3858
G01 Z-0.3000 F900
G01 X66.7670 Y39.5850 F1200
G01 X66.8356 Y40.5826
G01 X66.9250 Y41.2765
G01 X66.9481 Y41.3738
G01 X67.0023 Y41.4759
G01 X67.0635 Y41.4052
G01 X67.1289 Y41.1129
G01 X67.1854 Y40.6162
G01 X67.2312 Y39.9177
G02 X67.2225 Y37.1194 I-24.7323 J-1.3219
G01 X67.1667 Y36.7236
G01 X67.1146 Y36.5967
G02 X66.8035 Y36.6915 I-0.1387 J0.1025
G01 X66.7636 Y36.8871
G01 X66.7340 Y37.2859
G01 X66.7261 Y38.3858
G01 Z-0.4000 F900
G01 X66.7670 Y39.5850 F1200
G01 X66.8356 Y40.5826
G01 X66.9250 Y41.2765
G01 X66.9481 Y41.3738
G01 X67.0023 Y41.4759
G01 X67.0635 Y41.4052
G01 X67.1289 Y41.1129
G01 X67.1854 Y40.6162
G01 X67.2312 Y39.9177
G02 X67.2225 Y37.1194 I-24.7323 J-1.3219
G01 X67.1667 Y36.7236
G01 X67.1146 Y36.5967
G02 X66.8035 Y36.6915 I-0.1387 J0.1025
G01 X66.7636 Y36.8871
G01 X66.7340 Y37.2859
G01 X66.7261 Y38.3858
G01 Z-0.5000 F900
G01 X66.7670 Y39.5850 F1200
G01 X66.8356 Y40.5826
G01 X66.9250 Y41.2765
G01 X66.9481 Y41.3738
G01 X67.0023 Y41.4759
G01 X67.0635 Y41.4052
G01 X67.1289 Y41.1129
G01 X67.1854 Y40.6162
G01 X67.2312 Y39.9177
G02 X67.2225 Y37.1194 I-24.7323 J-1.3219
G01 X67.1667 Y36.7236
G01 X67.1146 Y36.5967
G02 X66.8035 Y36.6915 I-0.1387 J0.1025
G01 X66.7636 Y36.8871
G01 X66.7340 Y37.2859
G01 X66.7261 Y38.3858
G00 Z5.0000


(Nr. 11: Gravur 14)
G00 X64.2572 Y47.8791 Z5.0000
G00 Z0.5000
G01 Z-0.1000 F900
G01 X63.8666 Y47.9632 F1200
G01 X63.4285 Y47.9885
G01 X63.0326 Y48.0443
G01 X62.7424 Y48.1196
G01 X62.5569 Y48.1939
G02 X62.3390 Y48.4196 I0.0895 J0.3045
G01 X62.4008 Y48.4916
G01 X62.4963 Y48.5201
G01 X62.7950 Y48.5423
G02 X65.0439 Y48.1172 I-0.1725 J-7.0736
G02 X65.6113 Y47.6776 I-0.8016 J-1.6202
G01 X65.6681 Y47.5955
G01 X65.6967 Y47.5007
G01 X65.6495 Y47.4197
G02 X65.2586 Y47.4511 I-0.1462 J0.6283
G01 X64.9801 Y47.5620
G01 X64.5399 Y47.7791
G01 X64.2572 Y47.8791
G01 Z-0.2000 F900
G01 X63.8666 Y47.9632 F1200
G01 X63.4285 Y47.9885
G01 X63.0326 Y48.0443
G01 X62.7424 Y48.1196
G01 X62.5569 Y48.1939
G02 X62.3390 Y48.4196 I0.0895 J0.3045
G01 X62.4008 Y48.4916
G01 X62.4963 Y48.5201
G01 X62.7950 Y48.5423
G02 X65.0439 Y48.1172 I-0.1725 J-7.0736
G02 X65.6113 Y47.6776 I-0.8016 J-1.6202
G01 X65.6681 Y47.5955
G01 X65.6967 Y47.5007
G01 X65.6495 Y47.4197
G02 X65.2586 Y47.4511 I-0.1462 J0.6283
G01 X64.9801 Y47.5620
G01 X64.5399 Y47.7791
G01 X64.2572 Y47.8791
G01 Z-0.3000 F900
G01 X63.8666 Y47.9632 F1200
G01 X63.4285 Y47.9885
G01 X63.0326 Y48.0443
G01 X62.7424 Y48.1196
G01 X62.5569 Y48.1939
G02 X62.3390 Y48.4196 I0.0895 J0.3045
G01 X62.4008 Y48.4916
G01 X62.4963 Y48.5201
G01 X62.7950 Y48.5423
G02 X65.0439 Y48.1172 I-0.1725 J-7.0736
G02 X65.6113 Y47.6776 I-0.8016 J-1.6202
G01 X65.6681 Y47.5955
G01 X65.6967 Y47.5007
G01 X65.6495 Y47.4197
G02 X65.2586 Y47.4511 I-0.1462 J0.6283
G01 X64.9801 Y47.5620
G01 X64.5399 Y47.7791
G01 X64.2572 Y47.8791
G01 Z-0.4000 F900
G01 X63.8666 Y47.9632 F1200
G01 X63.4285 Y47.9885
G01 X63.0326 Y48.0443
G01 X62.7424 Y48.1196
G01 X62.5569 Y48.1939
G02 X62.3390 Y48.4196 I0.0895 J0.3045
G01 X62.4008 Y48.4916
G01 X62.4963 Y48.5201
G01 X62.7950 Y48.5423
G02 X65.0439 Y48.1172 I-0.1725 J-7.0736
G02 X65.6113 Y47.6776 I-0.8016 J-1.6202
G01 X65.6681 Y47.5955
G01 X65.6967 Y47.5007
G01 X65.6495 Y47.4197
G02 X65.2586 Y47.4511 I-0.1462 J0.6283
G01 X64.9801 Y47.5620
G01 X64.5399 Y47.7791
G01 X64.2572 Y47.8791
G01 Z-0.5000 F900
G01 X63.8666 Y47.9632 F1200
G01 X63.4285 Y47.9885
G01 X63.0326 Y48.0443
G01 X62.7424 Y48.1196
G01 X62.5569 Y48.1939
G02 X62.3390 Y48.4196 I0.0895 J0.3045
G01 X62.4008 Y48.4916
G01 X62.4963 Y48.5201
G01 X62.7950 Y48.5423
G02 X65.0439 Y48.1172 I-0.1725 J-7.0736
G02 X65.6113 Y47.6776 I-0.8016 J-1.6202
G01 X65.6681 Y47.5955
G01 X65.6967 Y47.5007
G01 X65.6495 Y47.4197
G02 X65.2586 Y47.4511 I-0.1462 J0.6283
G01 X64.9801 Y47.5620
G01 X64.5399 Y47.7791
G01 X64.2572 Y47.8791
G00 Z5.0000


(Nr. 12: Gravur 15)
G00 X68.2866 Y48.2491 Z5.0000
G00 Z0.5000
G01 Z-0.1000 F900
G01 X68.0428 Y48.0780 F1200
G01 X67.7862 Y47.9225
G01 X67.2616 Y47.6325
G01 X67.1656 Y47.6083
G01 X67.1015 Y47.7413
G01 X67.1354 Y47.8346
G01 X67.2537 Y47.9955
G01 X67.4588 Y48.2143
G01 X67.7540 Y48.4841
G02 X68.5058 Y48.9661 I1.5531 J-1.5953
G02 X68.6737 Y48.7006 I0.0374 J-0.1622
G01 X68.6269 Y48.6123
G01 X68.5055 Y48.4537
G01 X68.2866 Y48.2491
G01 Z-0.2000 F900
G01 X68.0428 Y48.0780 F1200
G01 X67.7862 Y47.9225
G01 X67.2616 Y47.6325
G01 X67.1656 Y47.6083
G01 X67.1015 Y47.7413
G01 X67.1354 Y47.8346
G01 X67.2537 Y47.9955
G01 X67.4588 Y48.2143
G01 X67.7540 Y48.4841
G02 X68.5058 Y48.9661 I1.5531 J-1.5953
G02 X68.6737 Y48.7006 I0.0374 J-0.1622
G01 X68.6269 Y48.6123
G01 X68.5055 Y48.4537
G01 X68.2866 Y48.2491
G01 Z-0.3000 F900
G01 X68.0428 Y48.0780 F1200
G01 X67.7862 Y47.9225
G01 X67.2616 Y47.6325
G01 X67.1656 Y47.6083
G01 X67.1015 Y47.7413
G01 X67.1354 Y47.8346
G01 X67.2537 Y47.9955
G01 X67.4588 Y48.2143
G01 X67.7540 Y48.4841
G02 X68.5058 Y48.9661 I1.5531 J-1.5953
G02 X68.6737 Y48.7006 I0.0374 J-0.1622
G01 X68.6269 Y48.6123
G01 X68.5055 Y48.4537
G01 X68.2866 Y48.2491
G01 Z-0.4000 F900
G01 X68.0428 Y48.0780 F1200
G01 X67.7862 Y47.9225
G01 X67.2616 Y47.6325
G01 X67.1656 Y47.6083
G01 X67.1015 Y47.7413
G01 X67.1354 Y47.8346
G01 X67.2537 Y47.9955
G01 X67.4588 Y48.2143
G01 X67.7540 Y48.4841
G02 X68.5058 Y48.9661 I1.5531 J-1.5953
G02 X68.6737 Y48.7006 I0.0374 J-0.1622
G01 X68.6269 Y48.6123
G01 X68.5055 Y48.4537
G01 X68.2866 Y48.2491
G01 Z-0.5000 F900
G01 X68.0428 Y48.0780 F1200
G01 X67.7862 Y47.9225
G01 X67.2616 Y47.6325
G01 X67.1656 Y47.6083
G01 X67.1015 Y47.7413
G01 X67.1354 Y47.8346
G01 X67.2537 Y47.9955
G01 X67.4588 Y48.2143
G01 X67.7540 Y48.4841
G02 X68.5058 Y48.9661 I1.5531 J-1.5953
G02 X68.6737 Y48.7006 I0.0374 J-0.1622
G01 X68.6269 Y48.6123
G01 X68.5055 Y48.4537
G01 X68.2866 Y48.2491
G00 Z5.0000


(Nr. 13: Gravur 13)
G00 X66.4152 Y52.7965 Z5.0000
G00 Z0.5000
G01 Z-0.1000 F900
G01 X66.8275 Y53.7073 F1200
G01 X66.9745 Y53.9687
G01 X67.0764 Y54.0840
G02 X67.2726 Y53.9954 I0.0569 J-0.1355
G01 X67.2881 Y53.8940
G01 X67.2362 Y53.5989
G02 X66.5160 Y51.7362 I-10.7127 J3.0715
G01 X66.2676 Y51.3029
G01 X66.1589 Y51.1970
G01 X66.0401 Y51.1788
G01 X65.9544 Y51.2039
G01 X65.9213 Y51.2518
G01 X65.9142 Y51.2812
G01 X65.9475 Y51.4781
G01 X66.1269 Y52.0504
G01 X66.4152 Y52.7965
G01 Z-0.2000 F900
G01 X66.8275 Y53.7073 F1200
G01 X66.9745 Y53.9687
G01 X67.0764 Y54.0840
G02 X67.2726 Y53.9954 I0.0569 J-0.1355
G01 X67.2881 Y53.8940
G01 X67.2362 Y53.5989
G02 X66.5160 Y51.7362 I-10.7127 J3.0715
G01 X66.2676 Y51.3029
G01 X66.1589 Y51.1970
G01 X66.0401 Y51.1788
G01 X65.9544 Y51.2039
G01 X65.9213 Y51.2518
G01 X65.9142 Y51.2812
G01 X65.9475 Y51.4781
G01 X66.1269 Y52.0504
G01 X66.4152 Y52.7965
G01 Z-0.3000 F900
G01 X66.8275 Y53.7073 F1200
G01 X66.9745 Y53.9687
G01 X67.0764 Y54.0840
G02 X67.2726 Y53.9954 I0.0569 J-0.1355
G01 X67.2881 Y53.8940
G01 X67.2362 Y53.5989
G02 X66.5160 Y51.7362 I-10.7127 J3.0715
G01 X66.2676 Y51.3029
G01 X66.1589 Y51.1970
G01 X66.0401 Y51.1788
G01 X65.9544 Y51.2039
G01 X65.9213 Y51.2518
G01 X65.9142 Y51.2812
G01 X65.9475 Y51.4781
G01 X66.1269 Y52.0504
G01 X66.4152 Y52.7965
G01 Z-0.4000 F900
G01 X66.8275 Y53.7073 F1200
G01 X66.9745 Y53.9687
G01 X67.0764 Y54.0840
G02 X67.2726 Y53.9954 I0.0569 J-0.1355
G01 X67.2881 Y53.8940
G01 X67.2362 Y53.5989
G02 X66.5160 Y51.7362 I-10.7127 J3.0715
G01 X66.2676 Y51.3029
G01 X66.1589 Y51.1970
G01 X66.0401 Y51.1788
G01 X65.9544 Y51.2039
G01 X65.9213 Y51.2518
G01 X65.9142 Y51.2812
G01 X65.9475 Y51.4781
G01 X66.1269 Y52.0504
G01 X66.4152 Y52.7965
G01 Z-0.5000 F900
G01 X66.8275 Y53.7073 F1200
G01 X66.9745 Y53.9687
G01 X67.0764 Y54.0840
G02 X67.2726 Y53.9954 I0.0569 J-0.1355
G01 X67.2881 Y53.8940
G01 X67.2362 Y53.5989
G02 X66.5160 Y51.7362 I-10.7127 J3.0715
G01 X66.2676 Y51.3029
G01 X66.1589 Y51.1970
G01 X66.0401 Y51.1788
G01 X65.9544 Y51.2039
G01 X65.9213 Y51.2518
G01 X65.9142 Y51.2812
G01 X65.9475 Y51.4781
G01 X66.1269 Y52.0504
G01 X66.4152 Y52.7965
G00 Z5.0000


(Nr. 14: Gravur 12)
G00 X64.0567 Y52.7371 Z5.0000
G00 Z0.5000
G01 Z-0.1000 F900
G01 X63.9998 Y52.9142 F1200
G01 X63.8506 Y53.1564
G01 X63.8154 Y53.2497
G01 X63.7850 Y53.4468
G01 X63.7875 Y53.6466
G01 X63.8358 Y53.9423
G01 X63.9303 Y54.2265
G02 X64.2258 Y54.5223 I0.4319 J-0.1359
G01 X64.2988 Y54.5035
G01 X64.3594 Y54.4584
G01 X64.4024 Y54.3959
G01 X64.4575 Y54.2544
G01 X64.4873 Y54.1052
G01 X64.5715 Y52.3651
G01 X64.5617 Y51.9965
G01 X64.5269 Y51.8156
G01 X64.4467 Y51.6513
G02 X64.1963 Y51.6825 I-0.1174 J0.0779
G01 X64.1414 Y51.8931
G01 X64.1165 Y52.3700
G01 X64.0567 Y52.7371
G01 Z-0.2000 F900
G01 X63.9998 Y52.9142 F1200
G01 X63.8506 Y53.1564
G01 X63.8154 Y53.2497
G01 X63.7850 Y53.4468
G01 X63.7875 Y53.6466
G01 X63.8358 Y53.9423
G01 X63.9303 Y54.2265
G02 X64.2258 Y54.5223 I0.4319 J-0.1359
G01 X64.2988 Y54.5035
G01 X64.3594 Y54.4584
G01 X64.4024 Y54.3959
G01 X64.4575 Y54.2544
G01 X64.4873 Y54.1052
G01 X64.5715 Y52.3651
G01 X64.5617 Y51.9965
G01 X64.5269 Y51.8156
G01 X64.4467 Y51.6513
G02 X64.1963 Y51.6825 I-0.1174 J0.0779
G01 X64.1414 Y51.8931
G01 X64.1165 Y52.3700
G01 X64.0567 Y52.7371
G01 Z-0.3000 F900
G01 X63.9998 Y52.9142 F1200
G01 X63.8506 Y53.1564
G01 X63.8154 Y53.2497
G01 X63.7850 Y53.4468
G01 X63.7875 Y53.6466
G01 X63.8358 Y53.9423
G01 X63.9303 Y54.2265
G02 X64.2258 Y54.5223 I0.4319 J-0.1359
G01 X64.2988 Y54.5035
G01 X64.3594 Y54.4584
G01 X64.4024 Y54.3959
G01 X64.4575 Y54.2544
G01 X64.4873 Y54.1052
G01 X64.5715 Y52.3651
G01 X64.5617 Y51.9965
G01 X64.5269 Y51.8156
G01 X64.4467 Y51.6513
G02 X64.1963 Y51.6825 I-0.1174 J0.0779
G01 X64.1414 Y51.8931
G01 X64.1165 Y52.3700
G01 X64.0567 Y52.7371
G01 Z-0.4000 F900
G01 X63.9998 Y52.9142 F1200
G01 X63.8506 Y53.1564
G01 X63.8154 Y53.2497
G01 X63.7850 Y53.4468
G01 X63.7875 Y53.6466
G01 X63.8358 Y53.9423
G01 X63.9303 Y54.2265
G02 X64.2258 Y54.5223 I0.4319 J-0.1359
G01 X64.2988 Y54.5035
G01 X64.3594 Y54.4584
G01 X64.4024 Y54.3959
G01 X64.4575 Y54.2544
G01 X64.4873 Y54.1052
G01 X64.5715 Y52.3651
G01 X64.5617 Y51.9965
G01 X64.5269 Y51.8156
G01 X64.4467 Y51.6513
G02 X64.1963 Y51.6825 I-0.1174 J0.0779
G01 X64.1414 Y51.8931
G01 X64.1165 Y52.3700
G01 X64.0567 Y52.7371
G01 Z-0.5000 F900
G01 X63.9998 Y52.9142 F1200
G01 X63.8506 Y53.1564
G01 X63.8154 Y53.2497
G01 X63.7850 Y53.4468
G01 X63.7875 Y53.6466
G01 X63.8358 Y53.9423
G01 X63.9303 Y54.2265
G02 X64.2258 Y54.5223 I0.4319 J-0.1359
G01 X64.2988 Y54.5035
G01 X64.3594 Y54.4584
G01 X64.4024 Y54.3959
G01 X64.4575 Y54.2544
G01 X64.4873 Y54.1052
G01 X64.5715 Y52.3651
G01 X64.5617 Y51.9965
G01 X64.5269 Y51.8156
G01 X64.4467 Y51.6513
G02 X64.1963 Y51.6825 I-0.1174 J0.0779
G01 X64.1414 Y51.8931
G01 X64.1165 Y52.3700
G01 X64.0567 Y52.7371
G00 Z5.0000


(Nr. 15: Gravur 11)
G00 X61.6845 Y53.3776 Z5.0000
G00 Z0.5000
G01 Z-0.1000 F900
G01 X61.6753 Y52.6845 F1200
G01 X61.6431 Y52.2861
G01 X61.6013 Y52.0908
G01 X61.5616 Y51.9994
G01 X61.4851 Y51.9436
G01 X61.4036 Y51.9968
G01 X61.3499 Y52.0808
G01 X61.2375 Y52.3515
G01 X61.1644 Y52.7442
G01 X61.1381 Y53.2433
G02 X61.3098 Y54.8305 I7.1336 J0.0310
G01 X61.3923 Y55.1188
G01 X61.4672 Y55.3041
G02 X61.6794 Y55.5145 I0.2859 J-0.0762
G02 X61.8782 Y55.2864 I0.0118 J-0.1904
G01 X61.8693 Y55.1132
G01 X61.7454 Y54.2754
G01 X61.6845 Y53.3776
G01 Z-0.2000 F900
G01 X61.6753 Y52.6845 F1200
G01 X61.6431 Y52.2861
G01 X61.6013 Y52.0908
G01 X61.5616 Y51.9994
G01 X61.4851 Y51.9436
G01 X61.4036 Y51.9968
G01 X61.3499 Y52.0808
G01 X61.2375 Y52.3515
G01 X61.1644 Y52.7442
G01 X61.1381 Y53.2433
G02 X61.3098 Y54.8305 I7.1336 J0.0310
G01 X61.3923 Y55.1188
G01 X61.4672 Y55.3041
G02 X61.6794 Y55.5145 I0.2859 J-0.0762
G02 X61.8782 Y55.2864 I0.0118 J-0.1904
G01 X61.8693 Y55.1132
G01 X61.7454 Y54.2754
G01 X61.6845 Y53.3776
G01 Z-0.3000 F900
G01 X61.6753 Y52.6845 F1200
G01 X61.6431 Y52.2861
G01 X61.6013 Y52.0908
G01 X61.5616 Y51.9994
G01 X61.4851 Y51.9436
G01 X61.4036 Y51.9968
G01 X61.3499 Y52.0808
G01 X61.2375 Y52.3515
G01 X61.1644 Y52.7442
G01 X61.1381 Y53.2433
G02 X61.3098 Y54.8305 I7.1336 J0.0310
G01 X61.3923 Y55.1188
G01 X61.4672 Y55.3041
G02 X61.6794 Y55.5145 I0.2859 J-0.0762
G02 X61.8782 Y55.2864 I0.0118 J-0.1904
G01 X61.8693 Y55.1132
G01 X61.7454 Y54.2754
G01 X61.6845 Y53.3776
G01 Z-0.4000 F900
G01 X61.6753 Y52.6845 F1200
G01 X61.6431 Y52.2861
G01 X61.6013 Y52.0908
G01 X61.5616 Y51.9994
G01 X61.4851 Y51.9436
G01 X61.4036 Y51.9968
G01 X61.3499 Y52.0808
G01 X61.2375 Y52.3515
G01 X61.1644 Y52.7442
G01 X61.1381 Y53.2433
G02 X61.3098 Y54.8305 I7.1336 J0.0310
G01 X61.3923 Y55.1188
G01 X61.4672 Y55.3041
G02 X61.6794 Y55.5145 I0.2859 J-0.0762
G02 X61.8782 Y55.2864 I0.0118 J-0.1904
G01 X61.8693 Y55.1132
G01 X61.7454 Y54.2754
G01 X61.6845 Y53.3776
G01 Z-0.5000 F900
G01 X61.6753 Y52.6845 F1200
G01 X61.6431 Y52.2861
G01 X61.6013 Y52.0908
G01 X61.5616 Y51.9994
G01 X61.4851 Y51.9436
G01 X61.4036 Y51.9968
G01 X61.3499 Y52.0808
G01 X61.2375 Y52.3515
G01 X61.1644 Y52.7442
G01 X61.1381 Y53.2433
G02 X61.3098 Y54.8305 I7.1336 J0.0310
G01 X61.3923 Y55.1188
G01 X61.4672 Y55.3041
G02 X61.6794 Y55.5145 I0.2859 J-0.0762
G02 X61.8782 Y55.2864 I0.0118 J-0.1904
G01 X61.8693 Y55.1132
G01 X61.7454 Y54.2754
G01 X61.6845 Y53.3776
G00 Z5.0000


(Nr. 16: Gravur 10)
G00 X56.3705 Y64.5816 Z5.0000
G00 Z0.5000
G01 Z-0.1000 F900
G03 X56.6061 Y63.8232 I2.0231 J0.2128 F1200
G01 X56.7381 Y63.6740
G01 X57.1072 Y63.4555
G01 X57.1851 Y63.3934
G02 X57.2942 Y63.1298 I-0.1615 J-0.2212
G02 X56.7625 Y62.9239 I-0.3793 J0.1898
G02 X56.0039 Y63.7113 I0.6976 J1.4310
G01 X55.8941 Y63.9903
G01 X55.8411 Y64.1831
G01 X55.8053 Y64.3798
G01 X55.7633 Y64.8896
G01 X55.7180 Y65.0843
G01 X55.6150 Y65.3657
G01 X55.5267 Y65.5451
G01 X55.3709 Y65.8013
G01 X54.8641 Y66.4833
G01 X54.5876 Y66.8997
G01 X54.3960 Y67.2506
G01 X54.2882 Y67.5302
G02 X54.2808 Y67.9324 I0.6250 J0.2128
G02 X54.5946 Y68.2044 I0.3358 J-0.0703
G01 X54.6750 Y68.1689
G01 X54.7339 Y68.1032
G01 X54.7666 Y68.0218
G01 X54.8145 Y67.7477
G01 X54.8461 Y67.6529
G01 X55.0681 Y67.2055
G01 X55.2804 Y66.8666
G01 X55.7424 Y66.2183
G01 X56.0390 Y65.6973
G02 X56.3705 Y64.5816 I-3.1603 J-1.5461
G01 Z-0.2000 F900
G03 X56.6061 Y63.8232 I2.0231 J0.2128 F1200
G01 X56.7381 Y63.6740
G01 X57.1072 Y63.4555
G01 X57.1851 Y63.3934
G02 X57.2942 Y63.1298 I-0.1615 J-0.2212
G02 X56.7625 Y62.9239 I-0.3793 J0.1898
G02 X56.0039 Y63.7113 I0.6976 J1.4310
G01 X55.8941 Y63.9903
G01 X55.8411 Y64.1831
G01 X55.8053 Y64.3798
G01 X55.7633 Y64.8896
G01 X55.7180 Y65.0843
G01 X55.6150 Y65.3657
G01 X55.5267 Y65.5451
G01 X55.3709 Y65.8013
G01 X54.8641 Y66.4833
G01 X54.5876 Y66.8997
G01 X54.3960 Y67.2506
G01 X54.2882 Y67.5302
G02 X54.2808 Y67.9324 I0.6250 J0.2128
G02 X54.5946 Y68.2044 I0.3358 J-0.0703
G01 X54.6750 Y68.1689
G01 X54.7339 Y68.1032
G01 X54.7666 Y68.0218
G01 X54.8145 Y67.7477
G01 X54.8461 Y67.6529
G01 X55.0681 Y67.2055
G01 X55.2804 Y66.8666
G01 X55.7424 Y66.2183
G01 X56.0390 Y65.6973
G02 X56.3705 Y64.5816 I-3.1603 J-1.5461
G01 Z-0.3000 F900
G03 X56.6061 Y63.8232 I2.0231 J0.2128 F1200
G01 X56.7381 Y63.6740
G01 X57.1072 Y63.4555
G01 X57.1851 Y63.3934
G02 X57.2942 Y63.1298 I-0.1615 J-0.2212
G02 X56.7625 Y62.9239 I-0.3793 J0.1898
G02 X56.0039 Y63.7113 I0.6976 J1.4310
G01 X55.8941 Y63.9903
G01 X55.8411 Y64.1831
G01 X55.8053 Y64.3798
G01 X55.7633 Y64.8896
G01 X55.7180 Y65.0843
G01 X55.6150 Y65.3657
G01 X55.5267 Y65.5451
G01 X55.3709 Y65.8013
G01 X54.8641 Y66.4833
G01 X54.5876 Y66.8997
G01 X54.3960 Y67.2506
G01 X54.2882 Y67.5302
G02 X54.2808 Y67.9324 I0.6250 J0.2128
G02 X54.5946 Y68.2044 I0.3358 J-0.0703
G01 X54.6750 Y68.1689
G01 X54.7339 Y68.1032
G01 X54.7666 Y68.0218
G01 X54.8145 Y67.7477
G01 X54.8461 Y67.6529
G01 X55.0681 Y67.2055
G01 X55.2804 Y66.8666
G01 X55.7424 Y66.2183
G01 X56.0390 Y65.6973
G02 X56.3705 Y64.5816 I-3.1603 J-1.5461
G01 Z-0.4000 F900
G03 X56.6061 Y63.8232 I2.0231 J0.2128 F1200
G01 X56.7381 Y63.6740
G01 X57.1072 Y63.4555
G01 X57.1851 Y63.3934
G02 X57.2942 Y63.1298 I-0.1615 J-0.2212
G02 X56.7625 Y62.9239 I-0.3793 J0.1898
G02 X56.0039 Y63.7113 I0.6976 J1.4310
G01 X55.8941 Y63.9903
G01 X55.8411 Y64.1831
G01 X55.8053 Y64.3798
G01 X55.7633 Y64.8896
G01 X55.7180 Y65.0843
G01 X55.6150 Y65.3657
G01 X55.5267 Y65.5451
G01 X55.3709 Y65.8013
G01 X54.8641 Y66.4833
G01 X54.5876 Y66.8997
G01 X54.3960 Y67.2506
G01 X54.2882 Y67.5302
G02 X54.2808 Y67.9324 I0.6250 J0.2128
G02 X54.5946 Y68.2044 I0.3358 J-0.0703
G01 X54.6750 Y68.1689
G01 X54.7339 Y68.1032
G01 X54.7666 Y68.0218
G01 X54.8145 Y67.7477
G01 X54.8461 Y67.6529
G01 X55.0681 Y67.2055
G01 X55.2804 Y66.8666
G01 X55.7424 Y66.2183
G01 X56.0390 Y65.6973
G02 X56.3705 Y64.5816 I-3.1603 J-1.5461
G01 Z-0.5000 F900
G03 X56.6061 Y63.8232 I2.0231 J0.2128 F1200
G01 X56.7381 Y63.6740
G01 X57.1072 Y63.4555
G01 X57.1851 Y63.3934
G02 X57.2942 Y63.1298 I-0.1615 J-0.2212
G02 X56.7625 Y62.9239 I-0.3793 J0.1898
G02 X56.0039 Y63.7113 I0.6976 J1.4310
G01 X55.8941 Y63.9903
G01 X55.8411 Y64.1831
G01 X55.8053 Y64.3798
G01 X55.7633 Y64.8896
G01 X55.7180 Y65.0843
G01 X55.6150 Y65.3657
G01 X55.5267 Y65.5451
G01 X55.3709 Y65.8013
G01 X54.8641 Y66.4833
G01 X54.5876 Y66.8997
G01 X54.3960 Y67.2506
G01 X54.2882 Y67.5302
G02 X54.2808 Y67.9324 I0.6250 J0.2128
G02 X54.5946 Y68.2044 I0.3358 J-0.0703
G01 X54.6750 Y68.1689
G01 X54.7339 Y68.1032
G01 X54.7666 Y68.0218
G01 X54.8145 Y67.7477
G01 X54.8461 Y67.6529
G01 X55.0681 Y67.2055
G01 X55.2804 Y66.8666
G01 X55.7424 Y66.2183
G01 X56.0390 Y65.6973
G02 X56.3705 Y64.5816 I-3.1603 J-1.5461
G00 Z5.0000


(Nr. 17: Gravur 3)
G00 X54.4251 Y65.7389 Z5.0000
G00 Z0.5000
G01 Z-0.1000 F900
G01 X54.9053 Y65.0490 F1200
G01 X55.1075 Y64.7040
G01 X55.3595 Y64.1599
G01 X55.4254 Y63.9712
G01 X55.5249 Y63.5947
G01 X55.6006 Y63.4097
G01 X55.7457 Y63.1474
G01 X55.9174 Y62.9015
G03 X56.7660 Y62.0573 I3.8728 J3.0439
G01 X57.1713 Y61.7647
G01 X57.9180 Y61.3128
G01 X58.2285 Y61.0614
G02 X58.7459 Y60.2171 I-1.4635 J-1.4777
G02 X58.9840 Y58.9421 I-5.5442 J-1.6948
G01 X59.0392 Y58.0439
G01 X59.0623 Y56.9442
G01 X59.0555 Y55.3222
G01 X59.0017 Y53.8233
G01 X58.9230 Y52.9270
G02 X58.8056 Y52.6026 I-0.4143 J-0.0334
G01 X58.6537 Y52.4728
G01 X58.4886 Y52.3601
G01 X58.0540 Y52.1132
G01 X57.6022 Y51.8990
G01 X56.7041 Y51.5328
G01 X56.0647 Y51.2479
G01 X55.6173 Y51.0247
G01 X55.2182 Y50.7843
G01 X55.0472 Y50.7004
G01 X54.6868 Y50.5786
G01 X54.0997 Y50.5228
G01 X53.6085 Y50.4306
G01 X53.1252 Y50.3028
G01 X52.6493 Y50.1496
G03 X50.5268 Y49.1249 I3.0108 J-8.9468
G03 X48.1399 Y47.1518 I11.7816 J-16.6825
G01 X47.7120 Y46.7312
G01 X47.3000 Y46.2951
G01 X46.9177 Y45.8330
G01 X46.7032 Y45.5024
G01 X46.5690 Y45.3543
G01 X46.3467 Y45.1529
G01 X45.9538 Y44.8439
G01 X45.4631 Y44.4987
G01 X44.2805 Y43.7598
G01 X43.7817 Y43.4264
G01 X43.2165 Y43.0134
G01 X42.6675 Y42.5793
G01 X41.9805 Y41.9978
G01 X41.2356 Y41.3307
G01 X39.0604 Y39.2776
G01 X38.1777 Y38.4648
G01 X37.4234 Y37.8083
G01 X36.7966 Y37.3113
G02 X35.4230 Y36.4983 I-4.0704 J5.3108
G01 X34.7664 Y36.2563
G01 X32.6776 Y35.6152
G01 X32.3119 Y35.4538
G01 X31.7901 Y35.1579
G01 X31.3724 Y34.8832
G01 X30.9674 Y34.5900
G01 X29.6354 Y33.5177
G01 X28.5218 Y32.6693
G01 X26.1954 Y31.0216
G01 X23.2450 Y28.8688
G02 X21.2323 Y27.5651 I-10.8043 J14.4740
G02 X19.5088 Y27.1262 I-1.6458 J2.8595
G01 X19.1105 Y27.1611
G01 X18.6186 Y27.2497
G01 X17.1079 Y27.6395
G01 X16.5216 Y27.7667
G01 X16.0258 Y27.8294
G01 X15.6261 Y27.8322
G01 X15.3282 Y27.7985
G01 X14.9390 Y27.7075
G01 X14.4689 Y27.5378
G01 X13.7623 Y27.2153
G01 X13.4834 Y27.1050
G01 X13.1937 Y27.0283
G01 X12.8954 Y27.0010
G01 X12.5966 Y27.0242
G01 X12.2065 Y27.1116
G01 X11.7316 Y27.2677
G01 X10.9348 Y27.5788
G01 X10.5489 Y27.6820
G03 X9.5891 Y27.5201 I-0.2912 J-1.1996
G03 X9.3634 Y26.8514 I0.4266 J-0.5164
G03 X9.7338 Y25.9459 I1.3451 J0.0218
G03 X10.5082 Y25.5037 I1.3469 J1.4595
G01 X10.9904 Y25.3726
G01 X11.9532 Y25.1900
G01 X12.2382 Y25.0970
G01 X12.5101 Y24.9707
G02 X13.1392 Y24.4167 I-0.9390 J-1.7003
G02 X13.2961 Y23.9578 I-0.4077 J-0.3957
G02 X12.8059 Y22.7123 I-5.4587 J1.4290
G01 X12.3754 Y21.9221
G01 X11.7994 Y20.9851
G01 X11.1808 Y20.0756
G01 X10.5835 Y19.2737
G01 X10.1436 Y18.7293
G01 X8.8896 Y17.2641
G01 X8.2117 Y16.3981
G01 X7.9856 Y16.0682
G01 X7.7872 Y15.7211
G01 X7.6774 Y15.4424
G01 X7.6468 Y15.2454
G03 X7.7966 Y14.8878 I0.4609 J-0.0171
G03 X8.3058 Y14.6199 I0.8770 J1.0489
G03 X9.0277 Y14.8795 I0.1112 J0.8241
G03 X10.4857 Y16.3342 I-7.8908 J9.3668
G01 X10.9270 Y16.8775
G01 X11.3448 Y17.4390
G01 X11.6251 Y17.8531
G01 X12.0695 Y18.5691
G01 X12.4165 Y19.0583
G01 X12.5453 Y19.2112
G01 X12.6902 Y19.3487
G01 X12.7746 Y19.4016
G01 X12.8704 Y19.4034
G01 X12.9172 Y19.3181
G01 X12.9281 Y19.2092
G01 X12.9127 Y19.1106
G01 X12.8450 Y18.9226
G01 X12.5656 Y18.3921
G01 X12.1358 Y17.7175
G01 X11.6746 Y17.0639
G01 X11.1281 Y16.3488
G01 X10.6184 Y15.7323
G01 X9.6802 Y14.6626
G01 X9.4941 Y14.4273
G01 X9.3287 Y14.1773
G03 X9.2238 Y13.3038 I1.1077 J-0.5760
G01 X9.2934 Y12.8536
G01 X9.3611 Y12.5616
G01 X9.4523 Y12.3854
G01 X9.5298 Y12.3232
G03 X11.0097 Y12.5624 I0.5067 J1.5627
G03 X12.7033 Y14.1892 I-6.4990 J8.4605
G01 X13.1372 Y14.7384
G01 X13.5408 Y15.3102
G01 X13.8078 Y15.7329
G01 X14.2503 Y16.4976
G01 X14.5257 Y16.9147
G01 X14.6480 Y17.0729
G01 X14.7859 Y17.2175
G01 X14.9452 Y17.2627
G01 X14.9817 Y17.1715
G01 X14.9794 Y17.0718
G01 X14.9358 Y16.8769
G01 X14.8693 Y16.6883
G01 X14.6159 Y16.1448
G01 X14.2164 Y15.4519
G01 X13.8312 Y14.8675
G01 X13.4782 Y14.3824
G01 X13.1026 Y13.9146
G01 X12.2434 Y12.9199
G01 X12.0023 Y12.6009
G01 X11.9359 Y12.4750
G01 X11.9578 Y12.4054
G01 X12.0747 Y12.2190
G01 X12.3553 Y11.8798
G03 X12.8416 Y11.5425 I0.7914 J0.6216
G01 X13.0396 Y11.5208
G01 X13.2978 Y11.5595
G01 X13.5793 Y11.6621
G01 X13.9287 Y11.8563
G03 X15.3069 Y13.0090 I-5.1552 J7.5643
G03 X16.9641 Y14.8790 I-15.2403 J15.1748
G03 X18.5298 Y17.0771 I-20.2743 J16.0985
G01 X19.0953 Y18.0205
G01 X19.9049 Y19.5176
G01 X20.2164 Y20.0303
G01 X20.4937 Y20.4463
G02 X22.1781 Y22.2823 I7.2259 J-4.9386
G02 X24.7125 Y23.7702 I6.7920 J-8.6666
G01 X25.7242 Y24.2020
G01 X26.8387 Y24.6467
G01 X27.8684 Y25.0336
G01 X29.8796 Y25.7562
G01 X31.8325 Y26.5282
G01 X33.1193 Y27.0795
G01 X35.4469 Y28.1420
G01 X35.8159 Y28.2963
G01 X36.1078 Y28.3869
G01 X36.3700 Y28.5323
G01 X36.6202 Y28.6978
G01 X37.3379 Y29.2405
G01 X38.1797 Y29.9485
G01 X39.0690 Y30.7541
G01 X40.5343 Y32.1491
G01 X41.0599 Y32.6113
G01 X41.5280 Y32.9865
G01 X41.7738 Y33.1584
G01 X41.9480 Y33.2563
G03 X43.3697 Y33.7583 I-0.6536 J4.1148
G03 X45.4086 Y35.0215 I-9.4756 J17.5715
G01 X46.3011 Y35.6643
G01 X47.2513 Y36.3972
G01 X48.2535 Y37.2251
G01 X49.4778 Y38.3074
G01 X50.1656 Y38.8879
G01 X50.9516 Y39.5059
G01 X51.6926 Y40.0213
G01 X51.9974 Y40.2798
G01 X52.1257 Y40.4326
G01 X52.1541 Y40.5268
G01 X52.0939 Y40.6059
G03 X50.9216 Y41.3169 I-4.3778 J-5.8957
G01 X50.6768 Y41.4900
G01 X50.5291 Y41.6246
G01 X50.4420 Y41.7727
G01 X50.4471 Y41.8724
G02 X50.6723 Y41.9841 I0.1530 J-0.0257
G01 X50.8585 Y41.9120
G01 X51.2100 Y41.7215
G01 X52.1607 Y41.1143
G02 X52.7143 Y40.5538 I-0.7418 J-1.2863
G02 X52.5423 Y40.1098 I-0.4951 J-0.0635
G01 X52.3237 Y39.9048
G01 X51.4622 Y39.2035
G01 X51.9760 Y37.3412
G01 X52.2155 Y36.5780
G01 X52.5646 Y35.6411
G01 X52.6867 Y35.3671
G01 X52.8810 Y35.0046
G01 X53.0518 Y34.6430
G01 X53.4148 Y33.7114
G02 X54.4622 Y30.2680 I-49.0521 J-16.8021
G02 X55.1713 Y27.3107 I-29.3918 J-8.6112
G02 X55.3908 Y24.8227 I-16.4847 J-2.7076
G02 X55.1688 Y18.8354 I-83.7140 J0.1053
G02 X54.7847 Y15.4599 I-25.0967 J1.1464
G02 X54.2612 Y13.7405 I-9.3018 J1.8926
G01 X53.9321 Y13.0115
G01 X53.3425 Y11.8858
G01 X53.0817 Y11.3455
G01 X52.7678 Y10.6097
G01 X52.4534 Y9.7665
G01 X52.1494 Y8.8140
G01 X51.9207 Y7.9436
G01 X51.7981 Y7.3563
G01 X51.6611 Y6.4520
G01 X51.5789 Y6.0607
G01 X51.4790 Y5.7785
G01 X51.4161 Y5.7026
G01 X51.3378 Y5.7401
G01 X51.3047 Y5.8342
G01 X51.2742 Y6.0317
G01 X51.2634 Y6.5312
G01 X51.2992 Y7.1021
G02 X51.7013 Y8.9565 I11.3156 J-1.4827
G02 X52.5713 Y11.4050 I21.1634 J-6.1411
G01 X52.9563 Y12.2182
G01 X53.4763 Y13.0889
G01 X53.6483 Y13.4500
G01 X53.8007 Y13.8197
G03 X54.3928 Y15.9353 I-11.2206 J4.2810
G01 X54.4685 Y16.4295
G01 X54.5062 Y16.8192
G01 X54.7694 Y21.0110
G03 X54.9264 Y25.3074 I-75.0042 J4.8925
G03 X54.7070 Y27.2297 I-7.5862 J0.1079
G03 X53.6872 Y31.1999 I-55.1306 J-12.0448
G01 X53.2463 Y32.6336
G01 X52.8217 Y33.8622
G01 X52.5982 Y34.4189
G01 X51.9558 Y35.8582
G01 X51.5302 Y36.9800
G01 X51.3795 Y37.4567
G01 X51.2805 Y37.8441
G01 X51.2321 Y38.1400
G01 X51.2115 Y38.4450
G01 X51.1871 Y38.5418
G03 X50.9806 Y38.7350 I-0.2425 J-0.0522
G03 X50.3572 Y38.4488 I0.1588 J-1.1679
G01 X50.1264 Y38.2571
G01 X48.9311 Y37.1710
G01 X47.7824 Y36.2064
G02 X45.2962 Y34.3564 I-23.2501 J28.6499
G01 X44.3713 Y33.7611
G01 X43.5886 Y33.3171
G01 X43.2293 Y33.1414
G01 X42.8589 Y32.9907
G01 X42.5701 Y32.9105
G01 X42.4028 Y32.8927
G01 X42.3100 Y32.8574
G01 X42.0597 Y32.6923
G01 X41.5871 Y32.3227
G01 X40.9018 Y31.7395
G01 X38.9843 Y29.9849
G01 X38.3051 Y29.3946
G02 X36.9194 Y28.4131 I-6.4829 J7.6840
G01 X36.1290 Y27.9831
G01 X34.7299 Y27.2997
G01 X33.1901 Y26.5796
G01 X31.9088 Y26.0154
G01 X31.0769 Y25.6721
G01 X30.1446 Y25.3105
G01 X27.1798 Y24.2453
G01 X26.1579 Y23.8383
G01 X25.1459 Y23.4073
G03 X22.6052 Y22.0636 I6.3944 J-15.1649
G03 X21.0856 Y20.4061 I4.6360 J-5.7754
G01 X20.6377 Y19.7433
G01 X20.2132 Y19.0653
G01 X19.8615 Y18.4601
G01 X19.2876 Y17.4077
G01 X18.7668 Y16.5541
G02 X17.2386 Y14.4524 I-19.3969 J12.4968
G02 X15.5395 Y12.6210 I-14.5645 J11.8089
G02 X13.7705 Y11.2435 I-6.7492 J6.8426
G02 X12.6225 Y11.0629 I-0.7713 J1.1638
G01 X12.4438 Y11.1518
G01 X12.2091 Y11.3376
G01 X12.0097 Y11.5615
G01 X11.7488 Y11.9105
G01 X11.6088 Y12.0523
G01 X11.5216 Y12.1001
G01 X11.4237 Y12.1144
G01 X11.2318 Y12.0620
G01 X10.6231 Y11.7855
G01 X10.2357 Y11.6885
G02 X9.3675 Y11.8412 I-0.2277 J1.2503
G02 X8.8814 Y12.4577 I0.6501 J1.0125
G02 X8.7418 Y13.4874 I3.5475 J1.0053
G01 X8.6856 Y13.6786
G01 X8.6370 Y13.7657
G01 X8.5754 Y13.8443
G01 X8.4247 Y13.9753
G01 X7.6451 Y14.4265
G01 X7.3221 Y14.6620
G02 X7.0921 Y15.0920 I0.2001 J0.3835
G02 X7.3248 Y15.8526 I2.2477 J-0.2717
G01 X7.5588 Y16.2943
G01 X7.8855 Y16.7973
G01 X8.3183 Y17.3471
G01 X9.2789 Y18.3860
G01 X9.9898 Y19.2252
G01 X10.5937 Y20.0221
G01 X11.2110 Y20.9325
G01 X11.8453 Y21.9615
G01 X12.2331 Y22.6611
G03 X12.6710 Y23.7746 I-4.1540 J2.2763
G01 X12.7018 Y24.0723
G01 X12.6750 Y24.2698
G03 X12.4457 Y24.5865 I-0.5262 J-0.1397
G01 X12.2666 Y24.6743
G01 X12.0733 Y24.7248
G01 X11.8752 Y24.7513
G01 X11.4487 Y24.7742
G01 X11.1531 Y24.8250
G01 X10.8633 Y24.9019
G01 X10.4861 Y25.0348
G02 X9.2314 Y25.8303 I1.0812 J3.0924
G02 X8.9602 Y27.0816 I1.7381 J1.0319
G02 X9.4003 Y28.0197 I1.2808 J-0.0287
G02 X10.4366 Y28.2858 I0.8198 J-1.0419
G01 X10.6324 Y28.2457
G01 X10.9185 Y28.1561
G01 X11.7133 Y27.8086
G01 X12.0894 Y27.6731
G01 X12.4794 Y27.5858
G01 X12.7782 Y27.5624
G01 X13.0774 Y27.5800
G01 X13.4680 Y27.6641
G01 X13.8433 Y27.8019
G01 X14.3919 Y28.0553
G01 X14.7713 Y28.1813
G01 X15.1627 Y28.2625
G01 X15.5605 Y28.3030
G02 X16.7555 Y28.2245 I0.2424 J-5.4423
G01 X17.3425 Y28.1012
G01 X18.6573 Y27.7526
G01 X19.0504 Y27.6791
G01 X19.4482 Y27.6390
G03 X21.0811 Y28.0328 I0.1016 J3.1613
G01 X21.6895 Y28.3784
G01 X22.5214 Y28.9331
G02 X28.4162 Y33.1851 I130.2434 J-174.3495
G03 X30.8830 Y35.1620 I-19.5678 J26.9446
G01 X31.4553 Y35.5644
G02 X32.5387 Y36.0751 I2.9240 J-4.7985
G01 X33.1086 Y36.2625
G01 X34.4694 Y36.6633
G01 X35.2187 Y36.9426
G03 X36.6873 Y37.7911 I-2.8486 J6.6255
G01 X37.3157 Y38.2860
G01 X37.9931 Y38.8785
G01 X38.7976 Y39.6286
G01 X41.1418 Y41.8726
G01 X41.8807 Y42.5464
G01 X42.4877 Y43.0675
G01 X43.0368 Y43.5015
G01 X43.5243 Y43.8513
G01 X44.1966 Y44.2846
G01 X45.3210 Y44.9542
G01 X45.6508 Y45.1805
G01 X45.9657 Y45.4269
G01 X46.1874 Y45.6290
G01 X46.3892 Y45.8507
G01 X46.7084 Y46.3320
G01 X47.0261 Y46.7179
G01 X47.3690 Y47.0817
G01 X47.7990 Y47.5001
G02 X50.3833 Y49.5824 I15.8117 J-16.9785
G02 X52.4288 Y50.6231 I5.6557 J-8.5855
G01 X52.9031 Y50.7811
G01 X53.2906 Y50.8801
G01 X53.5862 Y50.9308
G01 X53.9629 Y50.9562
G01 X54.3541 Y51.0379
G01 X54.9257 Y51.2196
G01 X55.4849 Y51.4370
G01 X55.9890 Y51.6631
G01 X58.0625 Y52.6611
G01 X58.2284 Y52.7720
G01 X58.3534 Y52.9263
G01 X58.4231 Y53.1131
G01 X58.4668 Y53.4096
G01 X58.5293 Y54.9353
G01 X58.6740 Y57.1036
G01 X58.6948 Y57.7032
G03 X58.3930 Y59.8707 I-6.2115 J0.2400
G03 X57.8150 Y60.7951 I-2.2403 J-0.7579
G01 X57.5793 Y60.9800
G01 X56.9663 Y61.3288
G01 X56.4853 Y61.6869
G02 X55.5196 Y62.6964 I3.9754 J4.7700
G01 X55.2918 Y63.0250
G01 X55.0970 Y63.3741
G01 X55.0171 Y63.5574
G01 X54.8242 Y64.1016
G01 X54.5615 Y64.6407
G01 X54.3516 Y64.9810
G01 X54.0500 Y65.3758
G01 X53.8231 Y65.7051
G01 X53.4719 Y66.3103
G02 X52.8708 Y67.9990 I5.0213 J2.7386
G01 X52.8500 Y68.2979
G01 X52.8750 Y68.4959
G01 X52.9086 Y68.5899
G01 X53.0881 Y68.7767
G01 X53.1364 Y68.8637
G01 X53.1578 Y68.9611
G01 X53.1605 Y69.0610
G01 X53.1313 Y69.2585
G01 X53.0440 Y69.5454
G01 X52.8468 Y70.0046
G01 X52.5239 Y70.6256
G01 X52.0209 Y71.4898
G01 X51.0661 Y73.0365
G01 X50.7282 Y73.6494
G01 X50.4175 Y74.2766
G02 X49.2067 Y77.7662 I16.5567 J7.6999
G02 X48.7194 Y80.5653 I22.9055 J5.4295
G02 X48.7285 Y82.4610 I8.0418 J0.9093
G02 X49.3523 Y84.6149 I8.4234 J-1.2723
G02 X50.3676 Y86.2093 I4.9737 J-2.0466
G02 X52.3719 Y87.5574 I4.3730 J-4.3381
G02 X54.7762 Y88.2031 I3.2101 J-7.1526
G02 X57.4671 Y88.1100 I0.9851 J-10.4614
G02 X60.6654 Y87.3121 I-3.3547 J-20.2553
G02 X64.1587 Y85.9927 I-13.6808 J-41.5067
G01 X64.6061 Y85.7697
G01 X64.9475 Y85.5617
G02 X65.5315 Y84.9928 I-1.3801 J-2.0011
G01 X65.7807 Y84.8273
G01 X66.1501 Y84.6750
G01 X66.7074 Y84.5423
G01 X66.9930 Y84.4512
G01 X67.3582 Y84.2884
G01 X67.7019 Y84.0844
G02 X68.2952 Y83.5527 I-1.3979 J-2.1568
G01 X68.4484 Y83.2959
G01 X68.4776 Y83.2004
G01 X68.5066 Y82.9999
G01 X68.5515 Y82.9111
G01 X68.6938 Y82.7723
G01 X68.8651 Y82.6696
G01 X69.0464 Y82.5853
G01 X69.8746 Y82.2927
G01 X70.2416 Y82.1341
G01 X70.5902 Y81.9385
G01 X70.9095 Y81.6981
G02 X71.3365 Y81.1494 I-1.1405 J-1.3282
G02 X71.4860 Y80.4055 I-1.6885 J-0.7263
G01 X71.5517 Y80.2377
G01 X71.6035 Y80.1638
G01 X71.6659 Y80.0985
G01 X71.8134 Y79.9949
G02 X73.0978 Y79.2679 I-1.8658 J-4.7944
G01 X73.3263 Y79.0736
G01 X73.5329 Y78.8565
G01 X73.6398 Y78.6883
G01 X73.6602 Y78.5918
G01 X73.6127 Y78.5103
G01 X73.5325 Y78.4816
G01 X73.3630 Y78.4921
G01 X73.2042 Y78.5563
G01 X73.0584 Y78.6463
G01 X72.6253 Y78.9966
G01 X72.2935 Y79.2198
G01 X71.9444 Y79.4148
G01 X71.4581 Y79.6391
G01 X71.2951 Y79.7543
G01 X71.1666 Y79.9067
G01 X71.0784 Y80.0856
G01 X71.0204 Y80.2769
G01 X70.8898 Y80.9161
G01 X70.8276 Y81.1060
G01 X70.7362 Y81.2835
G01 X70.6070 Y81.4356
G01 X70.3603 Y81.6048
G01 X70.0868 Y81.7276
G01 X69.7090 Y81.8587
G01 X68.7571 Y82.1490
G01 X68.4776 Y82.2578
G01 X68.3029 Y82.3544
G01 X68.2252 Y82.4171
G01 X68.1633 Y82.4952
G01 X68.1212 Y82.5855
G01 X68.0683 Y83.0071
G01 X67.9929 Y83.1918
G03 X67.5717 Y83.6108 I-1.1162 J-0.7006
G01 X67.2198 Y83.8001
G01 X66.8473 Y83.9454
G01 X66.3676 Y84.0858
G01 X65.4628 Y84.2933
G01 X65.0860 Y84.4256
G01 X64.9251 Y84.5416
G01 X64.8785 Y84.6291
G03 X64.8027 Y85.0190 I-0.4831 J0.1084
G01 X64.6577 Y85.1559
G01 X64.4911 Y85.2663
G01 X64.0465 Y85.4945
G01 X63.4956 Y85.7323
G01 X61.4197 Y86.5270
G03 X58.2533 Y87.4460 I-7.9495 J-21.4769
G03 X55.4788 Y87.7897 I-3.1887 J-14.3714
G03 X53.5845 Y87.5048 I-0.1745 J-5.2803
G03 X51.6705 Y86.6590 I1.9332 J-6.9629
G03 X49.6707 Y84.0973 I3.1059 J-4.4862
G03 X49.1215 Y82.3954 I7.0035 J-3.1996
G03 X49.1500 Y80.8012 I5.5737 J-0.6975
G03 X50.2301 Y76.0669 I26.6434 J3.5878
G03 X51.2848 Y73.6930 I16.4591 J5.8915
G03 X53.1307 Y70.5962 I46.1602 J25.4164
G01 X53.3252 Y70.2467
G01 X53.4516 Y69.9747
G01 X53.5404 Y69.6886
G01 X53.5731 Y69.3909
G01 X53.5678 Y69.1910
G01 X53.4975 Y68.5211
G01 X53.4833 Y68.2215
G01 X53.5046 Y67.8223
G01 X53.5548 Y67.5267
G03 X54.4251 Y65.7389 I5.3047 J1.4764
G01 Z-0.2000 F900
G01 X54.9053 Y65.0490 F1200
G01 X55.1075 Y64.7040
G01 X55.3595 Y64.1599
G01 X55.4254 Y63.9712
G01 X55.5249 Y63.5947
G01 X55.6006 Y63.4097
G01 X55.7457 Y63.1474
G01 X55.9174 Y62.9015
G03 X56.7660 Y62.0573 I3.8728 J3.0439
G01 X57.1713 Y61.7647
G01 X57.9180 Y61.3128
G01 X58.2285 Y61.0614
G02 X58.7459 Y60.2171 I-1.4635 J-1.4777
G02 X58.9840 Y58.9421 I-5.5442 J-1.6948
G01 X59.0392 Y58.0439
G01 X59.0623 Y56.9442
G01 X59.0555 Y55.3222
G01 X59.0017 Y53.8233
G01 X58.9230 Y52.9270
G02 X58.8056 Y52.6026 I-0.4143 J-0.0334
G01 X58.6537 Y52.4728
G01 X58.4886 Y52.3601
G01 X58.0540 Y52.1132
G01 X57.6022 Y51.8990
G01 X56.7041 Y51.5328
G01 X56.0647 Y51.2479
G01 X55.6173 Y51.0247
G01 X55.2182 Y50.7843
G01 X55.0472 Y50.7004
G01 X54.6868 Y50.5786
G01 X54.0997 Y50.5228
G01 X53.6085 Y50.4306
G01 X53.1252 Y50.3028
G01 X52.6493 Y50.1496
G03 X50.5268 Y49.1249 I3.0108 J-8.9468
G03 X48.1399 Y47.1518 I11.7816 J-16.6825
G01 X47.7120 Y46.7312
G01 X47.3000 Y46.2951
G01 X46.9177 Y45.8330
G01 X46.7032 Y45.5024
G01 X46.5690 Y45.3543
G01 X46.3467 Y45.1529
G01 X45.9538 Y44.8439
G01 X45.4631 Y44.4987
G01 X44.2805 Y43.7598
G01 X43.7817 Y43.4264
G01 X43.2165 Y43.0134
G01 X42.6675 Y42.5793
G01 X41.9805 Y41.9978
G01 X41.2356 Y41.3307
G01 X39.0604 Y39.2776
G01 X38.1777 Y38.4648
G01 X37.4234 Y37.8083
G01 X36.7966 Y37.3113
G02 X35.4230 Y36.4983 I-4.0704 J5.3108
G01 X34.7664 Y36.2563
G01 X32.6776 Y35.6152
G01 X32.3119 Y35.4538
G01 X31.7901 Y35.1579
G01 X31.3724 Y34.8832
G01 X30.9674 Y34.5900
G01 X29.6354 Y33.5177
G01 X28.5218 Y32.6693
G01 X26.1954 Y31.0216
G01 X23.2450 Y28.8688
G02 X21.2323 Y27.5651 I-10.8043 J14.4740
G02 X19.5088 Y27.1262 I-1.6458 J2.8595
G01 X19.1105 Y27.1611
G01 X18.6186 Y27.2497
G01 X17.1079 Y27.6395
G01 X16.5216 Y27.7667
G01 X16.0258 Y27.8294
G01 X15.6261 Y27.8322
G01 X15.3282 Y27.7985
G01 X14.9390 Y27.7075
G01 X14.4689 Y27.5378
G01 X13.7623 Y27.2153
G01 X13.4834 Y27.1050
G01 X13.1937 Y27.0283
G01 X12.8954 Y27.0010
G01 X12.5966 Y27.0242
G01 X12.2065 Y27.1116
G01 X11.7316 Y27.2677
G01 X10.9348 Y27.5788
G01 X10.5489 Y27.6820
G03 X9.5891 Y27.5201 I-0.2912 J-1.1996
G03 X9.3634 Y26.8514 I0.4266 J-0.5164
G03 X9.7338 Y25.9459 I1.3451 J0.0218
G03 X10.5082 Y25.5037 I1.3469 J1.4595
G01 X10.9904 Y25.3726
G01 X11.9532 Y25.1900
G01 X12.2382 Y25.0970
G01 X12.5101 Y24.9707
G02 X13.1392 Y24.4167 I-0.9390 J-1.7003
G02 X13.2961 Y23.9578 I-0.4077 J-0.3957
G02 X12.8059 Y22.7123 I-5.4587 J1.4290
G01 X12.3754 Y21.9221
G01 X11.7994 Y20.9851
G01 X11.1808 Y20.0756
G01 X10.5835 Y19.2737
G01 X10.1436 Y18.7293
G01 X8.8896 Y17.2641
G01 X8.2117 Y16.3981
G01 X7.9856 Y16.0682
G01 X7.7872 Y15.7211
G01 X7.6774 Y15.4424
G01 X7.6468 Y15.2454
G03 X7.7966 Y14.8878 I0.4609 J-0.0171
G03 X8.3058 Y14.6199 I0.8770 J1.0489
G03 X9.0277 Y14.8795 I0.1112 J0.8241
G03 X10.4857 Y16.3342 I-7.8908 J9.3668
G01 X10.9270 Y16.8775
G01 X11.3448 Y17.4390
G01 X11.6251 Y17.8531
G01 X12.0695 Y18.5691
G01 X12.4165 Y19.0583
G01 X12.5453 Y19.2112
G01 X12.6902 Y19.3487
G01 X12.7746 Y19.4016
G01 X12.8704 Y19.4034
G01 X12.9172 Y19.3181
G01 X12.9281 Y19.2092
G01 X12.9127 Y19.1106
G01 X12.8450 Y18.9226
G01 X12.5656 Y18.3921
G01 X12.1358 Y17.7175
G01 X11.6746 Y17.0639
G01 X11.1281 Y16.3488
G01 X10.6184 Y15.7323
G01 X9.6802 Y14.6626
G01 X9.4941 Y14.4273
G01 X9.3287 Y14.1773
G03 X9.2238 Y13.3038 I1.1077 J-0.5760
G01 X9.2934 Y12.8536
G01 X9.3611 Y12.5616
G01 X9.4523 Y12.3854
G01 X9.5298 Y12.3232
G03 X11.0097 Y12.5624 I0.5067 J1.5627
G03 X12.7033 Y14.1892 I-6.4990 J8.4605
G01 X13.1372 Y14.7384
G01 X13.5408 Y15.3102
G01 X13.8078 Y15.7329
G01 X14.2503 Y16.4976
G01 X14.5257 Y16.9147
G01 X14.6480 Y17.0729
G01 X14.7859 Y17.2175
G01 X14.9452 Y17.2627
G01 X14.9817 Y17.1715
G01 X14.9794 Y17.0718
G01 X14.9358 Y16.8769
G01 X14.8693 Y16.6883
G01 X14.6159 Y16.1448
G01 X14.2164 Y15.4519
G01 X13.8312 Y14.8675
G01 X13.4782 Y14.3824
G01 X13.1026 Y13.9146
G01 X12.2434 Y12.9199
G01 X12.0023 Y12.6009
G01 X11.9359 Y12.4750
G01 X11.9578 Y12.4054
G01 X12.0747 Y12.2190
G01 X12.3553 Y11.8798
G03 X12.8416 Y11.5425 I0.7914 J0.6216
G01 X13.0396 Y11.5208
G01 X13.2978 Y11.5595
G01 X13.5793 Y11.6621
G01 X13.9287 Y11.8563
G03 X15.3069 Y13.0090 I-5.1552 J7.5643
G03 X16.9641 Y14.8790 I-15.2403 J15.1748
G03 X18.5298 Y17.0771 I-20.2743 J16.0985
G01 X19.0953 Y18.0205
G01 X19.9049 Y19.5176
G01 X20.2164 Y20.0303
G01 X20.4937 Y20.4463
G02 X22.1781 Y22.2823 I7.2259 J-4.9386
G02 X24.7125 Y23.7702 I6.7920 J-8.6666
G01 X25.7242 Y24.2020
G01 X26.8387 Y24.6467
G01 X27.8684 Y25.0336
G01 X29.8796 Y25.7562
G01 X31.8325 Y26.5282
G01 X33.1193 Y27.0795
G01 X35.4469 Y28.1420
G01 X35.8159 Y28.2963
G01 X36.1078 Y28.3869
G01 X36.3700 Y28.5323
G01 X36.6202 Y28.6978
G01 X37.3379 Y29.2405
G01 X38.1797 Y29.9485
G01 X39.0690 Y30.7541
G01 X40.5343 Y32.1491
G01 X41.0599 Y32.6113
G01 X41.5280 Y32.9865
G01 X41.7738 Y33.1584
G01 X41.9480 Y33.2563
G03 X43.3697 Y33.7583 I-0.6536 J4.1148
G03 X45.4086 Y35.0215 I-9.4756 J17.5715
G01 X46.3011 Y35.6643
G01 X47.2513 Y36.3972
G01 X48.2535 Y37.2251
G01 X49.4778 Y38.3074
G01 X50.1656 Y38.8879
G01 X50.9516 Y39.5059
G01 X51.6926 Y40.0213
G01 X51.9974 Y40.2798
G01 X52.1257 Y40.4326
G01 X52.1541 Y40.5268
G01 X52.0939 Y40.6059
G03 X50.9216 Y41.3169 I-4.3778 J-5.8957
G01 X50.6768 Y41.4900
G01 X50.5291 Y41.6246
G01 X50.4420 Y41.7727
G01 X50.4471 Y41.8724
G02 X50.6723 Y41.9841 I0.1530 J-0.0257
G01 X50.8585 Y41.9120
G01 X51.2100 Y41.7215
G01 X52.1607 Y41.1143
G02 X52.7143 Y40.5538 I-0.7418 J-1.2863
G02 X52.5423 Y40.1098 I-0.4951 J-0.0635
G01 X52.3237 Y39.9048
G01 X51.4622 Y39.2035
G01 X51.9760 Y37.3412
G01 X52.2155 Y36.5780
G01 X52.5646 Y35.6411
G01 X52.6867 Y35.3671
G01 X52.8810 Y35.0046
G01 X53.0518 Y34.6430
G01 X53.4148 Y33.7114
G02 X54.4622 Y30.2680 I-49.0521 J-16.8021
G02 X55.1713 Y27.3107 I-29.3918 J-8.6112
G02 X55.3908 Y24.8227 I-16.4847 J-2.7076
G02 X55.1688 Y18.8354 I-83.7140 J0.1053
G02 X54.7847 Y15.4599 I-25.0967 J1.1464
G02 X54.2612 Y13.7405 I-9.3018 J1.8926
G01 X53.9321 Y13.0115
G01 X53.3425 Y11.8858
G01 X53.0817 Y11.3455
G01 X52.7678 Y10.6097
G01 X52.4534 Y9.7665
G01 X52.1494 Y8.8140
G01 X51.9207 Y7.9436
G01 X51.7981 Y7.3563
G01 X51.6611 Y6.4520
G01 X51.5789 Y6.0607
G01 X51.4790 Y5.7785
G01 X51.4161 Y5.7026
G01 X51.3378 Y5.7401
G01 X51.3047 Y5.8342
G01 X51.2742 Y6.0317
G01 X51.2634 Y6.5312
G01 X51.2992 Y7.1021
G02 X51.7013 Y8.9565 I11.3156 J-1.4827
G02 X52.5713 Y11.4050 I21.1634 J-6.1411
G01 X52.9563 Y12.2182
G01 X53.4763 Y13.0889
G01 X53.6483 Y13.4500
G01 X53.8007 Y13.8197
G03 X54.3928 Y15.9353 I-11.2206 J4.2810
G01 X54.4685 Y16.4295
G01 X54.5062 Y16.8192
G01 X54.7694 Y21.0110
G03 X54.9264 Y25.3074 I-75.0042 J4.8925
G03 X54.7070 Y27.2297 I-7.5862 J0.1079
G03 X53.6872 Y31.1999 I-55.1306 J-12.0448
G01 X53.2463 Y32.6336
G01 X52.8217 Y33.8622
G01 X52.5982 Y34.4189
G01 X51.9558 Y35.8582
G01 X51.5302 Y36.9800
G01 X51.3795 Y37.4567
G01 X51.2805 Y37.8441
G01 X51.2321 Y38.1400
G01 X51.2115 Y38.4450
G01 X51.1871 Y38.5418
G03 X50.9806 Y38.7350 I-0.2425 J-0.0522
G03 X50.3572 Y38.4488 I0.1588 J-1.1679
G01 X50.1264 Y38.2571
G01 X48.9311 Y37.1710
G01 X47.7824 Y36.2064
G02 X45.2962 Y34.3564 I-23.2501 J28.6499
G01 X44.3713 Y33.7611
G01 X43.5886 Y33.3171
G01 X43.2293 Y33.1414
G01 X42.8589 Y32.9907
G01 X42.5701 Y32.9105
G01 X42.4028 Y32.8927
G01 X42.3100 Y32.8574
G01 X42.0597 Y32.6923
G01 X41.5871 Y32.3227
G01 X40.9018 Y31.7395
G01 X38.9843 Y29.9849
G01 X38.3051 Y29.3946
G02 X36.9194 Y28.4131 I-6.4829 J7.6840
G01 X36.1290 Y27.9831
G01 X34.7299 Y27.2997
G01 X33.1901 Y26.5796
G01 X31.9088 Y26.0154
G01 X31.0769 Y25.6721
G01 X30.1446 Y25.3105
G01 X27.1798 Y24.2453
G01 X26.1579 Y23.8383
G01 X25.1459 Y23.4073
G03 X22.6052 Y22.0636 I6.3944 J-15.1649
G03 X21.0856 Y20.4061 I4.6360 J-5.7754
G01 X20.6377 Y19.7433
G01 X20.2132 Y19.0653
G01 X19.8615 Y18.4601
G01 X19.2876 Y17.4077
G01 X18.7668 Y16.5541
G02 X17.2386 Y14.4524 I-19.3969 J12.4968
G02 X15.5395 Y12.6210 I-14.5645 J11.8089
G02 X13.7705 Y11.2435 I-6.7492 J6.8426
G02 X12.6225 Y11.0629 I-0.7713 J1.1638
G01 X12.4438 Y11.1518
G01 X12.2091 Y11.3376
G01 X12.0097 Y11.5615
G01 X11.7488 Y11.9105
G01 X11.6088 Y12.0523
G01 X11.5216 Y12.1001
G01 X11.4237 Y12.1144
G01 X11.2318 Y12.0620
G01 X10.6231 Y11.7855
G01 X10.2357 Y11.6885
G02 X9.3675 Y11.8412 I-0.2277 J1.2503
G02 X8.8814 Y12.4577 I0.6501 J1.0125
G02 X8.7418 Y13.4874 I3.5475 J1.0053
G01 X8.6856 Y13.6786
G01 X8.6370 Y13.7657
G01 X8.5754 Y13.8443
G01 X8.4247 Y13.9753
G01 X7.6451 Y14.4265
G01 X7.3221 Y14.6620
G02 X7.0921 Y15.0920 I0.2001 J0.3835
G02 X7.3248 Y15.8526 I2.2477 J-0.2717
G01 X7.5588 Y16.2943
G01 X7.8855 Y16.7973
G01 X8.3183 Y17.3471
G01 X9.2789 Y18.3860
G01 X9.9898 Y19.2252
G01 X10.5937 Y20.0221
G01 X11.2110 Y20.9325
G01 X11.8453 Y21.9615
G01 X12.2331 Y22.6611
G03 X12.6710 Y23.7746 I-4.1540 J2.2763
G01 X12.7018 Y24.0723
G01 X12.6750 Y24.2698
G03 X12.4457 Y24.5865 I-0.5262 J-0.1397
G01 X12.2666 Y24.6743
G01 X12.0733 Y24.7248
G01 X11.8752 Y24.7513
G01 X11.4487 Y24.7742
G01 X11.1531 Y24.8250
G01 X10.8633 Y24.9019
G01 X10.4861 Y25.0348
G02 X9.2314 Y25.8303 I1.0812 J3.0924
G02 X8.9602 Y27.0816 I1.7381 J1.0319
G02 X9.4003 Y28.0197 I1.2808 J-0.0287
G02 X10.4366 Y28.2858 I0.8198 J-1.0419
G01 X10.6324 Y28.2457
G01 X10.9185 Y28.1561
G01 X11.7133 Y27.8086
G01 X12.0894 Y27.6731
G01 X12.4794 Y27.5858
G01 X12.7782 Y27.5624
G01 X13.0774 Y27.5800
G01 X13.4680 Y27.6641
G01 X13.8433 Y27.8019
G01 X14.3919 Y28.0553
G01 X14.7713 Y28.1813
G01 X15.1627 Y28.2625
G01 X15.5605 Y28.3030
G02 X16.7555 Y28.2245 I0.2424 J-5.4423
G01 X17.3425 Y28.1012
G01 X18.6573 Y27.7526
G01 X19.0504 Y27.6791
G01 X19.4482 Y27.6390
G03 X21.0811 Y28.0328 I0.1016 J3.1613
G01 X21.6895 Y28.3784
G01 X22.5214 Y28.9331
G02 X28.4162 Y33.1851 I130.2434 J-174.3495
G03 X30.8830 Y35.1620 I-19.5678 J26.9446
G01 X31.4553 Y35.5644
G02 X32.5387 Y36.0751 I2.9240 J-4.7985
G01 X33.1086 Y36.2625
G01 X34.4694 Y36.6633
G01 X35.2187 Y36.9426
G03 X36.6873 Y37.7911 I-2.8486 J6.6255
G01 X37.3157 Y38.2860
G01 X37.9931 Y38.8785
G01 X38.7976 Y39.6286
G01 X41.1418 Y41.8726
G01 X41.8807 Y42.5464
G01 X42.4877 Y43.0675
G01 X43.0368 Y43.5015
G01 X43.5243 Y43.8513
G01 X44.1966 Y44.2846
G01 X45.3210 Y44.9542
G01 X45.6508 Y45.1805
G01 X45.9657 Y45.4269
G01 X46.1874 Y45.6290
G01 X46.3892 Y45.8507
G01 X46.7084 Y46.3320
G01 X47.0261 Y46.7179
G01 X47.3690 Y47.0817
G01 X47.7990 Y47.5001
G02 X50.3833 Y49.5824 I15.8117 J-16.9785
G02 X52.4288 Y50.6231 I5.6557 J-8.5855
G01 X52.9031 Y50.7811
G01 X53.2906 Y50.8801
G01 X53.5862 Y50.9308
G01 X53.9629 Y50.9562
G01 X54.3541 Y51.0379
G01 X54.9257 Y51.2196
G01 X55.4849 Y51.4370
G01 X55.9890 Y51.6631
G01 X58.0625 Y52.6611
G01 X58.2284 Y52.7720
G01 X58.3534 Y52.9263
G01 X58.4231 Y53.1131
G01 X58.4668 Y53.4096
G01 X58.5293 Y54.9353
G01 X58.6740 Y57.1036
G01 X58.6948 Y57.7032
G03 X58.3930 Y59.8707 I-6.2115 J0.2400
G03 X57.8150 Y60.7951 I-2.2403 J-0.7579
G01 X57.5793 Y60.9800
G01 X56.9663 Y61.3288
G01 X56.4853 Y61.6869
G02 X55.5196 Y62.6964 I3.9754 J4.7700
G01 X55.2918 Y63.0250
G01 X55.0970 Y63.3741
G01 X55.0171 Y63.5574
G01 X54.8242 Y64.1016
G01 X54.5615 Y64.6407
G01 X54.3516 Y64.9810
G01 X54.0500 Y65.3758
G01 X53.8231 Y65.7051
G01 X53.4719 Y66.3103
G02 X52.8708 Y67.9990 I5.0213 J2.7386
G01 X52.8500 Y68.2979
G01 X52.8750 Y68.4959
G01 X52.9086 Y68.5899
G01 X53.0881 Y68.7767
G01 X53.1364 Y68.8637
G01 X53.1578 Y68.9611
G01 X53.1605 Y69.0610
G01 X53.1313 Y69.2585
G01 X53.0440 Y69.5454
G01 X52.8468 Y70.0046
G01 X52.5239 Y70.6256
G01 X52.0209 Y71.4898
G01 X51.0661 Y73.0365
G01 X50.7282 Y73.6494
G01 X50.4175 Y74.2766
G02 X49.2067 Y77.7662 I16.5567 J7.6999
G02 X48.7194 Y80.5653 I22.9055 J5.4295
G02 X48.7285 Y82.4610 I8.0418 J0.9093
G02 X49.3523 Y84.6149 I8.4234 J-1.2723
G02 X50.3676 Y86.2093 I4.9737 J-2.0466
G02 X52.3719 Y87.5574 I4.3730 J-4.3381
G02 X54.7762 Y88.2031 I3.2101 J-7.1526
G02 X57.4671 Y88.1100 I0.9851 J-10.4614
G02 X60.6654 Y87.3121 I-3.3547 J-20.2553
G02 X64.1587 Y85.9927 I-13.6808 J-41.5067
G01 X64.6061 Y85.7697
G01 X64.9475 Y85.5617
G02 X65.5315 Y84.9928 I-1.3801 J-2.0011
G01 X65.7807 Y84.8273
G01 X66.1501 Y84.6750
G01 X66.7074 Y84.5423
G01 X66.9930 Y84.4512
G01 X67.3582 Y84.2884
G01 X67.7019 Y84.0844
G02 X68.2952 Y83.5527 I-1.3979 J-2.1568
G01 X68.4484 Y83.2959
G01 X68.4776 Y83.2004
G01 X68.5066 Y82.9999
G01 X68.5515 Y82.9111
G01 X68.6938 Y82.7723
G01 X68.8651 Y82.6696
G01 X69.0464 Y82.5853
G01 X69.8746 Y82.2927
G01 X70.2416 Y82.1341
G01 X70.5902 Y81.9385
G01 X70.9095 Y81.6981
G02 X71.3365 Y81.1494 I-1.1405 J-1.3282
G02 X71.4860 Y80.4055 I-1.6885 J-0.7263
G01 X71.5517 Y80.2377
G01 X71.6035 Y80.1638
G01 X71.6659 Y80.0985
G01 X71.8134 Y79.9949
G02 X73.0978 Y79.2679 I-1.8658 J-4.7944
G01 X73.3263 Y79.0736
G01 X73.5329 Y78.8565
G01 X73.6398 Y78.6883
G01 X73.6602 Y78.5918
G01 X73.6127 Y78.5103
G01 X73.5325 Y78.4816
G01 X73.3630 Y78.4921
G01 X73.2042 Y78.5563
G01 X73.0584 Y78.6463
G01 X72.6253 Y78.9966
G01 X72.2935 Y79.2198
G01 X71.9444 Y79.4148
G01 X71.4581 Y79.6391
G01 X71.2951 Y79.7543
G01 X71.1666 Y79.9067
G01 X71.0784 Y80.0856
G01 X71.0204 Y80.2769
G01 X70.8898 Y80.9161
G01 X70.8276 Y81.1060
G01 X70.7362 Y81.2835
G01 X70.6070 Y81.4356
G01 X70.3603 Y81.6048
G01 X70.0868 Y81.7276
G01 X69.7090 Y81.8587
G01 X68.7571 Y82.1490
G01 X68.4776 Y82.2578
G01 X68.3029 Y82.3544
G01 X68.2252 Y82.4171
G01 X68.1633 Y82.4952
G01 X68.1212 Y82.5855
G01 X68.0683 Y83.0071
G01 X67.9929 Y83.1918
G03 X67.5717 Y83.6108 I-1.1162 J-0.7006
G01 X67.2198 Y83.8001
G01 X66.8473 Y83.9454
G01 X66.3676 Y84.0858
G01 X65.4628 Y84.2933
G01 X65.0860 Y84.4256
G01 X64.9251 Y84.5416
G01 X64.8785 Y84.6291
G03 X64.8027 Y85.0190 I-0.4831 J0.1084
G01 X64.6577 Y85.1559
G01 X64.4911 Y85.2663
G01 X64.0465 Y85.4945
G01 X63.4956 Y85.7323
G01 X61.4197 Y86.5270
G03 X58.2533 Y87.4460 I-7.9495 J-21.4769
G03 X55.4788 Y87.7897 I-3.1887 J-14.3714
G03 X53.5845 Y87.5048 I-0.1745 J-5.2803
G03 X51.6705 Y86.6590 I1.9332 J-6.9629
G03 X49.6707 Y84.0973 I3.1059 J-4.4862
G03 X49.1215 Y82.3954 I7.0035 J-3.1996
G03 X49.1500 Y80.8012 I5.5737 J-0.6975
G03 X50.2301 Y76.0669 I26.6434 J3.5878
G03 X51.2848 Y73.6930 I16.4591 J5.8915
G03 X53.1307 Y70.5962 I46.1602 J25.4164
G01 X53.3252 Y70.2467
G01 X53.4516 Y69.9747
G01 X53.5404 Y69.6886
G01 X53.5731 Y69.3909
G01 X53.5678 Y69.1910
G01 X53.4975 Y68.5211
G01 X53.4833 Y68.2215
G01 X53.5046 Y67.8223
G01 X53.5548 Y67.5267
G03 X54.4251 Y65.7389 I5.3047 J1.4764
G01 Z-0.3000 F900
G01 X54.9053 Y65.0490 F1200
G01 X55.1075 Y64.7040
G01 X55.3595 Y64.1599
G01 X55.4254 Y63.9712
G01 X55.5249 Y63.5947
G01 X55.6006 Y63.4097
G01 X55.7457 Y63.1474
G01 X55.9174 Y62.9015
G03 X56.7660 Y62.0573 I3.8728 J3.0439
G01 X57.1713 Y61.7647
G01 X57.9180 Y61.3128
G01 X58.2285 Y61.0614
G02 X58.7459 Y60.2171 I-1.4635 J-1.4777
G02 X58.9840 Y58.9421 I-5.5442 J-1.6948
G01 X59.0392 Y58.0439
G01 X59.0623 Y56.9442
G01 X59.0555 Y55.3222
G01 X59.0017 Y53.8233
G01 X58.9230 Y52.9270
G02 X58.8056 Y52.6026 I-0.4143 J-0.0334
G01 X58.6537 Y52.4728
G01 X58.4886 Y52.3601
G01 X58.0540 Y52.1132
G01 X57.6022 Y51.8990
G01 X56.7041 Y51.5328
G01 X56.0647 Y51.2479
G01 X55.6173 Y51.0247
G01 X55.2182 Y50.7843
G01 X55.0472 Y50.7004
G01 X54.6868 Y50.5786
G01 X54.0997 Y50.5228
G01 X53.6085 Y50.4306
G01 X53.1252 Y50.3028
G01 X52.6493 Y50.1496
G03 X50.5268 Y49.1249 I3.0108 J-8.9468
G03 X48.1399 Y47.1518 I11.7816 J-16.6825
G01 X47.7120 Y46.7312
G01 X47.3000 Y46.2951
G01 X46.9177 Y45.8330
G01 X46.7032 Y45.5024
G01 X46.5690 Y45.3543
G01 X46.3467 Y45.1529
G01 X45.9538 Y44.8439
G01 X45.4631 Y44.4987
G01 X44.2805 Y43.7598
G01 X43.7817 Y43.4264
G01 X43.2165 Y43.0134
G01 X42.6675 Y42.5793
G01 X41.9805 Y41.9978
G01 X41.2356 Y41.3307
G01 X39.0604 Y39.2776
G01 X38.1777 Y38.4648
G01 X37.4234 Y37.8083
G01 X36.7966 Y37.3113
G02 X35.4230 Y36.4983 I-4.0704 J5.3108
G01 X34.7664 Y36.2563
G01 X32.6776 Y35.6152
G01 X32.3119 Y35.4538
G01 X31.7901 Y35.1579
G01 X31.3724 Y34.8832
G01 X30.9674 Y34.5900
G01 X29.6354 Y33.5177
G01 X28.5218 Y32.6693
G01 X26.1954 Y31.0216
G01 X23.2450 Y28.8688
G02 X21.2323 Y27.5651 I-10.8043 J14.4740
G02 X19.5088 Y27.1262 I-1.6458 J2.8595
G01 X19.1105 Y27.1611
G01 X18.6186 Y27.2497
G01 X17.1079 Y27.6395
G01 X16.5216 Y27.7667
G01 X16.0258 Y27.8294
G01 X15.6261 Y27.8322
G01 X15.3282 Y27.7985
G01 X14.9390 Y27.7075
G01 X14.4689 Y27.5378
G01 X13.7623 Y27.2153
G01 X13.4834 Y27.1050
G01 X13.1937 Y27.0283
G01 X12.8954 Y27.0010
G01 X12.5966 Y27.0242
G01 X12.2065 Y27.1116
G01 X11.7316 Y27.2677
G01 X10.9348 Y27.5788
G01 X10.5489 Y27.6820
G03 X9.5891 Y27.5201 I-0.2912 J-1.1996
G03 X9.3634 Y26.8514 I0.4266 J-0.5164
G03 X9.7338 Y25.9459 I1.3451 J0.0218
G03 X10.5082 Y25.5037 I1.3469 J1.4595
G01 X10.9904 Y25.3726
G01 X11.9532 Y25.1900
G01 X12.2382 Y25.0970
G01 X12.5101 Y24.9707
G02 X13.1392 Y24.4167 I-0.9390 J-1.7003
G02 X13.2961 Y23.9578 I-0.4077 J-0.3957
G02 X12.8059 Y22.7123 I-5.4587 J1.4290
G01 X12.3754 Y21.9221
G01 X11.7994 Y20.9851
G01 X11.1808 Y20.0756
G01 X10.5835 Y19.2737
G01 X10.1436 Y18.7293
G01 X8.8896 Y17.2641
G01 X8.2117 Y16.3981
G01 X7.9856 Y16.0682
G01 X7.7872 Y15.7211
G01 X7.6774 Y15.4424
G01 X7.6468 Y15.2454
G03 X7.7966 Y14.8878 I0.4609 J-0.0171
G03 X8.3058 Y14.6199 I0.8770 J1.0489
G03 X9.0277 Y14.8795 I0.1112 J0.8241
G03 X10.4857 Y16.3342 I-7.8908 J9.3668
G01 X10.9270 Y16.8775
G01 X11.3448 Y17.4390
G01 X11.6251 Y17.8531
G01 X12.0695 Y18.5691
G01 X12.4165 Y19.0583
G01 X12.5453 Y19.2112
G01 X12.6902 Y19.3487
G01 X12.7746 Y19.4016
G01 X12.8704 Y19.4034
G01 X12.9172 Y19.3181
G01 X12.9281 Y19.2092
G01 X12.9127 Y19.1106
G01 X12.8450 Y18.9226
G01 X12.5656 Y18.3921
G01 X12.1358 Y17.7175
G01 X11.6746 Y17.0639
G01 X11.1281 Y16.3488
G01 X10.6184 Y15.7323
G01 X9.6802 Y14.6626
G01 X9.4941 Y14.4273
G01 X9.3287 Y14.1773
G03 X9.2238 Y13.3038 I1.1077 J-0.5760
G01 X9.2934 Y12.8536
G01 X9.3611 Y12.5616
G01 X9.4523 Y12.3854
G01 X9.5298 Y12.3232
G03 X11.0097 Y12.5624 I0.5067 J1.5627
G03 X12.7033 Y14.1892 I-6.4990 J8.4605
G01 X13.1372 Y14.7384
G01 X13.5408 Y15.3102
G01 X13.8078 Y15.7329
G01 X14.2503 Y16.4976
G01 X14.5257 Y16.9147
G01 X14.6480 Y17.0729
G01 X14.7859 Y17.2175
G01 X14.9452 Y17.2627
G01 X14.9817 Y17.1715
G01 X14.9794 Y17.0718
G01 X14.9358 Y16.8769
G01 X14.8693 Y16.6883
G01 X14.6159 Y16.1448
G01 X14.2164 Y15.4519
G01 X13.8312 Y14.8675
G01 X13.4782 Y14.3824
G01 X13.1026 Y13.9146
G01 X12.2434 Y12.9199
G01 X12.0023 Y12.6009
G01 X11.9359 Y12.4750
G01 X11.9578 Y12.4054
G01 X12.0747 Y12.2190
G01 X12.3553 Y11.8798
G03 X12.8416 Y11.5425 I0.7914 J0.6216
G01 X13.0396 Y11.5208
G01 X13.2978 Y11.5595
G01 X13.5793 Y11.6621
G01 X13.9287 Y11.8563
G03 X15.3069 Y13.0090 I-5.1552 J7.5643
G03 X16.9641 Y14.8790 I-15.2403 J15.1748
G03 X18.5298 Y17.0771 I-20.2743 J16.0985
G01 X19.0953 Y18.0205
G01 X19.9049 Y19.5176
G01 X20.2164 Y20.0303
G01 X20.4937 Y20.4463
G02 X22.1781 Y22.2823 I7.2259 J-4.9386
G02 X24.7125 Y23.7702 I6.7920 J-8.6666
G01 X25.7242 Y24.2020
G01 X26.8387 Y24.6467
G01 X27.8684 Y25.0336
G01 X29.8796 Y25.7562
G01 X31.8325 Y26.5282
G01 X33.1193 Y27.0795
G01 X35.4469 Y28.1420
G01 X35.8159 Y28.2963
G01 X36.1078 Y28.3869
G01 X36.3700 Y28.5323
G01 X36.6202 Y28.6978
G01 X37.3379 Y29.2405
G01 X38.1797 Y29.9485
G01 X39.0690 Y30.7541
G01 X40.5343 Y32.1491
G01 X41.0599 Y32.6113
G01 X41.5280 Y32.9865
G01 X41.7738 Y33.1584
G01 X41.9480 Y33.2563
G03 X43.3697 Y33.7583 I-0.6536 J4.1148
G03 X45.4086 Y35.0215 I-9.4756 J17.5715
G01 X46.3011 Y35.6643
G01 X47.2513 Y36.3972
G01 X48.2535 Y37.2251
G01 X49.4778 Y38.3074
G01 X50.1656 Y38.8879
G01 X50.9516 Y39.5059
G01 X51.6926 Y40.0213
G01 X51.9974 Y40.2798
G01 X52.1257 Y40.4326
G01 X52.1541 Y40.5268
G01 X52.0939 Y40.6059
G03 X50.9216 Y41.3169 I-4.3778 J-5.8957
G01 X50.6768 Y41.4900
G01 X50.5291 Y41.6246
G01 X50.4420 Y41.7727
G01 X50.4471 Y41.8724
G02 X50.6723 Y41.9841 I0.1530 J-0.0257
G01 X50.8585 Y41.9120
G01 X51.2100 Y41.7215
G01 X52.1607 Y41.1143
G02 X52.7143 Y40.5538 I-0.7418 J-1.2863
G02 X52.5423 Y40.1098 I-0.4951 J-0.0635
G01 X52.3237 Y39.9048
G01 X51.4622 Y39.2035
G01 X51.9760 Y37.3412
G01 X52.2155 Y36.5780
G01 X52.5646 Y35.6411
G01 X52.6867 Y35.3671
G01 X52.8810 Y35.0046
G01 X53.0518 Y34.6430
G01 X53.4148 Y33.7114
G02 X54.4622 Y30.2680 I-49.0521 J-16.8021
G02 X55.1713 Y27.3107 I-29.3918 J-8.6112
G02 X55.3908 Y24.8227 I-16.4847 J-2.7076
G02 X55.1688 Y18.8354 I-83.7140 J0.1053
G02 X54.7847 Y15.4599 I-25.0967 J1.1464
G02 X54.2612 Y13.7405 I-9.3018 J1.8926
G01 X53.9321 Y13.0115
G01 X53.3425 Y11.8858
G01 X53.0817 Y11.3455
G01 X52.7678 Y10.6097
G01 X52.4534 Y9.7665
G01 X52.1494 Y8.8140
G01 X51.9207 Y7.9436
G01 X51.7981 Y7.3563
G01 X51.6611 Y6.4520
G01 X51.5789 Y6.0607
G01 X51.4790 Y5.7785
G01 X51.4161 Y5.7026
G01 X51.3378 Y5.7401
G01 X51.3047 Y5.8342
G01 X51.2742 Y6.0317
G01 X51.2634 Y6.5312
G01 X51.2992 Y7.1021
G02 X51.7013 Y8.9565 I11.3156 J-1.4827
G02 X52.5713 Y11.4050 I21.1634 J-6.1411
G01 X52.9563 Y12.2182
G01 X53.4763 Y13.0889
G01 X53.6483 Y13.4500
G01 X53.8007 Y13.8197
G03 X54.3928 Y15.9353 I-11.2206 J4.2810
G01 X54.4685 Y16.4295
G01 X54.5062 Y16.8192
G01 X54.7694 Y21.0110
G03 X54.9264 Y25.3074 I-75.0042 J4.8925
G03 X54.7070 Y27.2297 I-7.5862 J0.1079
G03 X53.6872 Y31.1999 I-55.1306 J-12.0448
G01 X53.2463 Y32.6336
G01 X52.8217 Y33.8622
G01 X52.5982 Y34.4189
G01 X51.9558 Y35.8582
G01 X51.5302 Y36.9800
G01 X51.3795 Y37.4567
G01 X51.2805 Y37.8441
G01 X51.2321 Y38.1400
G01 X51.2115 Y38.4450
G01 X51.1871 Y38.5418
G03 X50.9806 Y38.7350 I-0.2425 J-0.0522
G03 X50.3572 Y38.4488 I0.1588 J-1.1679
G01 X50.1264 Y38.2571
G01 X48.9311 Y37.1710
G01 X47.7824 Y36.2064
G02 X45.2962 Y34.3564 I-23.2501 J28.6499
G01 X44.3713 Y33.7611
G01 X43.5886 Y33.3171
G01 X43.2293 Y33.1414
G01 X42.8589 Y32.9907
G01 X42.5701 Y32.9105
G01 X42.4028 Y32.8927
G01 X42.3100 Y32.8574
G01 X42.0597 Y32.6923
G01 X41.5871 Y32.3227
G01 X40.9018 Y31.7395
G01 X38.9843 Y29.9849
G01 X38.3051 Y29.3946
G02 X36.9194 Y28.4131 I-6.4829 J7.6840
G01 X36.1290 Y27.9831
G01 X34.7299 Y27.2997
G01 X33.1901 Y26.5796
G01 X31.9088 Y26.0154
G01 X31.0769 Y25.6721
G01 X30.1446 Y25.3105
G01 X27.1798 Y24.2453
G01 X26.1579 Y23.8383
G01 X25.1459 Y23.4073
G03 X22.6052 Y22.0636 I6.3944 J-15.1649
G03 X21.0856 Y20.4061 I4.6360 J-5.7754
G01 X20.6377 Y19.7433
G01 X20.2132 Y19.0653
G01 X19.8615 Y18.4601
G01 X19.2876 Y17.4077
G01 X18.7668 Y16.5541
G02 X17.2386 Y14.4524 I-19.3969 J12.4968
G02 X15.5395 Y12.6210 I-14.5645 J11.8089
G02 X13.7705 Y11.2435 I-6.7492 J6.8426
G02 X12.6225 Y11.0629 I-0.7713 J1.1638
G01 X12.4438 Y11.1518
G01 X12.2091 Y11.3376
G01 X12.0097 Y11.5615
G01 X11.7488 Y11.9105
G01 X11.6088 Y12.0523
G01 X11.5216 Y12.1001
G01 X11.4237 Y12.1144
G01 X11.2318 Y12.0620
G01 X10.6231 Y11.7855
G01 X10.2357 Y11.6885
G02 X9.3675 Y11.8412 I-0.2277 J1.2503
G02 X8.8814 Y12.4577 I0.6501 J1.0125
G02 X8.7418 Y13.4874 I3.5475 J1.0053
G01 X8.6856 Y13.6786
G01 X8.6370 Y13.7657
G01 X8.5754 Y13.8443
G01 X8.4247 Y13.9753
G01 X7.6451 Y14.4265
G01 X7.3221 Y14.6620
G02 X7.0921 Y15.0920 I0.2001 J0.3835
G02 X7.3248 Y15.8526 I2.2477 J-0.2717
G01 X7.5588 Y16.2943
G01 X7.8855 Y16.7973
G01 X8.3183 Y17.3471
G01 X9.2789 Y18.3860
G01 X9.9898 Y19.2252
G01 X10.5937 Y20.0221
G01 X11.2110 Y20.9325
G01 X11.8453 Y21.9615
G01 X12.2331 Y22.6611
G03 X12.6710 Y23.7746 I-4.1540 J2.2763
G01 X12.7018 Y24.0723
G01 X12.6750 Y24.2698
G03 X12.4457 Y24.5865 I-0.5262 J-0.1397
G01 X12.2666 Y24.6743
G01 X12.0733 Y24.7248
G01 X11.8752 Y24.7513
G01 X11.4487 Y24.7742
G01 X11.1531 Y24.8250
G01 X10.8633 Y24.9019
G01 X10.4861 Y25.0348
G02 X9.2314 Y25.8303 I1.0812 J3.0924
G02 X8.9602 Y27.0816 I1.7381 J1.0319
G02 X9.4003 Y28.0197 I1.2808 J-0.0287
G02 X10.4366 Y28.2858 I0.8198 J-1.0419
G01 X10.6324 Y28.2457
G01 X10.9185 Y28.1561
G01 X11.7133 Y27.8086
G01 X12.0894 Y27.6731
G01 X12.4794 Y27.5858
G01 X12.7782 Y27.5624
G01 X13.0774 Y27.5800
G01 X13.4680 Y27.6641
G01 X13.8433 Y27.8019
G01 X14.3919 Y28.0553
G01 X14.7713 Y28.1813
G01 X15.1627 Y28.2625
G01 X15.5605 Y28.3030
G02 X16.7555 Y28.2245 I0.2424 J-5.4423
G01 X17.3425 Y28.1012
G01 X18.6573 Y27.7526
G01 X19.0504 Y27.6791
G01 X19.4482 Y27.6390
G03 X21.0811 Y28.0328 I0.1016 J3.1613
G01 X21.6895 Y28.3784
G01 X22.5214 Y28.9331
G02 X28.4162 Y33.1851 I130.2434 J-174.3495
G03 X30.8830 Y35.1620 I-19.5678 J26.9446
G01 X31.4553 Y35.5644
G02 X32.5387 Y36.0751 I2.9240 J-4.7985
G01 X33.1086 Y36.2625
G01 X34.4694 Y36.6633
G01 X35.2187 Y36.9426
G03 X36.6873 Y37.7911 I-2.8486 J6.6255
G01 X37.3157 Y38.2860
G01 X37.9931 Y38.8785
G01 X38.7976 Y39.6286
G01 X41.1418 Y41.8726
G01 X41.8807 Y42.5464
G01 X42.4877 Y43.0675
G01 X43.0368 Y43.5015
G01 X43.5243 Y43.8513
G01 X44.1966 Y44.2846
G01 X45.3210 Y44.9542
G01 X45.6508 Y45.1805
G01 X45.9657 Y45.4269
G01 X46.1874 Y45.6290
G01 X46.3892 Y45.8507
G01 X46.7084 Y46.3320
G01 X47.0261 Y46.7179
G01 X47.3690 Y47.0817
G01 X47.7990 Y47.5001
G02 X50.3833 Y49.5824 I15.8117 J-16.9785
G02 X52.4288 Y50.6231 I5.6557 J-8.5855
G01 X52.9031 Y50.7811
G01 X53.2906 Y50.8801
G01 X53.5862 Y50.9308
G01 X53.9629 Y50.9562
G01 X54.3541 Y51.0379
G01 X54.9257 Y51.2196
G01 X55.4849 Y51.4370
G01 X55.9890 Y51.6631
G01 X58.0625 Y52.6611
G01 X58.2284 Y52.7720
G01 X58.3534 Y52.9263
G01 X58.4231 Y53.1131
G01 X58.4668 Y53.4096
G01 X58.5293 Y54.9353
G01 X58.6740 Y57.1036
G01 X58.6948 Y57.7032
G03 X58.3930 Y59.8707 I-6.2115 J0.2400
G03 X57.8150 Y60.7951 I-2.2403 J-0.7579
G01 X57.5793 Y60.9800
G01 X56.9663 Y61.3288
G01 X56.4853 Y61.6869
G02 X55.5196 Y62.6964 I3.9754 J4.7700
G01 X55.2918 Y63.0250
G01 X55.0970 Y63.3741
G01 X55.0171 Y63.5574
G01 X54.8242 Y64.1016
G01 X54.5615 Y64.6407
G01 X54.3516 Y64.9810
G01 X54.0500 Y65.3758
G01 X53.8231 Y65.7051
G01 X53.4719 Y66.3103
G02 X52.8708 Y67.9990 I5.0213 J2.7386
G01 X52.8500 Y68.2979
G01 X52.8750 Y68.4959
G01 X52.9086 Y68.5899
G01 X53.0881 Y68.7767
G01 X53.1364 Y68.8637
G01 X53.1578 Y68.9611
G01 X53.1605 Y69.0610
G01 X53.1313 Y69.2585
G01 X53.0440 Y69.5454
G01 X52.8468 Y70.0046
G01 X52.5239 Y70.6256
G01 X52.0209 Y71.4898
G01 X51.0661 Y73.0365
G01 X50.7282 Y73.6494
G01 X50.4175 Y74.2766
G02 X49.2067 Y77.7662 I16.5567 J7.6999
G02 X48.7194 Y80.5653 I22.9055 J5.4295
G02 X48.7285 Y82.4610 I8.0418 J0.9093
G02 X49.3523 Y84.6149 I8.4234 J-1.2723
G02 X50.3676 Y86.2093 I4.9737 J-2.0466
G02 X52.3719 Y87.5574 I4.3730 J-4.3381
G02 X54.7762 Y88.2031 I3.2101 J-7.1526
G02 X57.4671 Y88.1100 I0.9851 J-10.4614
G02 X60.6654 Y87.3121 I-3.3547 J-20.2553
G02 X64.1587 Y85.9927 I-13.6808 J-41.5067
G01 X64.6061 Y85.7697
G01 X64.9475 Y85.5617
G02 X65.5315 Y84.9928 I-1.3801 J-2.0011
G01 X65.7807 Y84.8273
G01 X66.1501 Y84.6750
G01 X66.7074 Y84.5423
G01 X66.9930 Y84.4512
G01 X67.3582 Y84.2884
G01 X67.7019 Y84.0844
G02 X68.2952 Y83.5527 I-1.3979 J-2.1568
G01 X68.4484 Y83.2959
G01 X68.4776 Y83.2004
G01 X68.5066 Y82.9999
G01 X68.5515 Y82.9111
G01 X68.6938 Y82.7723
G01 X68.8651 Y82.6696
G01 X69.0464 Y82.5853
G01 X69.8746 Y82.2927
G01 X70.2416 Y82.1341
G01 X70.5902 Y81.9385
G01 X70.9095 Y81.6981
G02 X71.3365 Y81.1494 I-1.1405 J-1.3282
G02 X71.4860 Y80.4055 I-1.6885 J-0.7263
G01 X71.5517 Y80.2377
G01 X71.6035 Y80.1638
G01 X71.6659 Y80.0985
G01 X71.8134 Y79.9949
G02 X73.0978 Y79.2679 I-1.8658 J-4.7944
G01 X73.3263 Y79.0736
G01 X73.5329 Y78.8565
G01 X73.6398 Y78.6883
G01 X73.6602 Y78.5918
G01 X73.6127 Y78.5103
G01 X73.5325 Y78.4816
G01 X73.3630 Y78.4921
G01 X73.2042 Y78.5563
G01 X73.0584 Y78.6463
G01 X72.6253 Y78.9966
G01 X72.2935 Y79.2198
G01 X71.9444 Y79.4148
G01 X71.4581 Y79.6391
G01 X71.2951 Y79.7543
G01 X71.1666 Y79.9067
G01 X71.0784 Y80.0856
G01 X71.0204 Y80.2769
G01 X70.8898 Y80.9161
G01 X70.8276 Y81.1060
G01 X70.7362 Y81.2835
G01 X70.6070 Y81.4356
G01 X70.3603 Y81.6048
G01 X70.0868 Y81.7276
G01 X69.7090 Y81.8587
G01 X68.7571 Y82.1490
G01 X68.4776 Y82.2578
G01 X68.3029 Y82.3544
G01 X68.2252 Y82.4171
G01 X68.1633 Y82.4952
G01 X68.1212 Y82.5855
G01 X68.0683 Y83.0071
G01 X67.9929 Y83.1918
G03 X67.5717 Y83.6108 I-1.1162 J-0.7006
G01 X67.2198 Y83.8001
G01 X66.8473 Y83.9454
G01 X66.3676 Y84.0858
G01 X65.4628 Y84.2933
G01 X65.0860 Y84.4256
G01 X64.9251 Y84.5416
G01 X64.8785 Y84.6291
G03 X64.8027 Y85.0190 I-0.4831 J0.1084
G01 X64.6577 Y85.1559
G01 X64.4911 Y85.2663
G01 X64.0465 Y85.4945
G01 X63.4956 Y85.7323
G01 X61.4197 Y86.5270
G03 X58.2533 Y87.4460 I-7.9495 J-21.4769
G03 X55.4788 Y87.7897 I-3.1887 J-14.3714
G03 X53.5845 Y87.5048 I-0.1745 J-5.2803
G03 X51.6705 Y86.6590 I1.9332 J-6.9629
G03 X49.6707 Y84.0973 I3.1059 J-4.4862
G03 X49.1215 Y82.3954 I7.0035 J-3.1996
G03 X49.1500 Y80.8012 I5.5737 J-0.6975
G03 X50.2301 Y76.0669 I26.6434 J3.5878
G03 X51.2848 Y73.6930 I16.4591 J5.8915
G03 X53.1307 Y70.5962 I46.1602 J25.4164
G01 X53.3252 Y70.2467
G01 X53.4516 Y69.9747
G01 X53.5404 Y69.6886
G01 X53.5731 Y69.3909
G01 X53.5678 Y69.1910
G01 X53.4975 Y68.5211
G01 X53.4833 Y68.2215
G01 X53.5046 Y67.8223
G01 X53.5548 Y67.5267
G03 X54.4251 Y65.7389 I5.3047 J1.4764
G01 Z-0.4000 F900
G01 X54.9053 Y65.0490 F1200
G01 X55.1075 Y64.7040
G01 X55.3595 Y64.1599
G01 X55.4254 Y63.9712
G01 X55.5249 Y63.5947
G01 X55.6006 Y63.4097
G01 X55.7457 Y63.1474
G01 X55.9174 Y62.9015
G03 X56.7660 Y62.0573 I3.8728 J3.0439
G01 X57.1713 Y61.7647
G01 X57.9180 Y61.3128
G01 X58.2285 Y61.0614
G02 X58.7459 Y60.2171 I-1.4635 J-1.4777
G02 X58.9840 Y58.9421 I-5.5442 J-1.6948
G01 X59.0392 Y58.0439
G01 X59.0623 Y56.9442
G01 X59.0555 Y55.3222
G01 X59.0017 Y53.8233
G01 X58.9230 Y52.9270
G02 X58.8056 Y52.6026 I-0.4143 J-0.0334
G01 X58.6537 Y52.4728
G01 X58.4886 Y52.3601
G01 X58.0540 Y52.1132
G01 X57.6022 Y51.8990
G01 X56.7041 Y51.5328
G01 X56.0647 Y51.2479
G01 X55.6173 Y51.0247
G01 X55.2182 Y50.7843
G01 X55.0472 Y50.7004
G01 X54.6868 Y50.5786
G01 X54.0997 Y50.5228
G01 X53.6085 Y50.4306
G01 X53.1252 Y50.3028
G01 X52.6493 Y50.1496
G03 X50.5268 Y49.1249 I3.0108 J-8.9468
G03 X48.1399 Y47.1518 I11.7816 J-16.6825
G01 X47.7120 Y46.7312
G01 X47.3000 Y46.2951
G01 X46.9177 Y45.8330
G01 X46.7032 Y45.5024
G01 X46.5690 Y45.3543
G01 X46.3467 Y45.1529
G01 X45.9538 Y44.8439
G01 X45.4631 Y44.4987
G01 X44.2805 Y43.7598
G01 X43.7817 Y43.4264
G01 X43.2165 Y43.0134
G01 X42.6675 Y42.5793
G01 X41.9805 Y41.9978
G01 X41.2356 Y41.3307
G01 X39.0604 Y39.2776
G01 X38.1777 Y38.4648
G01 X37.4234 Y37.8083
G01 X36.7966 Y37.3113
G02 X35.4230 Y36.4983 I-4.0704 J5.3108
G01 X34.7664 Y36.2563
G01 X32.6776 Y35.6152
G01 X32.3119 Y35.4538
G01 X31.7901 Y35.1579
G01 X31.3724 Y34.8832
G01 X30.9674 Y34.5900
G01 X29.6354 Y33.5177
G01 X28.5218 Y32.6693
G01 X26.1954 Y31.0216
G01 X23.2450 Y28.8688
G02 X21.2323 Y27.5651 I-10.8043 J14.4740
G02 X19.5088 Y27.1262 I-1.6458 J2.8595
G01 X19.1105 Y27.1611
G01 X18.6186 Y27.2497
G01 X17.1079 Y27.6395
G01 X16.5216 Y27.7667
G01 X16.0258 Y27.8294
G01 X15.6261 Y27.8322
G01 X15.3282 Y27.7985
G01 X14.9390 Y27.7075
G01 X14.4689 Y27.5378
G01 X13.7623 Y27.2153
G01 X13.4834 Y27.1050
G01 X13.1937 Y27.0283
G01 X12.8954 Y27.0010
G01 X12.5966 Y27.0242
G01 X12.2065 Y27.1116
G01 X11.7316 Y27.2677
G01 X10.9348 Y27.5788
G01 X10.5489 Y27.6820
G03 X9.5891 Y27.5201 I-0.2912 J-1.1996
G03 X9.3634 Y26.8514 I0.4266 J-0.5164
G03 X9.7338 Y25.9459 I1.3451 J0.0218
G03 X10.5082 Y25.5037 I1.3469 J1.4595
G01 X10.9904 Y25.3726
G01 X11.9532 Y25.1900
G01 X12.2382 Y25.0970
G01 X12.5101 Y24.9707
G02 X13.1392 Y24.4167 I-0.9390 J-1.7003
G02 X13.2961 Y23.9578 I-0.4077 J-0.3957
G02 X12.8059 Y22.7123 I-5.4587 J1.4290
G01 X12.3754 Y21.9221
G01 X11.7994 Y20.9851
G01 X11.1808 Y20.0756
G01 X10.5835 Y19.2737
G01 X10.1436 Y18.7293
G01 X8.8896 Y17.2641
G01 X8.2117 Y16.3981
G01 X7.9856 Y16.0682
G01 X7.7872 Y15.7211
G01 X7.6774 Y15.4424
G01 X7.6468 Y15.2454
G03 X7.7966 Y14.8878 I0.4609 J-0.0171
G03 X8.3058 Y14.6199 I0.8770 J1.0489
G03 X9.0277 Y14.8795 I0.1112 J0.8241
G03 X10.4857 Y16.3342 I-7.8908 J9.3668
G01 X10.9270 Y16.8775
G01 X11.3448 Y17.4390
G01 X11.6251 Y17.8531
G01 X12.0695 Y18.5691
G01 X12.4165 Y19.0583
G01 X12.5453 Y19.2112
G01 X12.6902 Y19.3487
G01 X12.7746 Y19.4016
G01 X12.8704 Y19.4034
G01 X12.9172 Y19.3181
G01 X12.9281 Y19.2092
G01 X12.9127 Y19.1106
G01 X12.8450 Y18.9226
G01 X12.5656 Y18.3921
G01 X12.1358 Y17.7175
G01 X11.6746 Y17.0639
G01 X11.1281 Y16.3488
G01 X10.6184 Y15.7323
G01 X9.6802 Y14.6626
G01 X9.4941 Y14.4273
G01 X9.3287 Y14.1773
G03 X9.2238 Y13.3038 I1.1077 J-0.5760
G01 X9.2934 Y12.8536
G01 X9.3611 Y12.5616
G01 X9.4523 Y12.3854
G01 X9.5298 Y12.3232
G03 X11.0097 Y12.5624 I0.5067 J1.5627
G03 X12.7033 Y14.1892 I-6.4990 J8.4605
G01 X13.1372 Y14.7384
G01 X13.5408 Y15.3102
G01 X13.8078 Y15.7329
G01 X14.2503 Y16.4976
G01 X14.5257 Y16.9147
G01 X14.6480 Y17.0729
G01 X14.7859 Y17.2175
G01 X14.9452 Y17.2627
G01 X14.9817 Y17.1715
G01 X14.9794 Y17.0718
G01 X14.9358 Y16.8769
G01 X14.8693 Y16.6883
G01 X14.6159 Y16.1448
G01 X14.2164 Y15.4519
G01 X13.8312 Y14.8675
G01 X13.4782 Y14.3824
G01 X13.1026 Y13.9146
G01 X12.2434 Y12.9199
G01 X12.0023 Y12.6009
G01 X11.9359 Y12.4750
G01 X11.9578 Y12.4054
G01 X12.0747 Y12.2190
G01 X12.3553 Y11.8798
G03 X12.8416 Y11.5425 I0.7914 J0.6216
G01 X13.0396 Y11.5208
G01 X13.2978 Y11.5595
G01 X13.5793 Y11.6621
G01 X13.9287 Y11.8563
G03 X15.3069 Y13.0090 I-5.1552 J7.5643
G03 X16.9641 Y14.8790 I-15.2403 J15.1748
G03 X18.5298 Y17.0771 I-20.2743 J16.0985
G01 X19.0953 Y18.0205
G01 X19.9049 Y19.5176
G01 X20.2164 Y20.0303
G01 X20.4937 Y20.4463
G02 X22.1781 Y22.2823 I7.2259 J-4.9386
G02 X24.7125 Y23.7702 I6.7920 J-8.6666
G01 X25.7242 Y24.2020
G01 X26.8387 Y24.6467
G01 X27.8684 Y25.0336
G01 X29.8796 Y25.7562
G01 X31.8325 Y26.5282
G01 X33.1193 Y27.0795
G01 X35.4469 Y28.1420
G01 X35.8159 Y28.2963
G01 X36.1078 Y28.3869
G01 X36.3700 Y28.5323
G01 X36.6202 Y28.6978
G01 X37.3379 Y29.2405
G01 X38.1797 Y29.9485
G01 X39.0690 Y30.7541
G01 X40.5343 Y32.1491
G01 X41.0599 Y32.6113
G01 X41.5280 Y32.9865
G01 X41.7738 Y33.1584
G01 X41.9480 Y33.2563
G03 X43.3697 Y33.7583 I-0.6536 J4.1148
G03 X45.4086 Y35.0215 I-9.4756 J17.5715
G01 X46.3011 Y35.6643
G01 X47.2513 Y36.3972
G01 X48.2535 Y37.2251
G01 X49.4778 Y38.3074
G01 X50.1656 Y38.8879
G01 X50.9516 Y39.5059
G01 X51.6926 Y40.0213
G01 X51.9974 Y40.2798
G01 X52.1257 Y40.4326
G01 X52.1541 Y40.5268
G01 X52.0939 Y40.6059
G03 X50.9216 Y41.3169 I-4.3778 J-5.8957
G01 X50.6768 Y41.4900
G01 X50.5291 Y41.6246
G01 X50.4420 Y41.7727
G01 X50.4471 Y41.8724
G02 X50.6723 Y41.9841 I0.1530 J-0.0257
G01 X50.8585 Y41.9120
G01 X51.2100 Y41.7215
G01 X52.1607 Y41.1143
G02 X52.7143 Y40.5538 I-0.7418 J-1.2863
G02 X52.5423 Y40.1098 I-0.4951 J-0.0635
G01 X52.3237 Y39.9048
G01 X51.4622 Y39.2035
G01 X51.9760 Y37.3412
G01 X52.2155 Y36.5780
G01 X52.5646 Y35.6411
G01 X52.6867 Y35.3671
G01 X52.8810 Y35.0046
G01 X53.0518 Y34.6430
G01 X53.4148 Y33.7114
G02 X54.4622 Y30.2680 I-49.0521 J-16.8021
G02 X55.1713 Y27.3107 I-29.3918 J-8.6112
G02 X55.3908 Y24.8227 I-16.4847 J-2.7076
G02 X55.1688 Y18.8354 I-83.7140 J0.1053
G02 X54.7847 Y15.4599 I-25.0967 J1.1464
G02 X54.2612 Y13.7405 I-9.3018 J1.8926
G01 X53.9321 Y13.0115
G01 X53.3425 Y11.8858
G01 X53.0817 Y11.3455
G01 X52.7678 Y10.6097
G01 X52.4534 Y9.7665
G01 X52.1494 Y8.8140
G01 X51.9207 Y7.9436
G01 X51.7981 Y7.3563
G01 X51.6611 Y6.4520
G01 X51.5789 Y6.0607
G01 X51.4790 Y5.7785
G01 X51.4161 Y5.7026
G01 X51.3378 Y5.7401
G01 X51.3047 Y5.8342
G01 X51.2742 Y6.0317
G01 X51.2634 Y6.5312
G01 X51.2992 Y7.1021
G02 X51.7013 Y8.9565 I11.3156 J-1.4827
G02 X52.5713 Y11.4050 I21.1634 J-6.1411
G01 X52.9563 Y12.2182
G01 X53.4763 Y13.0889
G01 X53.6483 Y13.4500
G01 X53.8007 Y13.8197
G03 X54.3928 Y15.9353 I-11.2206 J4.2810
G01 X54.4685 Y16.4295
G01 X54.5062 Y16.8192
G01 X54.7694 Y21.0110
G03 X54.9264 Y25.3074 I-75.0042 J4.8925
G03 X54.7070 Y27.2297 I-7.5862 J0.1079
G03 X53.6872 Y31.1999 I-55.1306 J-12.0448
G01 X53.2463 Y32.6336
G01 X52.8217 Y33.8622
G01 X52.5982 Y34.4189
G01 X51.9558 Y35.8582
G01 X51.5302 Y36.9800
G01 X51.3795 Y37.4567
G01 X51.2805 Y37.8441
G01 X51.2321 Y38.1400
G01 X51.2115 Y38.4450
G01 X51.1871 Y38.5418
G03 X50.9806 Y38.7350 I-0.2425 J-0.0522
G03 X50.3572 Y38.4488 I0.1588 J-1.1679
G01 X50.1264 Y38.2571
G01 X48.9311 Y37.1710
G01 X47.7824 Y36.2064
G02 X45.2962 Y34.3564 I-23.2501 J28.6499
G01 X44.3713 Y33.7611
G01 X43.5886 Y33.3171
G01 X43.2293 Y33.1414
G01 X42.8589 Y32.9907
G01 X42.5701 Y32.9105
G01 X42.4028 Y32.8927
G01 X42.3100 Y32.8574
G01 X42.0597 Y32.6923
G01 X41.5871 Y32.3227
G01 X40.9018 Y31.7395
G01 X38.9843 Y29.9849
G01 X38.3051 Y29.3946
G02 X36.9194 Y28.4131 I-6.4829 J7.6840
G01 X36.1290 Y27.9831
G01 X34.7299 Y27.2997
G01 X33.1901 Y26.5796
G01 X31.9088 Y26.0154
G01 X31.0769 Y25.6721
G01 X30.1446 Y25.3105
G01 X27.1798 Y24.2453
G01 X26.1579 Y23.8383
G01 X25.1459 Y23.4073
G03 X22.6052 Y22.0636 I6.3944 J-15.1649
G03 X21.0856 Y20.4061 I4.6360 J-5.7754
G01 X20.6377 Y19.7433
G01 X20.2132 Y19.0653
G01 X19.8615 Y18.4601
G01 X19.2876 Y17.4077
G01 X18.7668 Y16.5541
G02 X17.2386 Y14.4524 I-19.3969 J12.4968
G02 X15.5395 Y12.6210 I-14.5645 J11.8089
G02 X13.7705 Y11.2435 I-6.7492 J6.8426
G02 X12.6225 Y11.0629 I-0.7713 J1.1638
G01 X12.4438 Y11.1518
G01 X12.2091 Y11.3376
G01 X12.0097 Y11.5615
G01 X11.7488 Y11.9105
G01 X11.6088 Y12.0523
G01 X11.5216 Y12.1001
G01 X11.4237 Y12.1144
G01 X11.2318 Y12.0620
G01 X10.6231 Y11.7855
G01 X10.2357 Y11.6885
G02 X9.3675 Y11.8412 I-0.2277 J1.2503
G02 X8.8814 Y12.4577 I0.6501 J1.0125
G02 X8.7418 Y13.4874 I3.5475 J1.0053
G01 X8.6856 Y13.6786
G01 X8.6370 Y13.7657
G01 X8.5754 Y13.8443
G01 X8.4247 Y13.9753
G01 X7.6451 Y14.4265
G01 X7.3221 Y14.6620
G02 X7.0921 Y15.0920 I0.2001 J0.3835
G02 X7.3248 Y15.8526 I2.2477 J-0.2717
G01 X7.5588 Y16.2943
G01 X7.8855 Y16.7973
G01 X8.3183 Y17.3471
G01 X9.2789 Y18.3860
G01 X9.9898 Y19.2252
G01 X10.5937 Y20.0221
G01 X11.2110 Y20.9325
G01 X11.8453 Y21.9615
G01 X12.2331 Y22.6611
G03 X12.6710 Y23.7746 I-4.1540 J2.2763
G01 X12.7018 Y24.0723
G01 X12.6750 Y24.2698
G03 X12.4457 Y24.5865 I-0.5262 J-0.1397
G01 X12.2666 Y24.6743
G01 X12.0733 Y24.7248
G01 X11.8752 Y24.7513
G01 X11.4487 Y24.7742
G01 X11.1531 Y24.8250
G01 X10.8633 Y24.9019
G01 X10.4861 Y25.0348
G02 X9.2314 Y25.8303 I1.0812 J3.0924
G02 X8.9602 Y27.0816 I1.7381 J1.0319
G02 X9.4003 Y28.0197 I1.2808 J-0.0287
G02 X10.4366 Y28.2858 I0.8198 J-1.0419
G01 X10.6324 Y28.2457
G01 X10.9185 Y28.1561
G01 X11.7133 Y27.8086
G01 X12.0894 Y27.6731
G01 X12.4794 Y27.5858
G01 X12.7782 Y27.5624
G01 X13.0774 Y27.5800
G01 X13.4680 Y27.6641
G01 X13.8433 Y27.8019
G01 X14.3919 Y28.0553
G01 X14.7713 Y28.1813
G01 X15.1627 Y28.2625
G01 X15.5605 Y28.3030
G02 X16.7555 Y28.2245 I0.2424 J-5.4423
G01 X17.3425 Y28.1012
G01 X18.6573 Y27.7526
G01 X19.0504 Y27.6791
G01 X19.4482 Y27.6390
G03 X21.0811 Y28.0328 I0.1016 J3.1613
G01 X21.6895 Y28.3784
G01 X22.5214 Y28.9331
G02 X28.4162 Y33.1851 I130.2434 J-174.3495
G03 X30.8830 Y35.1620 I-19.5678 J26.9446
G01 X31.4553 Y35.5644
G02 X32.5387 Y36.0751 I2.9240 J-4.7985
G01 X33.1086 Y36.2625
G01 X34.4694 Y36.6633
G01 X35.2187 Y36.9426
G03 X36.6873 Y37.7911 I-2.8486 J6.6255
G01 X37.3157 Y38.2860
G01 X37.9931 Y38.8785
G01 X38.7976 Y39.6286
G01 X41.1418 Y41.8726
G01 X41.8807 Y42.5464
G01 X42.4877 Y43.0675
G01 X43.0368 Y43.5015
G01 X43.5243 Y43.8513
G01 X44.1966 Y44.2846
G01 X45.3210 Y44.9542
G01 X45.6508 Y45.1805
G01 X45.9657 Y45.4269
G01 X46.1874 Y45.6290
G01 X46.3892 Y45.8507
G01 X46.7084 Y46.3320
G01 X47.0261 Y46.7179
G01 X47.3690 Y47.0817
G01 X47.7990 Y47.5001
G02 X50.3833 Y49.5824 I15.8117 J-16.9785
G02 X52.4288 Y50.6231 I5.6557 J-8.5855
G01 X52.9031 Y50.7811
G01 X53.2906 Y50.8801
G01 X53.5862 Y50.9308
G01 X53.9629 Y50.9562
G01 X54.3541 Y51.0379
G01 X54.9257 Y51.2196
G01 X55.4849 Y51.4370
G01 X55.9890 Y51.6631
G01 X58.0625 Y52.6611
G01 X58.2284 Y52.7720
G01 X58.3534 Y52.9263
G01 X58.4231 Y53.1131
G01 X58.4668 Y53.4096
G01 X58.5293 Y54.9353
G01 X58.6740 Y57.1036
G01 X58.6948 Y57.7032
G03 X58.3930 Y59.8707 I-6.2115 J0.2400
G03 X57.8150 Y60.7951 I-2.2403 J-0.7579
G01 X57.5793 Y60.9800
G01 X56.9663 Y61.3288
G01 X56.4853 Y61.6869
G02 X55.5196 Y62.6964 I3.9754 J4.7700
G01 X55.2918 Y63.0250
G01 X55.0970 Y63.3741
G01 X55.0171 Y63.5574
G01 X54.8242 Y64.1016
G01 X54.5615 Y64.6407
G01 X54.3516 Y64.9810
G01 X54.0500 Y65.3758
G01 X53.8231 Y65.7051
G01 X53.4719 Y66.3103
G02 X52.8708 Y67.9990 I5.0213 J2.7386
G01 X52.8500 Y68.2979
G01 X52.8750 Y68.4959
G01 X52.9086 Y68.5899
G01 X53.0881 Y68.7767
G01 X53.1364 Y68.8637
G01 X53.1578 Y68.9611
G01 X53.1605 Y69.0610
G01 X53.1313 Y69.2585
G01 X53.0440 Y69.5454
G01 X52.8468 Y70.0046
G01 X52.5239 Y70.6256
G01 X52.0209 Y71.4898
G01 X51.0661 Y73.0365
G01 X50.7282 Y73.6494
G01 X50.4175 Y74.2766
G02 X49.2067 Y77.7662 I16.5567 J7.6999
G02 X48.7194 Y80.5653 I22.9055 J5.4295
G02 X48.7285 Y82.4610 I8.0418 J0.9093
G02 X49.3523 Y84.6149 I8.4234 J-1.2723
G02 X50.3676 Y86.2093 I4.9737 J-2.0466
G02 X52.3719 Y87.5574 I4.3730 J-4.3381
G02 X54.7762 Y88.2031 I3.2101 J-7.1526
G02 X57.4671 Y88.1100 I0.9851 J-10.4614
G02 X60.6654 Y87.3121 I-3.3547 J-20.2553
G02 X64.1587 Y85.9927 I-13.6808 J-41.5067
G01 X64.6061 Y85.7697
G01 X64.9475 Y85.5617
G02 X65.5315 Y84.9928 I-1.3801 J-2.0011
G01 X65.7807 Y84.8273
G01 X66.1501 Y84.6750
G01 X66.7074 Y84.5423
G01 X66.9930 Y84.4512
G01 X67.3582 Y84.2884
G01 X67.7019 Y84.0844
G02 X68.2952 Y83.5527 I-1.3979 J-2.1568
G01 X68.4484 Y83.2959
G01 X68.4776 Y83.2004
G01 X68.5066 Y82.9999
G01 X68.5515 Y82.9111
G01 X68.6938 Y82.7723
G01 X68.8651 Y82.6696
G01 X69.0464 Y82.5853
G01 X69.8746 Y82.2927
G01 X70.2416 Y82.1341
G01 X70.5902 Y81.9385
G01 X70.9095 Y81.6981
G02 X71.3365 Y81.1494 I-1.1405 J-1.3282
G02 X71.4860 Y80.4055 I-1.6885 J-0.7263
G01 X71.5517 Y80.2377
G01 X71.6035 Y80.1638
G01 X71.6659 Y80.0985
G01 X71.8134 Y79.9949
G02 X73.0978 Y79.2679 I-1.8658 J-4.7944
G01 X73.3263 Y79.0736
G01 X73.5329 Y78.8565
G01 X73.6398 Y78.6883
G01 X73.6602 Y78.5918
G01 X73.6127 Y78.5103
G01 X73.5325 Y78.4816
G01 X73.3630 Y78.4921
G01 X73.2042 Y78.5563
G01 X73.0584 Y78.6463
G01 X72.6253 Y78.9966
G01 X72.2935 Y79.2198
G01 X71.9444 Y79.4148
G01 X71.4581 Y79.6391
G01 X71.2951 Y79.7543
G01 X71.1666 Y79.9067
G01 X71.0784 Y80.0856
G01 X71.0204 Y80.2769
G01 X70.8898 Y80.9161
G01 X70.8276 Y81.1060
G01 X70.7362 Y81.2835
G01 X70.6070 Y81.4356
G01 X70.3603 Y81.6048
G01 X70.0868 Y81.7276
G01 X69.7090 Y81.8587
G01 X68.7571 Y82.1490
G01 X68.4776 Y82.2578
G01 X68.3029 Y82.3544
G01 X68.2252 Y82.4171
G01 X68.1633 Y82.4952
G01 X68.1212 Y82.5855
G01 X68.0683 Y83.0071
G01 X67.9929 Y83.1918
G03 X67.5717 Y83.6108 I-1.1162 J-0.7006
G01 X67.2198 Y83.8001
G01 X66.8473 Y83.9454
G01 X66.3676 Y84.0858
G01 X65.4628 Y84.2933
G01 X65.0860 Y84.4256
G01 X64.9251 Y84.5416
G01 X64.8785 Y84.6291
G03 X64.8027 Y85.0190 I-0.4831 J0.1084
G01 X64.6577 Y85.1559
G01 X64.4911 Y85.2663
G01 X64.0465 Y85.4945
G01 X63.4956 Y85.7323
G01 X61.4197 Y86.5270
G03 X58.2533 Y87.4460 I-7.9495 J-21.4769
G03 X55.4788 Y87.7897 I-3.1887 J-14.3714
G03 X53.5845 Y87.5048 I-0.1745 J-5.2803
G03 X51.6705 Y86.6590 I1.9332 J-6.9629
G03 X49.6707 Y84.0973 I3.1059 J-4.4862
G03 X49.1215 Y82.3954 I7.0035 J-3.1996
G03 X49.1500 Y80.8012 I5.5737 J-0.6975
G03 X50.2301 Y76.0669 I26.6434 J3.5878
G03 X51.2848 Y73.6930 I16.4591 J5.8915
G03 X53.1307 Y70.5962 I46.1602 J25.4164
G01 X53.3252 Y70.2467
G01 X53.4516 Y69.9747
G01 X53.5404 Y69.6886
G01 X53.5731 Y69.3909
G01 X53.5678 Y69.1910
G01 X53.4975 Y68.5211
G01 X53.4833 Y68.2215
G01 X53.5046 Y67.8223
G01 X53.5548 Y67.5267
G03 X54.4251 Y65.7389 I5.3047 J1.4764
G01 Z-0.5000 F900
G01 X54.9053 Y65.0490 F1200
G01 X55.1075 Y64.7040
G01 X55.3595 Y64.1599
G01 X55.4254 Y63.9712
G01 X55.5249 Y63.5947
G01 X55.6006 Y63.4097
G01 X55.7457 Y63.1474
G01 X55.9174 Y62.9015
G03 X56.7660 Y62.0573 I3.8728 J3.0439
G01 X57.1713 Y61.7647
G01 X57.9180 Y61.3128
G01 X58.2285 Y61.0614
G02 X58.7459 Y60.2171 I-1.4635 J-1.4777
G02 X58.9840 Y58.9421 I-5.5442 J-1.6948
G01 X59.0392 Y58.0439
G01 X59.0623 Y56.9442
G01 X59.0555 Y55.3222
G01 X59.0017 Y53.8233
G01 X58.9230 Y52.9270
G02 X58.8056 Y52.6026 I-0.4143 J-0.0334
G01 X58.6537 Y52.4728
G01 X58.4886 Y52.3601
G01 X58.0540 Y52.1132
G01 X57.6022 Y51.8990
G01 X56.7041 Y51.5328
G01 X56.0647 Y51.2479
G01 X55.6173 Y51.0247
G01 X55.2182 Y50.7843
G01 X55.0472 Y50.7004
G01 X54.6868 Y50.5786
G01 X54.0997 Y50.5228
G01 X53.6085 Y50.4306
G01 X53.1252 Y50.3028
G01 X52.6493 Y50.1496
G03 X50.5268 Y49.1249 I3.0108 J-8.9468
G03 X48.1399 Y47.1518 I11.7816 J-16.6825
G01 X47.7120 Y46.7312
G01 X47.3000 Y46.2951
G01 X46.9177 Y45.8330
G01 X46.7032 Y45.5024
G01 X46.5690 Y45.3543
G01 X46.3467 Y45.1529
G01 X45.9538 Y44.8439
G01 X45.4631 Y44.4987
G01 X44.2805 Y43.7598
G01 X43.7817 Y43.4264
G01 X43.2165 Y43.0134
G01 X42.6675 Y42.5793
G01 X41.9805 Y41.9978
G01 X41.2356 Y41.3307
G01 X39.0604 Y39.2776
G01 X38.1777 Y38.4648
G01 X37.4234 Y37.8083
G01 X36.7966 Y37.3113
G02 X35.4230 Y36.4983 I-4.0704 J5.3108
G01 X34.7664 Y36.2563
G01 X32.6776 Y35.6152
G01 X32.3119 Y35.4538
G01 X31.7901 Y35.1579
G01 X31.3724 Y34.8832
G01 X30.9674 Y34.5900
G01 X29.6354 Y33.5177
G01 X28.5218 Y32.6693
G01 X26.1954 Y31.0216
G01 X23.2450 Y28.8688
G02 X21.2323 Y27.5651 I-10.8043 J14.4740
G02 X19.5088 Y27.1262 I-1.6458 J2.8595
G01 X19.1105 Y27.1611
G01 X18.6186 Y27.2497
G01 X17.1079 Y27.6395
G01 X16.5216 Y27.7667
G01 X16.0258 Y27.8294
G01 X15.6261 Y27.8322
G01 X15.3282 Y27.7985
G01 X14.9390 Y27.7075
G01 X14.4689 Y27.5378
G01 X13.7623 Y27.2153
G01 X13.4834 Y27.1050
G01 X13.1937 Y27.0283
G01 X12.8954 Y27.0010
G01 X12.5966 Y27.0242
G01 X12.2065 Y27.1116
G01 X11.7316 Y27.2677
G01 X10.9348 Y27.5788
G01 X10.5489 Y27.6820
G03 X9.5891 Y27.5201 I-0.2912 J-1.1996
G03 X9.3634 Y26.8514 I0.4266 J-0.5164
G03 X9.7338 Y25.9459 I1.3451 J0.0218
G03 X10.5082 Y25.5037 I1.3469 J1.4595
G01 X10.9904 Y25.3726
G01 X11.9532 Y25.1900
G01 X12.2382 Y25.0970
G01 X12.5101 Y24.9707
G02 X13.1392 Y24.4167 I-0.9390 J-1.7003
G02 X13.2961 Y23.9578 I-0.4077 J-0.3957
G02 X12.8059 Y22.7123 I-5.4587 J1.4290
G01 X12.3754 Y21.9221
G01 X11.7994 Y20.9851
G01 X11.1808 Y20.0756
G01 X10.5835 Y19.2737
G01 X10.1436 Y18.7293
G01 X8.8896 Y17.2641
G01 X8.2117 Y16.3981
G01 X7.9856 Y16.0682
G01 X7.7872 Y15.7211
G01 X7.6774 Y15.4424
G01 X7.6468 Y15.2454
G03 X7.7966 Y14.8878 I0.4609 J-0.0171
G03 X8.3058 Y14.6199 I0.8770 J1.0489
G03 X9.0277 Y14.8795 I0.1112 J0.8241
G03 X10.4857 Y16.3342 I-7.8908 J9.3668
G01 X10.9270 Y16.8775
G01 X11.3448 Y17.4390
G01 X11.6251 Y17.8531
G01 X12.0695 Y18.5691
G01 X12.4165 Y19.0583
G01 X12.5453 Y19.2112
G01 X12.6902 Y19.3487
G01 X12.7746 Y19.4016
G01 X12.8704 Y19.4034
G01 X12.9172 Y19.3181
G01 X12.9281 Y19.2092
G01 X12.9127 Y19.1106
G01 X12.8450 Y18.9226
G01 X12.5656 Y18.3921
G01 X12.1358 Y17.7175
G01 X11.6746 Y17.0639
G01 X11.1281 Y16.3488
G01 X10.6184 Y15.7323
G01 X9.6802 Y14.6626
G01 X9.4941 Y14.4273
G01 X9.3287 Y14.1773
G03 X9.2238 Y13.3038 I1.1077 J-0.5760
G01 X9.2934 Y12.8536
G01 X9.3611 Y12.5616
G01 X9.4523 Y12.3854
G01 X9.5298 Y12.3232
G03 X11.0097 Y12.5624 I0.5067 J1.5627
G03 X12.7033 Y14.1892 I-6.4990 J8.4605
G01 X13.1372 Y14.7384
G01 X13.5408 Y15.3102
G01 X13.8078 Y15.7329
G01 X14.2503 Y16.4976
G01 X14.5257 Y16.9147
G01 X14.6480 Y17.0729
G01 X14.7859 Y17.2175
G01 X14.9452 Y17.2627
G01 X14.9817 Y17.1715
G01 X14.9794 Y17.0718
G01 X14.9358 Y16.8769
G01 X14.8693 Y16.6883
G01 X14.6159 Y16.1448
G01 X14.2164 Y15.4519
G01 X13.8312 Y14.8675
G01 X13.4782 Y14.3824
G01 X13.1026 Y13.9146
G01 X12.2434 Y12.9199
G01 X12.0023 Y12.6009
G01 X11.9359 Y12.4750
G01 X11.9578 Y12.4054
G01 X12.0747 Y12.2190
G01 X12.3553 Y11.8798
G03 X12.8416 Y11.5425 I0.7914 J0.6216
G01 X13.0396 Y11.5208
G01 X13.2978 Y11.5595
G01 X13.5793 Y11.6621
G01 X13.9287 Y11.8563
G03 X15.3069 Y13.0090 I-5.1552 J7.5643
G03 X16.9641 Y14.8790 I-15.2403 J15.1748
G03 X18.5298 Y17.0771 I-20.2743 J16.0985
G01 X19.0953 Y18.0205
G01 X19.9049 Y19.5176
G01 X20.2164 Y20.0303
G01 X20.4937 Y20.4463
G02 X22.1781 Y22.2823 I7.2259 J-4.9386
G02 X24.7125 Y23.7702 I6.7920 J-8.6666
G01 X25.7242 Y24.2020
G01 X26.8387 Y24.6467
G01 X27.8684 Y25.0336
G01 X29.8796 Y25.7562
G01 X31.8325 Y26.5282
G01 X33.1193 Y27.0795
G01 X35.4469 Y28.1420
G01 X35.8159 Y28.2963
G01 X36.1078 Y28.3869
G01 X36.3700 Y28.5323
G01 X36.6202 Y28.6978
G01 X37.3379 Y29.2405
G01 X38.1797 Y29.9485
G01 X39.0690 Y30.7541
G01 X40.5343 Y32.1491
G01 X41.0599 Y32.6113
G01 X41.5280 Y32.9865
G01 X41.7738 Y33.1584
G01 X41.9480 Y33.2563
G03 X43.3697 Y33.7583 I-0.6536 J4.1148
G03 X45.4086 Y35.0215 I-9.4756 J17.5715
G01 X46.3011 Y35.6643
G01 X47.2513 Y36.3972
G01 X48.2535 Y37.2251
G01 X49.4778 Y38.3074
G01 X50.1656 Y38.8879
G01 X50.9516 Y39.5059
G01 X51.6926 Y40.0213
G01 X51.9974 Y40.2798
G01 X52.1257 Y40.4326
G01 X52.1541 Y40.5268
G01 X52.0939 Y40.6059
G03 X50.9216 Y41.3169 I-4.3778 J-5.8957
G01 X50.6768 Y41.4900
G01 X50.5291 Y41.6246
G01 X50.4420 Y41.7727
G01 X50.4471 Y41.8724
G02 X50.6723 Y41.9841 I0.1530 J-0.0257
G01 X50.8585 Y41.9120
G01 X51.2100 Y41.7215
G01 X52.1607 Y41.1143
G02 X52.7143 Y40.5538 I-0.7418 J-1.2863
G02 X52.5423 Y40.1098 I-0.4951 J-0.0635
G01 X52.3237 Y39.9048
G01 X51.4622 Y39.2035
G01 X51.9760 Y37.3412
G01 X52.2155 Y36.5780
G01 X52.5646 Y35.6411
G01 X52.6867 Y35.3671
G01 X52.8810 Y35.0046
G01 X53.0518 Y34.6430
G01 X53.4148 Y33.7114
G02 X54.4622 Y30.2680 I-49.0521 J-16.8021
G02 X55.1713 Y27.3107 I-29.3918 J-8.6112
G02 X55.3908 Y24.8227 I-16.4847 J-2.7076
G02 X55.1688 Y18.8354 I-83.7140 J0.1053
G02 X54.7847 Y15.4599 I-25.0967 J1.1464
G02 X54.2612 Y13.7405 I-9.3018 J1.8926
G01 X53.9321 Y13.0115
G01 X53.3425 Y11.8858
G01 X53.0817 Y11.3455
G01 X52.7678 Y10.6097
G01 X52.4534 Y9.7665
G01 X52.1494 Y8.8140
G01 X51.9207 Y7.9436
G01 X51.7981 Y7.3563
G01 X51.6611 Y6.4520
G01 X51.5789 Y6.0607
G01 X51.4790 Y5.7785
G01 X51.4161 Y5.7026
G01 X51.3378 Y5.7401
G01 X51.3047 Y5.8342
