(Projekt farnsworth-test-body-front)
(Erstellt mit Estlcam Version 8 Build 8,107)
(Laufzeit ca. 00:01:17 Stunden)

(Benoetigte Werkzeuge:)
(Fraeser 3mm)

G90
M03 S25000
G00 Z5.0000


(Nr. 1: Tasche raeumen: Ausschnitt 1)
G00 X14.7389 Y14.3854 Z5.0000
G00 Z0.5000
G01 Z-0.1000 F900 S25000
G01 X10.6045 F1200
G01 X10.9097
G01 Y17.0854
G01 X16.9176
G03 X18.4979 Y19.7854 I-18.9542 J12.9059
G01 X12.9805
G03 X14.5541 Y22.4854 I-13.3636 J9.5970
G01 X20.3920
G02 X22.3489 Y24.1942 I7.1034 J-6.1600
G02 X24.3860 Y25.1854 I7.7561 J-13.3507
G01 X14.5067
G00 Z5.0000
G00 X24.5767 Y27.8854
G00 Z0.5000
G01 Z-0.1000 F900
G01 X31.3443 F1200
G01 X28.3029
G01 Y30.5854
G01 X36.7765
G01 X37.2085 Y30.9497
G01 X38.1129 Y31.7845
G01 X39.6459 Y33.2854
G01 X31.8918
G02 X32.9820 Y34.0195 I3.1937 J-3.5663
G02 X35.2188 Y34.8114 I8.2511 J-19.7518
G01 X35.8309 Y35.0401
G01 X36.4415 Y35.2898
G03 X37.7872 Y35.9854 I-2.5299 J6.5437
G01 X44.1887
G03 X47.7289 Y38.6854 I-19.6450 J29.4297
G01 X40.8772
G02 X43.8249 Y41.3854 I24.2743 J-23.5417
G01 X81.3635
G02 X79.8952 Y42.8486 I9.0680 J10.5677
G01 X79.6273 Y43.1876
G01 X79.4486 Y43.4619
G01 X79.1846 Y43.9517
G01 X79.0875 Y44.0854
G01 X47.6519
G01 X47.8460 Y44.2712
G01 X48.0197 Y44.4767
G01 X48.2626 Y44.8073
G01 X48.5771 Y45.1692
G01 X48.9443 Y45.5521
G01 X49.4045 Y46.0001
G01 X50.2838 Y46.7854
G01 X76.6707
G01 X75.9297 Y47.2374
G01 X75.4574 Y47.4907
G01 X74.2092 Y48.1175
G01 X73.0005 Y48.7939
G01 X72.1603 Y49.3162
G01 X71.9168 Y49.4854
G01 X56.1440
G01 X57.4257 Y50.1017
G01 X58.5871 Y50.5835
G01 X58.9379 Y50.7591
G01 X59.2885 Y50.9585
G01 X59.8046 Y51.3140
G01 X60.3759 Y51.8297
G01 X60.6331 Y52.1854
G01 X67.7819
G02 X67.8762 Y53.5233 I1.6815 J0.5538
G01 X68.0659 Y53.8285
G01 X68.1827 Y53.9654
G01 X68.3126 Y54.0899
G01 X68.5586 Y54.2694
G01 X69.0400 Y54.8854
G01 X60.8145
G01 X60.8519 Y56.4628
G01 X60.8573 Y57.5854
G01 X70.7250
G01 X70.8795 Y57.9666
G01 X71.0967 Y58.6999
G01 X71.3195 Y59.2567
G02 X71.9889 Y60.2854 I3.9486 J-1.8371
G01 X60.3905
G03 X59.4675 Y62.0132 I-5.0542 J-1.5895
G01 X59.1558 Y62.3322
G01 X58.9205 Y62.5224
G01 X58.6237 Y62.7174
G01 X58.1640 Y62.9854
G01 X74.6558
G01 Y65.6854
G01 X75.6636
G01 X56.3999
G01 X56.1604 Y66.0858
G01 X55.6617 Y66.7958
G01 X55.3886 Y67.2896
G02 X55.1488 Y68.3854 I2.3302 J1.0842
G01 X59.7180
G02 X58.0582 Y69.6885 I2.7021 J5.1503
G02 X57.2629 Y71.0854 I2.8230 J2.5321
G01 X54.7216
G01 X54.5658 Y71.3820
G01 X53.3893 Y73.2649
G01 X53.0897 Y73.7854
G01 X57.3615
G02 X58.1289 Y75.4569 I4.5729 J-1.0875
G02 X59.2554 Y76.4854 I4.1738 J-3.4402
G01 X51.8142
G01 X51.6210 Y77.0280
G01 X51.4681 Y77.5442
G01 X51.3085 Y78.1607
G01 X51.0898 Y79.1854
G01 X64.1281
G01 Y81.8854
G01 X67.0307
G01 X50.8000
G02 X51.7764 Y84.5854 I5.4434 J-0.4420
G01 X62.4372
G00 Z5.0000
G00 X66.7385 Y81.8854
G00 Z0.5000
G01 Z-0.1000
G01 Y79.1854
G01 X70.0676
G00 Z5.0000
G00 X70.2148 Y71.0854
G00 Z0.5000
G01 Z-0.1000 F900
G01 X72.2863 F1200
G01 X72.7249 Y70.8221
G01 X73.3945 Y70.3005
G01 X73.8822 Y69.9554
G01 X74.2114 Y69.7466
G01 X74.6081 Y69.5216
G01 X74.6955 Y69.1094
G01 X74.8113 Y68.3854
G01 X66.8096
G00 Z5.0000
G00 X72.8827 Y41.3854
G00 Z0.5000
G01 Z-0.1000
G01 Y38.6854
G01 X53.3494
G03 X54.3076 Y35.9854 I23.2255 J6.7228
G01 X72.8127
G01 X72.5752
G01 Y33.2854
G01 X55.3762
G01 X55.7463 Y32.0971
G01 X56.1500 Y30.5854
G01 X72.5032
G01 X72.7094 Y30.1262
G01 X72.2055 Y28.6208
G03 X72.1758 Y27.8854 I1.4252 J-0.4260
G01 X56.8704
G02 X57.1998 Y25.1854 I-11.0524 J-2.7188
G01 X73.3553
G01 X73.7542 Y24.2673
G01 X74.0661 Y23.4783
G01 X74.3136 Y22.7895
G01 X74.4072 Y22.4854
G01 X57.1670
G01 X57.0519 Y19.7854
G01 X75.3415
G01 X75.9281 Y18.3135
G01 X76.0820 Y17.8362
G01 X76.2040 Y17.3647
G01 X76.2538 Y17.0854
G01 X56.8321
G02 X56.2965 Y14.3854 I-14.6865 J1.5106
G01 X76.2636
G02 X75.9112 Y12.6505 I-11.7801 J1.4891
G01 X75.7041 Y12.0112
G01 X75.5709 Y11.6854
G01 X55.1687
G03 X54.0345 Y8.9854 I17.5230 J-8.9496
G01 X73.7242
G00 Z5.0000
G00 X87.8055 Y30.5854
G00 Z0.5000
G01 Z-0.1000 F900
G01 X94.4546 F1200
G01 X94.0693 Y30.8007
G01 X93.0661 Y31.2919
G01 X92.2539 Y31.6227
G01 X91.2289 Y31.9365
G01 X90.7483 Y32.1117
G01 X90.1420 Y32.3876
G02 X88.7960 Y33.2854 I3.1836 J6.2305
G01 X83.9459
G02 X80.1621 Y35.9854 I12.0336 J20.8654
G01 X86.2336
G01 X84.4877 Y38.1574
G01 X84.0290 Y38.6854
G01 X76.8278
G00 Z5.0000
G00 X93.0250 Y30.5854
G00 Z0.5000
G01 Z-0.1000
G01 Y27.8854
G01 X98.6099
G00 Z5.0000
G00 X100.3554 Y25.1854
G00 Z0.5000
G01 Z-0.1000 F900
G01 X102.1647 F1200
G00 Z5.0000
G00 X104.8153 Y22.4854
G00 Z0.5000
G01 Z-0.1000 F900
G01 X108.8998 F1200
G03 X109.7599 Y21.1871 I6.4143 J3.3155
G01 X110.2915 Y20.5609
G01 X111.0105 Y19.7854
G01 X106.7565
G03 X109.4125 Y17.0854 I20.4698 J17.4798
G01 X113.3476
G00 Z5.0000
G00 X108.1695 Y22.4854
G00 Z0.5000
G01 Z-0.1000
G01 Y25.1854
G01 X108.8084
G00 Z5.0000


(Nr. 2: Tasche Seitenwand: Ausschnitt 1)
G00 X10.5236 Y13.5944 Z5.0000
G00 Z0.5000
G01 Z-0.1000 F900
G03 X10.0023 Y14.8506 I-2.8948 J-0.4649 F1200
G01 X9.7727 Y15.1232
G01 X9.5219 Y15.3571
G01 X9.2880 Y15.5335
G01 X9.2824 Y15.5515
G01 X9.0049 Y15.4974
G01 X9.2824 Y15.5515
G02 X11.4613 Y18.2051 I34.6051 J-26.1946
G01 X11.9177 Y18.7970
G01 X12.4133 Y19.4822
G03 X14.0448 Y22.1171 I-18.8603 J13.5012
G01 X14.3565 Y22.7798
G01 X14.5289 Y23.2888
G01 X14.5912 Y23.6475
G01 X14.6019 Y23.8148
G03 X13.4057 Y25.8988 I-2.4846 J-0.0408
G01 X10.7994 Y26.6772
G01 X13.4057 Y25.8988
G01 X13.7391 Y25.9479
G01 X14.0338 Y26.0228
G01 X14.4285 Y26.1605
G01 X15.0509 Y26.4138
G01 X15.3875 Y26.5165
G01 X15.8050 Y26.5959
G01 X16.3106 Y26.6285
G01 X16.8363 Y26.5980
G01 X17.3757 Y26.5075
G01 X17.7680 Y26.4080
G01 X18.6478 Y26.1356
G01 X19.1819 Y26.0171
G01 X19.6399 Y25.9644
G01 X20.1326 Y25.9670
G03 X22.1600 Y26.6375 I-0.4486 J4.7573
G03 X24.3911 Y28.1199 I-11.6481 J19.9496
G01 X29.5646 Y31.8706
G01 X30.8688 Y32.8555
G01 X32.0145 Y33.7661
G01 X32.4613 Y34.0773
G01 X32.8519 Y34.2898
G01 X33.2950 Y34.4801
G01 X33.7952 Y34.6594
G01 X35.1181 Y35.0939
G01 X36.3232 Y35.5655
G03 X37.7878 Y36.3521 I-2.3322 J6.0990
G01 X38.4858 Y36.9166
G01 X39.4209 Y37.7398
G01 X40.4728 Y38.7137
G01 X42.2860 Y40.4480
G01 X42.9243 Y41.0238
G01 X43.4955 Y41.5085
G01 X44.0726 Y41.9602
G01 X44.5863 Y42.3255
G01 X45.8529 Y43.1177
G01 X46.4862 Y43.5425
G01 X46.9407 Y43.8754
G01 X47.3240 Y44.1864
G01 X47.5456 Y44.3905
G01 X47.7343 Y44.5990
G01 X48.0287 Y44.9952
G01 X48.3563 Y45.3723
G01 X48.7315 Y45.7636
G01 X49.1986 Y46.2182
G02 X51.4790 Y48.0987 I13.9987 J-14.6527
G02 X52.8931 Y48.8481 I4.2060 J-6.2282
G01 X53.4803 Y49.0358
G01 X54.3000 Y49.2034
G01 X54.7524 Y49.3168
G01 X55.5291 Y49.5603
G01 X56.1191 Y49.7985
G01 X56.7262 Y50.1083
G01 X57.3050 Y50.3763
G01 X58.4598 Y50.8552
G01 X59.0195 Y51.1477
G01 X59.4865 Y51.4493
G01 X59.7067 Y51.6234
G01 X60.1571 Y52.0350
G01 X60.3392 Y52.2728
G03 X60.5610 Y52.9810 I-1.2760 J0.7886
G01 X60.5471 Y53.2802
G01 X60.5179 Y53.4273
G01 X60.5002 Y54.2720
G01 X60.4826 Y53.5473
G01 X60.5520 Y56.4683
G01 X60.5575 Y57.6206
G03 X60.1969 Y59.9505 I-6.7842 J0.1427
G03 X59.2703 Y61.7831 I-5.5151 J-1.6377
G01 X59.0569 Y62.0137
G01 X58.7405 Y62.2824
G01 X58.5184 Y62.4325
G01 X58.0065 Y62.7292
G01 X57.5909 Y63.0425
G01 X57.2166 Y63.4016
G01 X56.9527 Y63.7230
G01 X56.7652 Y64.0369
G01 X56.5233 Y64.7411
G01 X56.3719 Y65.0908
G01 X56.2018 Y65.4328
G01 X55.9125 Y65.9167
G01 X55.4081 Y66.6356
G01 X55.1163 Y67.1638
G01 X54.9539 Y67.5974
G01 X54.8766 Y67.9751
G01 X54.8481 Y68.3922
G01 X54.8628 Y69.1732
G01 X54.8457 Y69.5935
G01 X54.7707 Y70.0911
G01 X54.6757 Y70.4289
G01 X54.4921 Y70.8775
G01 X54.3046 Y71.2344
G01 X53.1328 Y73.1093
G01 X52.5215 Y74.1716
G01 X52.0628 Y75.0773
G01 X51.7000 Y75.9121
G02 X50.5988 Y80.2625 I18.4840 J6.9936
G02 X50.4979 Y81.8738 I8.0136 J1.3105
G01 X50.5407 Y82.3309
G01 X50.6451 Y82.8489
G02 X51.6474 Y84.9234 I5.9182 J-1.5799
G02 X52.9932 Y85.9475 I2.7676 J-2.2407
G01 X53.5942 Y86.1873
G01 X54.3824 Y86.4342
G01 X54.7843 Y86.5246
G01 X55.1617 Y86.5489
G02 X58.9932 Y86.0826 I-1.0142 J-24.3126
G01 X59.6831 Y85.9006
G01 X60.4722 Y85.6465
G01 X61.5739 Y85.2444
G01 X62.6566 Y84.8230
G01 X63.4225 Y84.4952
G01 X63.9038 Y84.2544
G03 X64.8361 Y83.3645 I1.8152 J0.9684
G01 X65.2778 Y83.1740
G01 X66.1619 Y82.9219
G01 X66.5447 Y82.7959
G01 X66.8010 Y82.6905
G01 X67.0309 Y82.5613
G03 X68.0860 Y81.2593 I2.3032 J0.7880
G03 X69.7904 Y80.6140 I3.3572 J6.2938
G01 X69.9089 Y80.1945
G01 X70.0307 Y79.8552
G03 X70.5931 Y79.0081 I2.4855 J1.0399
G01 X70.8505 Y78.7758
G01 X71.2492 Y78.4735
G01 X71.8246 Y78.4788
G01 X71.2492 Y78.4735
G01 X71.1508 Y78.5470
G01 X70.1638 Y77.9162
G01 X69.1919 Y77.2219
G01 X69.2147 Y76.9083
G01 X69.1919 Y77.2219
G01 X68.7503 Y77.6398
G01 X68.2745 Y78.0564
G01 X67.8323 Y78.3941
G01 X67.3780 Y78.6547
G03 X66.0080 Y78.9938 I-1.5923 J-3.4960
G03 X64.5647 Y78.9764 I-0.6612 J-5.0244
G03 X63.0370 Y78.4365 I1.0095 J-5.2878
G03 X60.1224 Y76.7417 I10.9540 J-22.1911
G03 X58.3685 Y75.2762 I3.9384 J-6.4960
G03 X57.5494 Y73.3040 I4.3594 J-2.9667
G01 X57.4601 Y72.7956
G01 X57.4195 Y72.3860
G03 X57.5225 Y71.2501 I3.1563 J-0.2866
G03 X58.6892 Y69.4711 I3.7743 J1.2034
G03 X60.2394 Y68.4554 I4.1097 J4.5812
G03 X61.7817 Y67.9258 I4.1980 J9.7153
G03 X64.2054 Y67.9411 I1.1860 J4.1012
G03 X67.2146 Y68.8515 I-4.6936 J20.9412
G03 X68.7084 Y69.6835 I-2.0610 J5.4574
G03 X70.0642 Y71.4688 I-2.6514 J3.4210
G01 X70.2727 Y72.0551
G01 X70.0909 Y72.3727
G01 X69.9965 Y72.4764
G01 X70.0909 Y72.3727
G01 X70.2727 Y72.0551
G02 X72.3113 Y71.4108 I-1.1835 J-7.2916
G01 X72.6504 Y71.2265
G01 X72.8965 Y71.0682
G01 X73.5741 Y70.5407
G01 X74.1495 Y70.1387
G01 X74.4844 Y69.9348
G01 X74.8521 Y69.7552
G01 X74.9759 Y69.2436
G01 X75.1801 Y67.9996
G01 X75.3407 Y67.3055
G03 X76.2839 Y65.2352 I6.6242 J1.7681
G03 X78.5237 Y62.7381 I12.6358 J9.0807
G01 X79.6435 Y62.3968
G01 X78.5237 Y62.7381
G01 X77.7121 Y62.9550
G01 X77.0688 Y63.0732
G01 X76.4987 Y63.1145
G03 X74.3873 Y62.4524 I-0.1643 J-3.1733
G01 X74.0724 Y62.1573
G01 X73.8892 Y61.9354
G01 X73.6802 Y61.6314
G01 X73.4646 Y61.3719
G01 X73.1144 Y60.9955
G01 X72.3500 Y60.2446
G01 X72.0740 Y59.9186
G01 X71.8957 Y59.6709
G01 X71.6579 Y59.2653
G01 X71.4751 Y58.8605
G01 X71.3400 Y58.4796
G01 X71.1641 Y57.8717
G01 X70.9983 Y57.4552
G01 X70.7338 Y56.9216
G01 X70.4235 Y56.3773
G01 X69.8233 Y55.4505
G01 X69.1615 Y54.5471
G01 X68.7513 Y54.0342
G03 X68.2182 Y53.5222 I0.7374 J-1.3015
G03 X68.2922 Y51.8299 I1.2738 J-0.7921
G03 X68.8707 Y51.3649 I1.1998 J0.9002
G02 X71.0352 Y50.4236 I-3.8533 J-11.8204
G01 X71.5443 Y50.1124
G01 X72.4189 Y49.5054
G01 X73.1532 Y49.0521
G01 X74.2563 Y48.4322
G01 X75.5944 Y47.7576
G01 X76.1547 Y47.4550
G01 X76.7643 Y47.0868
G01 X77.2421 Y46.7439
G01 X78.2115 Y45.6631
G01 X78.9960 Y44.7213
G01 X79.4376 Y44.1129
G01 X79.7101 Y43.6089
G01 X79.8702 Y43.3638
G01 X80.1245 Y43.0421
G01 X80.3612 Y42.7733
G01 X80.7507 Y42.3655
G01 X81.1430 Y41.9833
G01 X82.1326 Y41.1021
G01 X82.6005 Y40.6610
G01 X83.1321 Y40.1255
G01 X83.7191 Y39.4993
G01 X84.7192 Y38.3483
G01 X86.0213 Y36.7156
G01 X86.8041 Y35.7643
G01 X87.4215 Y35.0513
G03 X89.3090 Y33.2596 I9.6634 J8.2900
G01 X89.7219 Y32.9749
G01 X90.2789 Y32.6545
G01 X90.8600 Y32.3901
G01 X91.3231 Y32.2213
G01 X92.3546 Y31.9053
G01 X92.7682 Y31.7465
G01 X93.2736 Y31.5272
G01 X94.2937 Y31.0216
G01 X95.4759 Y30.3554
G01 X96.8872 Y29.4693
G01 X98.3449 Y28.4599
G01 X99.3708 Y27.6912
G01 X101.1392 Y26.2787
G01 X101.8381 Y25.7508
G01 X102.3980 Y25.3929
G03 X103.7949 Y24.9808 I1.5494 J2.6789
G03 X106.2547 Y25.1596 I0.1718 J14.6496
G03 X109.6028 Y25.8113 I-4.3757 J31.4047
G01 X111.3260 Y26.7712
G01 X109.6028 Y25.8113
G01 X109.2915 Y25.4254
G03 X108.8852 Y23.4194 I2.0905 J-1.4675
G03 X109.4915 Y22.0543 I3.9759 J0.9485
G01 X109.8523 Y21.5541
G01 X110.3744 Y20.9215
G03 X113.7482 Y17.6576 I20.7175 J18.0395
G01 X113.6785 Y17.1799
G01 X113.5536 Y16.5341
G03 X112.2175 Y16.2661 I0.0978 J-3.9521
G03 X111.4387 Y15.6288 I0.6860 J-1.6327
G02 X110.3752 Y15.9241 I0.1262 J2.5174
G02 X108.8106 Y17.2220 I5.3228 J8.0090
G01 X107.7212 Y18.3018
G01 X106.6063 Y19.5023
G01 X105.6161 Y20.6648
G01 X105.2152 Y21.1770
G01 X104.9057 Y21.6055
G01 X104.6626 Y21.9973
G03 X104.1912 Y23.0209 I-2.9321 J-0.7301
G03 X103.5092 Y23.6355 I-2.0288 J-1.5657
G01 X103.0791 Y23.8628
G01 X102.4193 Y24.1307
G01 X99.6105 Y25.1326
G01 X96.3064 Y26.3494
G01 X94.0268 Y27.1529
G01 X93.5217 Y27.3466
G02 X89.1800 Y29.4523 I17.9700 J42.5811
G01 X87.8318 Y30.2143
G01 X86.7923 Y30.8583
G01 X86.3021 Y31.2018
G01 X85.6310 Y31.7596
G01 X84.8421 Y32.3315
G01 X83.9711 Y32.9141
G01 X82.4328 Y33.8902
G01 X81.4194 Y34.5882
G01 X81.0772 Y34.8471
G01 X79.9114 Y35.8031
G01 X78.3607 Y36.9839
G01 X77.6932 Y37.5143
G01 X76.9232 Y38.1764
G01 X76.1384 Y38.9345
G01 X75.7885 Y39.2036
G03 X74.2812 Y39.5222 I-1.1072 J-1.5134
G03 X72.9970 Y38.0443 I0.4386 J-1.6780
G03 X73.0740 Y36.2359 I6.2362 J-0.6402
G03 X73.5995 Y34.0436 I11.4696 J1.5899
G03 X72.5927 Y32.4836 I1.6423 J-2.1648
G03 X72.5890 Y31.3360 I2.7386 J-0.5826
G03 X73.0266 Y30.1396 I5.1642 J1.2105
G01 X72.4956 Y28.5441
G01 X72.4645 Y28.3974
G01 X72.4470 Y28.0985
G01 X72.4892 Y27.8019
G01 X72.5894 Y27.5197
G02 X74.3467 Y23.5845 I-35.2525 J-18.1013
G01 X74.5980 Y22.8850
G01 X74.9101 Y21.8709
G01 X75.2512 Y20.8787
G01 X75.6166 Y19.9055
G01 X76.2111 Y18.4131
G02 X76.6133 Y16.7762 I-7.4162 J-2.6899
G02 X76.3714 Y13.2513 I-10.5985 J-1.0432
G02 X75.0700 Y10.1016 I-8.6110 J1.7141
G02 X73.9830 Y8.8170 I-6.6791 J4.5496
G01 X72.7730 Y7.7500
G01 X72.1256 Y7.1307
G02 X62.3145 Y7.0219 I-7.1079 J198.6010
G01 X56.0176 Y7.0368
G01 X54.2173 Y7.0589
G01 X53.1992 Y7.0901
G02 X53.8661 Y9.4226 I15.9901 J-3.3096
G01 X54.1313 Y10.1216
G01 X54.4199 Y10.8083
G01 X54.6918 Y11.3946
G01 X55.3107 Y12.6514
G01 X55.7002 Y13.5680
G03 X56.3242 Y15.7370 I-11.8980 J4.5973
G03 X56.7430 Y19.6195 I-27.8471 J4.9674
G03 X56.8875 Y25.6512 I-65.7249 J4.5917
G03 X56.6047 Y27.7123 I-10.5675 J-0.3999
G01 X55.4873 Y31.9124
G01 X55.1823 Y32.9169
G01 X54.8454 Y33.9108
G01 X54.4993 Y34.8173
G01 X54.0174 Y35.8980
G01 X53.6713 Y36.7690
G01 X53.3604 Y37.6517
G01 X52.9332 Y39.0175
G01 X52.6606 Y39.7236
G01 X52.5062 Y40.0086
G01 X52.2682 Y40.3027
G03 X51.1916 Y40.7563 I-1.0747 J-1.0465
G03 X50.0110 Y40.2663 I0.0711 J-1.8385
G01 X49.5755 Y39.9108
G01 X47.9712 Y38.4970
G01 X46.9338 Y37.6296
G01 X45.8721 Y36.8000
G01 X44.8670 Y36.0730
G01 X43.9273 Y35.4542
G01 X43.1454 Y34.9994
G01 X42.4787 Y34.6800
G01 X41.8563 Y34.4706
G01 X41.5788 Y34.3524
G01 X41.1729 Y34.1295
G01 X40.8301 Y33.8982
G01 X40.4400 Y33.5933
G01 X39.9288 Y33.1428
G01 X38.3897 Y31.6343
G01 X37.4779 Y30.7877
G01 X36.7970 Y30.2106
G01 X36.4345 Y29.9724
G02 X31.4638 Y27.6092 I-25.6720 J47.5897
G01 X29.6616 Y26.8789
G01 X27.7657 Y26.1934
G01 X26.1519 Y25.5787
G01 X24.9211 Y25.0867
G01 X23.9446 Y24.6736
G03 X22.0835 Y23.6519 I3.5614 J-8.6925
G03 X19.6929 Y21.1694 I7.5791 J-9.6913
G01 X19.3687 Y20.7037
G01 X19.0602 Y20.2104
G01 X18.2640 Y18.6972
G01 X17.5966 Y17.5635
G01 X16.8671 Y16.4688
G01 X16.4808 Y15.9400
G01 X16.0806 Y15.4268
G02 X13.5979 Y13.0425 I-9.3072 J7.2069
G01 X13.3051 Y12.8618
G03 X11.8961 Y13.7936 I-2.0227 J-1.5273
G01 X11.5983 Y13.8250
G01 X11.2865 Y13.8116
G01 X10.9244 Y13.7268
G01 X10.6100 Y13.5977
G01 X10.6573 Y13.6132
G01 X10.5236 Y13.5944
G00 Z5.0000
G00 X0.0000 Y0.0000

M05
M30
