(Projekt farnsworth-test-glasses-outline)
(Erstellt mit Estlcam Version 8 Build 8,107)
(Laufzeit ca. 00:01:25 Stunden)

(Benoetigte Werkzeuge:)
(Gravierer 0.5)

G90
M03 S12000
G00 Z5.0000


(Nr. 1: Gravur 5)
G00 X63.7333 Y69.5701
G00 Z0.5000
G01 Z-0.1000 F900 S12000
G01 X64.8247 Y69.8953 F1200
G01 X64.8885 Y69.9279
G01 X64.9010 Y69.9925
G01 X64.8039 Y70.0976
G01 X64.6834 Y70.1780
G01 X64.0725 Y70.4984
G01 X63.7301 Y70.7049
G01 X63.4075 Y70.9412
G01 X63.1817 Y71.1386
G02 X61.8646 Y72.8929 I5.2514 J5.3141
G02 X61.6849 Y73.9638 I1.7686 J0.8472
G01 X61.7314 Y74.2600
G01 X61.8027 Y74.5514
G01 X62.1053 Y75.4785
G01 X62.2157 Y75.8629
G01 X62.2450 Y76.0192
G01 X62.1553 Y76.0211
G03 X60.6784 Y75.1128 I4.1464 J-8.3972
G03 X59.7289 Y74.2310 I2.6733 J-3.8306
G03 X59.2000 Y73.1620 I2.4910 J-1.8978
G01 X59.1016 Y72.7743
G01 X59.0024 Y72.2277
G01 X58.9893 Y72.0283
G01 X59.0146 Y71.8306
G01 X59.0921 Y71.6469
G01 X59.2705 Y71.4063
G01 X59.5462 Y71.1166
G01 X59.9804 Y70.7010
G03 X61.2176 Y69.8616 I3.5796 J3.9445
G03 X63.7333 Y69.5701 I1.6292 J3.0582
G01 Z-0.2000 F900
G01 X64.8247 Y69.8953 F1200
G01 X64.8885 Y69.9279
G01 X64.9010 Y69.9925
G01 X64.8039 Y70.0976
G01 X64.6834 Y70.1780
G01 X64.0725 Y70.4984
G01 X63.7301 Y70.7049
G01 X63.4075 Y70.9412
G01 X63.1817 Y71.1386
G02 X61.8646 Y72.8929 I5.2514 J5.3141
G02 X61.6849 Y73.9638 I1.7686 J0.8472
G01 X61.7314 Y74.2600
G01 X61.8027 Y74.5514
G01 X62.1053 Y75.4785
G01 X62.2157 Y75.8629
G01 X62.2450 Y76.0192
G01 X62.1553 Y76.0211
G03 X60.6784 Y75.1128 I4.1464 J-8.3972
G03 X59.7289 Y74.2310 I2.6733 J-3.8306
G03 X59.2000 Y73.1620 I2.4910 J-1.8978
G01 X59.1016 Y72.7743
G01 X59.0024 Y72.2277
G01 X58.9893 Y72.0283
G01 X59.0146 Y71.8306
G01 X59.0921 Y71.6469
G01 X59.2705 Y71.4063
G01 X59.5462 Y71.1166
G01 X59.9804 Y70.7010
G03 X61.2176 Y69.8616 I3.5796 J3.9445
G03 X63.7333 Y69.5701 I1.6292 J3.0582
G01 Z-0.3000 F900
G01 X64.8247 Y69.8953 F1200
G01 X64.8885 Y69.9279
G01 X64.9010 Y69.9925
G01 X64.8039 Y70.0976
G01 X64.6834 Y70.1780
G01 X64.0725 Y70.4984
G01 X63.7301 Y70.7049
G01 X63.4075 Y70.9412
G01 X63.1817 Y71.1386
G02 X61.8646 Y72.8929 I5.2514 J5.3141
G02 X61.6849 Y73.9638 I1.7686 J0.8472
G01 X61.7314 Y74.2600
G01 X61.8027 Y74.5514
G01 X62.1053 Y75.4785
G01 X62.2157 Y75.8629
G01 X62.2450 Y76.0192
G01 X62.1553 Y76.0211
G03 X60.6784 Y75.1128 I4.1464 J-8.3972
G03 X59.7289 Y74.2310 I2.6733 J-3.8306
G03 X59.2000 Y73.1620 I2.4910 J-1.8978
G01 X59.1016 Y72.7743
G01 X59.0024 Y72.2277
G01 X58.9893 Y72.0283
G01 X59.0146 Y71.8306
G01 X59.0921 Y71.6469
G01 X59.2705 Y71.4063
G01 X59.5462 Y71.1166
G01 X59.9804 Y70.7010
G03 X61.2176 Y69.8616 I3.5796 J3.9445
G03 X63.7333 Y69.5701 I1.6292 J3.0582
G01 Z-0.4000 F900
G01 X64.8247 Y69.8953 F1200
G01 X64.8885 Y69.9279
G01 X64.9010 Y69.9925
G01 X64.8039 Y70.0976
G01 X64.6834 Y70.1780
G01 X64.0725 Y70.4984
G01 X63.7301 Y70.7049
G01 X63.4075 Y70.9412
G01 X63.1817 Y71.1386
G02 X61.8646 Y72.8929 I5.2514 J5.3141
G02 X61.6849 Y73.9638 I1.7686 J0.8472
G01 X61.7314 Y74.2600
G01 X61.8027 Y74.5514
G01 X62.1053 Y75.4785
G01 X62.2157 Y75.8629
G01 X62.2450 Y76.0192
G01 X62.1553 Y76.0211
G03 X60.6784 Y75.1128 I4.1464 J-8.3972
G03 X59.7289 Y74.2310 I2.6733 J-3.8306
G03 X59.2000 Y73.1620 I2.4910 J-1.8978
G01 X59.1016 Y72.7743
G01 X59.0024 Y72.2277
G01 X58.9893 Y72.0283
G01 X59.0146 Y71.8306
G01 X59.0921 Y71.6469
G01 X59.2705 Y71.4063
G01 X59.5462 Y71.1166
G01 X59.9804 Y70.7010
G03 X61.2176 Y69.8616 I3.5796 J3.9445
G03 X63.7333 Y69.5701 I1.6292 J3.0582
G01 Z-0.5000 F900
G01 X64.8247 Y69.8953 F1200
G01 X64.8885 Y69.9279
G01 X64.9010 Y69.9925
G01 X64.8039 Y70.0976
G01 X64.6834 Y70.1780
G01 X64.0725 Y70.4984
G01 X63.7301 Y70.7049
G01 X63.4075 Y70.9412
G01 X63.1817 Y71.1386
G02 X61.8646 Y72.8929 I5.2514 J5.3141
G02 X61.6849 Y73.9638 I1.7686 J0.8472
G01 X61.7314 Y74.2600
G01 X61.8027 Y74.5514
G01 X62.1053 Y75.4785
G01 X62.2157 Y75.8629
G01 X62.2450 Y76.0192
G01 X62.1553 Y76.0211
G03 X60.6784 Y75.1128 I4.1464 J-8.3972
G03 X59.7289 Y74.2310 I2.6733 J-3.8306
G03 X59.2000 Y73.1620 I2.4910 J-1.8978
G01 X59.1016 Y72.7743
G01 X59.0024 Y72.2277
G01 X58.9893 Y72.0283
G01 X59.0146 Y71.8306
G01 X59.0921 Y71.6469
G01 X59.2705 Y71.4063
G01 X59.5462 Y71.1166
G01 X59.9804 Y70.7010
G03 X61.2176 Y69.8616 I3.5796 J3.9445
G03 X63.7333 Y69.5701 I1.6292 J3.0582
G01 Z-0.6000 F900
G01 X64.8247 Y69.8953 F1200
G01 X64.8885 Y69.9279
G01 X64.9010 Y69.9925
G01 X64.8039 Y70.0976
G01 X64.6834 Y70.1780
G01 X64.0725 Y70.4984
G01 X63.7301 Y70.7049
G01 X63.4075 Y70.9412
G01 X63.1817 Y71.1386
G02 X61.8646 Y72.8929 I5.2514 J5.3141
G02 X61.6849 Y73.9638 I1.7686 J0.8472
G01 X61.7314 Y74.2600
G01 X61.8027 Y74.5514
G01 X62.1053 Y75.4785
G01 X62.2157 Y75.8629
G01 X62.2450 Y76.0192
G01 X62.1553 Y76.0211
G03 X60.6784 Y75.1128 I4.1464 J-8.3972
G03 X59.7289 Y74.2310 I2.6733 J-3.8306
G03 X59.2000 Y73.1620 I2.4910 J-1.8978
G01 X59.1016 Y72.7743
G01 X59.0024 Y72.2277
G01 X58.9893 Y72.0283
G01 X59.0146 Y71.8306
G01 X59.0921 Y71.6469
G01 X59.2705 Y71.4063
G01 X59.5462 Y71.1166
G01 X59.9804 Y70.7010
G03 X61.2176 Y69.8616 I3.5796 J3.9445
G03 X63.7333 Y69.5701 I1.6292 J3.0582
G01 Z-0.7000 F900
G01 X64.8247 Y69.8953 F1200
G01 X64.8885 Y69.9279
G01 X64.9010 Y69.9925
G01 X64.8039 Y70.0976
G01 X64.6834 Y70.1780
G01 X64.0725 Y70.4984
G01 X63.7301 Y70.7049
G01 X63.4075 Y70.9412
G01 X63.1817 Y71.1386
G02 X61.8646 Y72.8929 I5.2514 J5.3141
G02 X61.6849 Y73.9638 I1.7686 J0.8472
G01 X61.7314 Y74.2600
G01 X61.8027 Y74.5514
G01 X62.1053 Y75.4785
G01 X62.2157 Y75.8629
G01 X62.2450 Y76.0192
G01 X62.1553 Y76.0211
G03 X60.6784 Y75.1128 I4.1464 J-8.3972
G03 X59.7289 Y74.2310 I2.6733 J-3.8306
G03 X59.2000 Y73.1620 I2.4910 J-1.8978
G01 X59.1016 Y72.7743
G01 X59.0024 Y72.2277
G01 X58.9893 Y72.0283
G01 X59.0146 Y71.8306
G01 X59.0921 Y71.6469
G01 X59.2705 Y71.4063
G01 X59.5462 Y71.1166
G01 X59.9804 Y70.7010
G03 X61.2176 Y69.8616 I3.5796 J3.9445
G03 X63.7333 Y69.5701 I1.6292 J3.0582
G01 Z-0.8000 F900
G01 X64.8247 Y69.8953 F1200
G01 X64.8885 Y69.9279
G01 X64.9010 Y69.9925
G01 X64.8039 Y70.0976
G01 X64.6834 Y70.1780
G01 X64.0725 Y70.4984
G01 X63.7301 Y70.7049
G01 X63.4075 Y70.9412
G01 X63.1817 Y71.1386
G02 X61.8646 Y72.8929 I5.2514 J5.3141
G02 X61.6849 Y73.9638 I1.7686 J0.8472
G01 X61.7314 Y74.2600
G01 X61.8027 Y74.5514
G01 X62.1053 Y75.4785
G01 X62.2157 Y75.8629
G01 X62.2450 Y76.0192
G01 X62.1553 Y76.0211
G03 X60.6784 Y75.1128 I4.1464 J-8.3972
G03 X59.7289 Y74.2310 I2.6733 J-3.8306
G03 X59.2000 Y73.1620 I2.4910 J-1.8978
G01 X59.1016 Y72.7743
G01 X59.0024 Y72.2277
G01 X58.9893 Y72.0283
G01 X59.0146 Y71.8306
G01 X59.0921 Y71.6469
G01 X59.2705 Y71.4063
G01 X59.5462 Y71.1166
G01 X59.9804 Y70.7010
G03 X61.2176 Y69.8616 I3.5796 J3.9445
G03 X63.7333 Y69.5701 I1.6292 J3.0582
G01 Z-0.9000 F900
G01 X64.8247 Y69.8953 F1200
G01 X64.8885 Y69.9279
G01 X64.9010 Y69.9925
G01 X64.8039 Y70.0976
G01 X64.6834 Y70.1780
G01 X64.0725 Y70.4984
G01 X63.7301 Y70.7049
G01 X63.4075 Y70.9412
G01 X63.1817 Y71.1386
G02 X61.8646 Y72.8929 I5.2514 J5.3141
G02 X61.6849 Y73.9638 I1.7686 J0.8472
G01 X61.7314 Y74.2600
G01 X61.8027 Y74.5514
G01 X62.1053 Y75.4785
G01 X62.2157 Y75.8629
G01 X62.2450 Y76.0192
G01 X62.1553 Y76.0211
G03 X60.6784 Y75.1128 I4.1464 J-8.3972
G03 X59.7289 Y74.2310 I2.6733 J-3.8306
G03 X59.2000 Y73.1620 I2.4910 J-1.8978
G01 X59.1016 Y72.7743
G01 X59.0024 Y72.2277
G01 X58.9893 Y72.0283
G01 X59.0146 Y71.8306
G01 X59.0921 Y71.6469
G01 X59.2705 Y71.4063
G01 X59.5462 Y71.1166
G01 X59.9804 Y70.7010
G03 X61.2176 Y69.8616 I3.5796 J3.9445
G03 X63.7333 Y69.5701 I1.6292 J3.0582
G01 Z-1.0000 F900
G01 X64.8247 Y69.8953 F1200
G01 X64.8885 Y69.9279
G01 X64.9010 Y69.9925
G01 X64.8039 Y70.0976
G01 X64.6834 Y70.1780
G01 X64.0725 Y70.4984
G01 X63.7301 Y70.7049
G01 X63.4075 Y70.9412
G01 X63.1817 Y71.1386
G02 X61.8646 Y72.8929 I5.2514 J5.3141
G02 X61.6849 Y73.9638 I1.7686 J0.8472
G01 X61.7314 Y74.2600
G01 X61.8027 Y74.5514
G01 X62.1053 Y75.4785
G01 X62.2157 Y75.8629
G01 X62.2450 Y76.0192
G01 X62.1553 Y76.0211
G03 X60.6784 Y75.1128 I4.1464 J-8.3972
G03 X59.7289 Y74.2310 I2.6733 J-3.8306
G03 X59.2000 Y73.1620 I2.4910 J-1.8978
G01 X59.1016 Y72.7743
G01 X59.0024 Y72.2277
G01 X58.9893 Y72.0283
G01 X59.0146 Y71.8306
G01 X59.0921 Y71.6469
G01 X59.2705 Y71.4063
G01 X59.5462 Y71.1166
G01 X59.9804 Y70.7010
G03 X61.2176 Y69.8616 I3.5796 J3.9445
G03 X63.7333 Y69.5701 I1.6292 J3.0582
G00 Z5.0000


(Nr. 2: Gravur 4)
G00 X65.4349 Y74.2304 Z5.0000
G00 Z0.5000
G01 Z-0.1000 F900
G01 X65.0828 Y73.7477 F1200
G01 X64.8247 Y73.4422
G02 X64.4989 Y73.2428 I-0.3929 J0.2759
G01 X64.4437 Y73.3212
G01 X64.4279 Y73.4556
G01 X64.4744 Y73.6491
G01 X64.5577 Y73.8308
G02 X65.3193 Y74.8800 I4.5911 J-2.5317
G01 X65.4619 Y75.0202
G01 X65.6183 Y75.1444
G02 X65.9541 Y75.1675 I0.1871 J-0.2691
G01 X65.9673 Y75.0735
G01 X65.8826 Y74.8931
G01 X65.4349 Y74.2304
G01 Z-0.2000 F900
G01 X65.0828 Y73.7477 F1200
G01 X64.8247 Y73.4422
G02 X64.4989 Y73.2428 I-0.3929 J0.2759
G01 X64.4437 Y73.3212
G01 X64.4279 Y73.4556
G01 X64.4744 Y73.6491
G01 X64.5577 Y73.8308
G02 X65.3193 Y74.8800 I4.5911 J-2.5317
G01 X65.4619 Y75.0202
G01 X65.6183 Y75.1444
G02 X65.9541 Y75.1675 I0.1871 J-0.2691
G01 X65.9673 Y75.0735
G01 X65.8826 Y74.8931
G01 X65.4349 Y74.2304
G01 Z-0.3000 F900
G01 X65.0828 Y73.7477 F1200
G01 X64.8247 Y73.4422
G02 X64.4989 Y73.2428 I-0.3929 J0.2759
G01 X64.4437 Y73.3212
G01 X64.4279 Y73.4556
G01 X64.4744 Y73.6491
G01 X64.5577 Y73.8308
G02 X65.3193 Y74.8800 I4.5911 J-2.5317
G01 X65.4619 Y75.0202
G01 X65.6183 Y75.1444
G02 X65.9541 Y75.1675 I0.1871 J-0.2691
G01 X65.9673 Y75.0735
G01 X65.8826 Y74.8931
G01 X65.4349 Y74.2304
G01 Z-0.4000 F900
G01 X65.0828 Y73.7477 F1200
G01 X64.8247 Y73.4422
G02 X64.4989 Y73.2428 I-0.3929 J0.2759
G01 X64.4437 Y73.3212
G01 X64.4279 Y73.4556
G01 X64.4744 Y73.6491
G01 X64.5577 Y73.8308
G02 X65.3193 Y74.8800 I4.5911 J-2.5317
G01 X65.4619 Y75.0202
G01 X65.6183 Y75.1444
G02 X65.9541 Y75.1675 I0.1871 J-0.2691
G01 X65.9673 Y75.0735
G01 X65.8826 Y74.8931
G01 X65.4349 Y74.2304
G01 Z-0.5000 F900
G01 X65.0828 Y73.7477 F1200
G01 X64.8247 Y73.4422
G02 X64.4989 Y73.2428 I-0.3929 J0.2759
G01 X64.4437 Y73.3212
G01 X64.4279 Y73.4556
G01 X64.4744 Y73.6491
G01 X64.5577 Y73.8308
G02 X65.3193 Y74.8800 I4.5911 J-2.5317
G01 X65.4619 Y75.0202
G01 X65.6183 Y75.1444
G02 X65.9541 Y75.1675 I0.1871 J-0.2691
G01 X65.9673 Y75.0735
G01 X65.8826 Y74.8931
G01 X65.4349 Y74.2304
G01 Z-0.6000 F900
G01 X65.0828 Y73.7477 F1200
G01 X64.8247 Y73.4422
G02 X64.4989 Y73.2428 I-0.3929 J0.2759
G01 X64.4437 Y73.3212
G01 X64.4279 Y73.4556
G01 X64.4744 Y73.6491
G01 X64.5577 Y73.8308
G02 X65.3193 Y74.8800 I4.5911 J-2.5317
G01 X65.4619 Y75.0202
G01 X65.6183 Y75.1444
G02 X65.9541 Y75.1675 I0.1871 J-0.2691
G01 X65.9673 Y75.0735
G01 X65.8826 Y74.8931
G01 X65.4349 Y74.2304
G01 Z-0.7000 F900
G01 X65.0828 Y73.7477 F1200
G01 X64.8247 Y73.4422
G02 X64.4989 Y73.2428 I-0.3929 J0.2759
G01 X64.4437 Y73.3212
G01 X64.4279 Y73.4556
G01 X64.4744 Y73.6491
G01 X64.5577 Y73.8308
G02 X65.3193 Y74.8800 I4.5911 J-2.5317
G01 X65.4619 Y75.0202
G01 X65.6183 Y75.1444
G02 X65.9541 Y75.1675 I0.1871 J-0.2691
G01 X65.9673 Y75.0735
G01 X65.8826 Y74.8931
G01 X65.4349 Y74.2304
G01 Z-0.8000 F900
G01 X65.0828 Y73.7477 F1200
G01 X64.8247 Y73.4422
G02 X64.4989 Y73.2428 I-0.3929 J0.2759
G01 X64.4437 Y73.3212
G01 X64.4279 Y73.4556
G01 X64.4744 Y73.6491
G01 X64.5577 Y73.8308
G02 X65.3193 Y74.8800 I4.5911 J-2.5317
G01 X65.4619 Y75.0202
G01 X65.6183 Y75.1444
G02 X65.9541 Y75.1675 I0.1871 J-0.2691
G01 X65.9673 Y75.0735
G01 X65.8826 Y74.8931
G01 X65.4349 Y74.2304
G01 Z-0.9000 F900
G01 X65.0828 Y73.7477 F1200
G01 X64.8247 Y73.4422
G02 X64.4989 Y73.2428 I-0.3929 J0.2759
G01 X64.4437 Y73.3212
G01 X64.4279 Y73.4556
G01 X64.4744 Y73.6491
G01 X64.5577 Y73.8308
G02 X65.3193 Y74.8800 I4.5911 J-2.5317
G01 X65.4619 Y75.0202
G01 X65.6183 Y75.1444
G02 X65.9541 Y75.1675 I0.1871 J-0.2691
G01 X65.9673 Y75.0735
G01 X65.8826 Y74.8931
G01 X65.4349 Y74.2304
G01 Z-1.0000 F900
G01 X65.0828 Y73.7477 F1200
G01 X64.8247 Y73.4422
G02 X64.4989 Y73.2428 I-0.3929 J0.2759
G01 X64.4437 Y73.3212
G01 X64.4279 Y73.4556
G01 X64.4744 Y73.6491
G01 X64.5577 Y73.8308
G02 X65.3193 Y74.8800 I4.5911 J-2.5317
G01 X65.4619 Y75.0202
G01 X65.6183 Y75.1444
G02 X65.9541 Y75.1675 I0.1871 J-0.2691
G01 X65.9673 Y75.0735
G01 X65.8826 Y74.8931
G01 X65.4349 Y74.2304
G00 Z5.0000


(Nr. 3: Gravur 3)
G00 X67.0125 Y73.7341 Z5.0000
G00 Z0.5000
G01 Z-0.1000 F900
G01 X66.7105 Y73.2158 F1200
G01 X66.1096 Y72.3111
G02 X65.7144 Y71.8686 I-1.0713 J0.5591
G02 X65.5496 Y72.2214 I0.0204 J0.2244
G02 X66.3497 Y73.6037 I7.7439 J-3.5592
G01 X66.7713 Y74.1622
G01 X66.9075 Y74.3084
G01 X67.0571 Y74.4065
G02 X67.1951 Y74.1976 I-0.0046 J-0.1530
G01 X67.1383 Y74.0063
G01 X67.0125 Y73.7341
G01 Z-0.2000 F900
G01 X66.7105 Y73.2158 F1200
G01 X66.1096 Y72.3111
G02 X65.7144 Y71.8686 I-1.0713 J0.5591
G02 X65.5496 Y72.2214 I0.0204 J0.2244
G02 X66.3497 Y73.6037 I7.7439 J-3.5592
G01 X66.7713 Y74.1622
G01 X66.9075 Y74.3084
G01 X67.0571 Y74.4065
G02 X67.1951 Y74.1976 I-0.0046 J-0.1530
G01 X67.1383 Y74.0063
G01 X67.0125 Y73.7341
G01 Z-0.3000 F900
G01 X66.7105 Y73.2158 F1200
G01 X66.1096 Y72.3111
G02 X65.7144 Y71.8686 I-1.0713 J0.5591
G02 X65.5496 Y72.2214 I0.0204 J0.2244
G02 X66.3497 Y73.6037 I7.7439 J-3.5592
G01 X66.7713 Y74.1622
G01 X66.9075 Y74.3084
G01 X67.0571 Y74.4065
G02 X67.1951 Y74.1976 I-0.0046 J-0.1530
G01 X67.1383 Y74.0063
G01 X67.0125 Y73.7341
G01 Z-0.4000 F900
G01 X66.7105 Y73.2158 F1200
G01 X66.1096 Y72.3111
G02 X65.7144 Y71.8686 I-1.0713 J0.5591
G02 X65.5496 Y72.2214 I0.0204 J0.2244
G02 X66.3497 Y73.6037 I7.7439 J-3.5592
G01 X66.7713 Y74.1622
G01 X66.9075 Y74.3084
G01 X67.0571 Y74.4065
G02 X67.1951 Y74.1976 I-0.0046 J-0.1530
G01 X67.1383 Y74.0063
G01 X67.0125 Y73.7341
G01 Z-0.5000 F900
G01 X66.7105 Y73.2158 F1200
G01 X66.1096 Y72.3111
G02 X65.7144 Y71.8686 I-1.0713 J0.5591
G02 X65.5496 Y72.2214 I0.0204 J0.2244
G02 X66.3497 Y73.6037 I7.7439 J-3.5592
G01 X66.7713 Y74.1622
G01 X66.9075 Y74.3084
G01 X67.0571 Y74.4065
G02 X67.1951 Y74.1976 I-0.0046 J-0.1530
G01 X67.1383 Y74.0063
G01 X67.0125 Y73.7341
G01 Z-0.6000 F900
G01 X66.7105 Y73.2158 F1200
G01 X66.1096 Y72.3111
G02 X65.7144 Y71.8686 I-1.0713 J0.5591
G02 X65.5496 Y72.2214 I0.0204 J0.2244
G02 X66.3497 Y73.6037 I7.7439 J-3.5592
G01 X66.7713 Y74.1622
G01 X66.9075 Y74.3084
G01 X67.0571 Y74.4065
G02 X67.1951 Y74.1976 I-0.0046 J-0.1530
G01 X67.1383 Y74.0063
G01 X67.0125 Y73.7341
G01 Z-0.7000 F900
G01 X66.7105 Y73.2158 F1200
G01 X66.1096 Y72.3111
G02 X65.7144 Y71.8686 I-1.0713 J0.5591
G02 X65.5496 Y72.2214 I0.0204 J0.2244
G02 X66.3497 Y73.6037 I7.7439 J-3.5592
G01 X66.7713 Y74.1622
G01 X66.9075 Y74.3084
G01 X67.0571 Y74.4065
G02 X67.1951 Y74.1976 I-0.0046 J-0.1530
G01 X67.1383 Y74.0063
G01 X67.0125 Y73.7341
G01 Z-0.8000 F900
G01 X66.7105 Y73.2158 F1200
G01 X66.1096 Y72.3111
G02 X65.7144 Y71.8686 I-1.0713 J0.5591
G02 X65.5496 Y72.2214 I0.0204 J0.2244
G02 X66.3497 Y73.6037 I7.7439 J-3.5592
G01 X66.7713 Y74.1622
G01 X66.9075 Y74.3084
G01 X67.0571 Y74.4065
G02 X67.1951 Y74.1976 I-0.0046 J-0.1530
G01 X67.1383 Y74.0063
G01 X67.0125 Y73.7341
G01 Z-0.9000 F900
G01 X66.7105 Y73.2158 F1200
G01 X66.1096 Y72.3111
G02 X65.7144 Y71.8686 I-1.0713 J0.5591
G02 X65.5496 Y72.2214 I0.0204 J0.2244
G02 X66.3497 Y73.6037 I7.7439 J-3.5592
G01 X66.7713 Y74.1622
G01 X66.9075 Y74.3084
G01 X67.0571 Y74.4065
G02 X67.1951 Y74.1976 I-0.0046 J-0.1530
G01 X67.1383 Y74.0063
G01 X67.0125 Y73.7341
G01 Z-1.0000 F900
G01 X66.7105 Y73.2158 F1200
G01 X66.1096 Y72.3111
G02 X65.7144 Y71.8686 I-1.0713 J0.5591
G02 X65.5496 Y72.2214 I0.0204 J0.2244
G02 X66.3497 Y73.6037 I7.7439 J-3.5592
G01 X66.7713 Y74.1622
G01 X66.9075 Y74.3084
G01 X67.0571 Y74.4065
G02 X67.1951 Y74.1976 I-0.0046 J-0.1530
G01 X67.1383 Y74.0063
G01 X67.0125 Y73.7341
G00 Z5.0000


(Nr. 4: Gravur 2)
G00 X67.6773 Y76.4120 Z5.0000
G00 Z0.5000
G01 Z-0.1000 F900
G03 X66.2474 Y77.3013 I-2.5871 J-2.5656 F1200
G03 X64.5525 Y77.2518 I-0.7447 J-3.5456
G03 X63.2797 Y76.4921 I0.7540 J-2.7093
G03 X62.4669 Y75.0181 I2.5809 J-2.3841
G03 X62.3043 Y73.4129 I4.0613 J-1.2222
G03 X62.7922 Y72.2237 I2.4654 J0.3168
G03 X64.3939 Y70.8854 I4.3950 J3.6324
G03 X65.9473 Y70.3341 I1.7405 J2.4399
G03 X67.6027 Y71.0196 I-0.1424 J2.6851
G03 X68.6203 Y72.4670 I-1.6342 J2.2304
G03 X68.7838 Y73.5522 I-4.5658 J1.2426
G03 X68.7297 Y75.1822 I-9.2115 J0.5105
G01 X68.6662 Y75.3715
G01 X68.5062 Y75.6242
G01 X68.2292 Y75.9124
G01 X67.6773 Y76.4120
G01 Z-0.2000 F900
G03 X66.2474 Y77.3013 I-2.5871 J-2.5656 F1200
G03 X64.5525 Y77.2518 I-0.7447 J-3.5456
G03 X63.2797 Y76.4921 I0.7540 J-2.7093
G03 X62.4669 Y75.0181 I2.5809 J-2.3841
G03 X62.3043 Y73.4129 I4.0613 J-1.2222
G03 X62.7922 Y72.2237 I2.4654 J0.3168
G03 X64.3939 Y70.8854 I4.3950 J3.6324
G03 X65.9473 Y70.3341 I1.7405 J2.4399
G03 X67.6027 Y71.0196 I-0.1424 J2.6851
G03 X68.6203 Y72.4670 I-1.6342 J2.2304
G03 X68.7838 Y73.5522 I-4.5658 J1.2426
G03 X68.7297 Y75.1822 I-9.2115 J0.5105
G01 X68.6662 Y75.3715
G01 X68.5062 Y75.6242
G01 X68.2292 Y75.9124
G01 X67.6773 Y76.4120
G01 Z-0.3000 F900
G03 X66.2474 Y77.3013 I-2.5871 J-2.5656 F1200
G03 X64.5525 Y77.2518 I-0.7447 J-3.5456
G03 X63.2797 Y76.4921 I0.7540 J-2.7093
G03 X62.4669 Y75.0181 I2.5809 J-2.3841
G03 X62.3043 Y73.4129 I4.0613 J-1.2222
G03 X62.7922 Y72.2237 I2.4654 J0.3168
G03 X64.3939 Y70.8854 I4.3950 J3.6324
G03 X65.9473 Y70.3341 I1.7405 J2.4399
G03 X67.6027 Y71.0196 I-0.1424 J2.6851
G03 X68.6203 Y72.4670 I-1.6342 J2.2304
G03 X68.7838 Y73.5522 I-4.5658 J1.2426
G03 X68.7297 Y75.1822 I-9.2115 J0.5105
G01 X68.6662 Y75.3715
G01 X68.5062 Y75.6242
G01 X68.2292 Y75.9124
G01 X67.6773 Y76.4120
G01 Z-0.4000 F900
G03 X66.2474 Y77.3013 I-2.5871 J-2.5656 F1200
G03 X64.5525 Y77.2518 I-0.7447 J-3.5456
G03 X63.2797 Y76.4921 I0.7540 J-2.7093
G03 X62.4669 Y75.0181 I2.5809 J-2.3841
G03 X62.3043 Y73.4129 I4.0613 J-1.2222
G03 X62.7922 Y72.2237 I2.4654 J0.3168
G03 X64.3939 Y70.8854 I4.3950 J3.6324
G03 X65.9473 Y70.3341 I1.7405 J2.4399
G03 X67.6027 Y71.0196 I-0.1424 J2.6851
G03 X68.6203 Y72.4670 I-1.6342 J2.2304
G03 X68.7838 Y73.5522 I-4.5658 J1.2426
G03 X68.7297 Y75.1822 I-9.2115 J0.5105
G01 X68.6662 Y75.3715
G01 X68.5062 Y75.6242
G01 X68.2292 Y75.9124
G01 X67.6773 Y76.4120
G01 Z-0.5000 F900
G03 X66.2474 Y77.3013 I-2.5871 J-2.5656 F1200
G03 X64.5525 Y77.2518 I-0.7447 J-3.5456
G03 X63.2797 Y76.4921 I0.7540 J-2.7093
G03 X62.4669 Y75.0181 I2.5809 J-2.3841
G03 X62.3043 Y73.4129 I4.0613 J-1.2222
G03 X62.7922 Y72.2237 I2.4654 J0.3168
G03 X64.3939 Y70.8854 I4.3950 J3.6324
G03 X65.9473 Y70.3341 I1.7405 J2.4399
G03 X67.6027 Y71.0196 I-0.1424 J2.6851
G03 X68.6203 Y72.4670 I-1.6342 J2.2304
G03 X68.7838 Y73.5522 I-4.5658 J1.2426
G03 X68.7297 Y75.1822 I-9.2115 J0.5105
G01 X68.6662 Y75.3715
G01 X68.5062 Y75.6242
G01 X68.2292 Y75.9124
G01 X67.6773 Y76.4120
G01 Z-0.6000 F900
G03 X66.2474 Y77.3013 I-2.5871 J-2.5656 F1200
G03 X64.5525 Y77.2518 I-0.7447 J-3.5456
G03 X63.2797 Y76.4921 I0.7540 J-2.7093
G03 X62.4669 Y75.0181 I2.5809 J-2.3841
G03 X62.3043 Y73.4129 I4.0613 J-1.2222
G03 X62.7922 Y72.2237 I2.4654 J0.3168
G03 X64.3939 Y70.8854 I4.3950 J3.6324
G03 X65.9473 Y70.3341 I1.7405 J2.4399
G03 X67.6027 Y71.0196 I-0.1424 J2.6851
G03 X68.6203 Y72.4670 I-1.6342 J2.2304
G03 X68.7838 Y73.5522 I-4.5658 J1.2426
G03 X68.7297 Y75.1822 I-9.2115 J0.5105
G01 X68.6662 Y75.3715
G01 X68.5062 Y75.6242
G01 X68.2292 Y75.9124
G01 X67.6773 Y76.4120
G01 Z-0.7000 F900
G03 X66.2474 Y77.3013 I-2.5871 J-2.5656 F1200
G03 X64.5525 Y77.2518 I-0.7447 J-3.5456
G03 X63.2797 Y76.4921 I0.7540 J-2.7093
G03 X62.4669 Y75.0181 I2.5809 J-2.3841
G03 X62.3043 Y73.4129 I4.0613 J-1.2222
G03 X62.7922 Y72.2237 I2.4654 J0.3168
G03 X64.3939 Y70.8854 I4.3950 J3.6324
G03 X65.9473 Y70.3341 I1.7405 J2.4399
G03 X67.6027 Y71.0196 I-0.1424 J2.6851
G03 X68.6203 Y72.4670 I-1.6342 J2.2304
G03 X68.7838 Y73.5522 I-4.5658 J1.2426
G03 X68.7297 Y75.1822 I-9.2115 J0.5105
G01 X68.6662 Y75.3715
G01 X68.5062 Y75.6242
G01 X68.2292 Y75.9124
G01 X67.6773 Y76.4120
G01 Z-0.8000 F900
G03 X66.2474 Y77.3013 I-2.5871 J-2.5656 F1200
G03 X64.5525 Y77.2518 I-0.7447 J-3.5456
G03 X63.2797 Y76.4921 I0.7540 J-2.7093
G03 X62.4669 Y75.0181 I2.5809 J-2.3841
G03 X62.3043 Y73.4129 I4.0613 J-1.2222
G03 X62.7922 Y72.2237 I2.4654 J0.3168
G03 X64.3939 Y70.8854 I4.3950 J3.6324
G03 X65.9473 Y70.3341 I1.7405 J2.4399
G03 X67.6027 Y71.0196 I-0.1424 J2.6851
G03 X68.6203 Y72.4670 I-1.6342 J2.2304
G03 X68.7838 Y73.5522 I-4.5658 J1.2426
G03 X68.7297 Y75.1822 I-9.2115 J0.5105
G01 X68.6662 Y75.3715
G01 X68.5062 Y75.6242
G01 X68.2292 Y75.9124
G01 X67.6773 Y76.4120
G01 Z-0.9000 F900
G03 X66.2474 Y77.3013 I-2.5871 J-2.5656 F1200
G03 X64.5525 Y77.2518 I-0.7447 J-3.5456
G03 X63.2797 Y76.4921 I0.7540 J-2.7093
G03 X62.4669 Y75.0181 I2.5809 J-2.3841
G03 X62.3043 Y73.4129 I4.0613 J-1.2222
G03 X62.7922 Y72.2237 I2.4654 J0.3168
G03 X64.3939 Y70.8854 I4.3950 J3.6324
G03 X65.9473 Y70.3341 I1.7405 J2.4399
G03 X67.6027 Y71.0196 I-0.1424 J2.6851
G03 X68.6203 Y72.4670 I-1.6342 J2.2304
G03 X68.7838 Y73.5522 I-4.5658 J1.2426
G03 X68.7297 Y75.1822 I-9.2115 J0.5105
G01 X68.6662 Y75.3715
G01 X68.5062 Y75.6242
G01 X68.2292 Y75.9124
G01 X67.6773 Y76.4120
G01 Z-1.0000 F900
G03 X66.2474 Y77.3013 I-2.5871 J-2.5656 F1200
G03 X64.5525 Y77.2518 I-0.7447 J-3.5456
G03 X63.2797 Y76.4921 I0.7540 J-2.7093
G03 X62.4669 Y75.0181 I2.5809 J-2.3841
G03 X62.3043 Y73.4129 I4.0613 J-1.2222
G03 X62.7922 Y72.2237 I2.4654 J0.3168
G03 X64.3939 Y70.8854 I4.3950 J3.6324
G03 X65.9473 Y70.3341 I1.7405 J2.4399
G03 X67.6027 Y71.0196 I-0.1424 J2.6851
G03 X68.6203 Y72.4670 I-1.6342 J2.2304
G03 X68.7838 Y73.5522 I-4.5658 J1.2426
G03 X68.7297 Y75.1822 I-9.2115 J0.5105
G01 X68.6662 Y75.3715
G01 X68.5062 Y75.6242
G01 X68.2292 Y75.9124
G01 X67.6773 Y76.4120
G00 Z5.0000


(Nr. 5: Gravur 1)
G00 X70.5538 Y76.2094 Z5.0000
G00 Z0.5000
G01 Z-0.1000 F900
G01 X69.3216 Y75.4303 F1200
G01 X69.3685 Y74.1344
G01 X69.3699 Y73.7344
G02 X69.2215 Y72.6468 I-4.9157 J0.1165
G02 X68.1888 Y70.8492 I-3.6581 J0.9061
G02 X66.6011 Y69.8852 I-2.9703 J3.1026
G01 X65.5579 Y69.5366
G01 X64.4057 Y69.2016
G02 X62.7877 Y68.8573 I-3.0434 J10.3267
G02 X60.3485 Y69.7459 I1.4361 J7.7342
G01 X59.8509 Y70.0805
G01 X59.4684 Y70.4021
G01 X59.2219 Y70.6528
G01 X58.4807 Y71.4766
G01 X55.3788 Y70.2489
G01 X54.0917 Y69.6981
G01 X53.2560 Y69.3013
G01 X52.8808 Y69.1635
G02 X52.1947 Y69.1484 I-0.3643 J0.9627
G01 X52.1089 Y69.1992
G01 X52.0404 Y69.2714
G01 X51.9794 Y69.3876
G01 X52.0006 Y69.4831
G01 X52.1323 Y69.6328
G01 X52.4499 Y69.8752
G01 X52.7930 Y70.0806
G01 X53.1541 Y70.2521
G01 X53.4414 Y70.3356
G01 X53.5757 Y70.3120
G01 X53.7719 Y70.3368
G01 X54.2527 Y70.4740
G01 X55.0131 Y70.7223
G01 X56.1455 Y71.1195
G01 X57.2694 Y71.5400
G01 X58.0094 Y71.8436
G01 X58.3149 Y72.0034
G01 X58.3974 Y72.1520
G01 X58.4783 Y72.3953
G01 X58.6354 Y73.1053
G01 X58.7199 Y73.3931
G01 X58.8271 Y73.6732
G01 X58.9569 Y73.9435
G02 X59.9664 Y75.1732 I3.8259 J-2.1116
G02 X62.6117 Y76.8710 I10.4173 J-13.3210
G02 X65.1891 Y77.9452 I5.7963 J-10.2790
G02 X65.9606 Y77.9192 I0.3203 J-1.9565
G02 X66.9935 Y77.5496 I-0.9485 J-4.2793
G01 X67.4296 Y77.3055
G01 X67.7599 Y77.0801
G01 X68.0695 Y76.8270
G01 X68.7142 Y76.2075
G01 X68.9529 Y76.0318
G01 X69.0445 Y75.9963
G01 X69.4063 Y76.1647
G01 X70.1053 Y76.5536
G01 X72.9883 Y78.2567
G01 X73.4326 Y78.4859
G01 X73.8045 Y78.6323
G02 X75.0301 Y78.6068 I0.5615 J-2.4797
G02 X76.5523 Y78.1335 I-0.8313 J-5.3579
G02 X77.9583 Y76.8842 I-1.7852 J-3.4248
G01 X78.3353 Y76.2947
G01 X78.6868 Y75.6378
G02 X79.0441 Y74.7069 I-3.2333 J-1.7751
G02 X78.8511 Y73.1062 I-2.8603 J-0.4671
G02 X77.7568 Y71.5694 I-4.2516 J1.8694
G02 X77.0333 Y71.0351 I-1.9670 J1.9062
G02 X75.8626 Y70.8012 I-1.2616 J3.2683
G02 X74.8812 Y70.9383 I-0.2023 J2.1336
G02 X74.5609 Y71.4509 I0.4462 J0.6352
G01 X74.5626 Y71.5200
G01 X74.6015 Y71.5723
G03 X76.0326 Y71.4014 I1.3364 J5.1152
G03 X77.0142 Y71.5421 I0.1882 J2.1819
G03 X77.7970 Y72.2154 I-1.3968 J2.4153
G03 X78.3491 Y73.1604 I-2.4066 J2.0401
G03 X78.3058 Y75.3151 I-2.9787 J1.0179
G03 X77.6155 Y76.6210 I-5.5762 J-2.1121
G03 X76.7781 Y77.4698 I-2.5677 J-1.6959
G03 X75.8681 Y77.8757 I-1.8740 J-2.9780
G03 X74.6421 Y78.1186 I-1.7943 J-5.8413
G03 X73.0413 Y77.6889 I-0.2783 J-2.1597
G03 X72.3250 Y76.5103 I1.5995 J-1.7790
G01 X72.2323 Y76.1214
G01 X72.1624 Y75.6265
G01 X72.1358 Y75.2274
G01 X72.1236 Y74.3587
G01 X72.0898 Y73.9603
G01 X72.0401 Y73.7671
G01 X71.9918 Y73.6801
G01 X71.8544 Y73.6151
G01 X71.7704 Y73.6633
G01 X71.7189 Y73.7485
G01 X71.6352 Y74.0358
G01 X71.5757 Y74.5319
G01 X71.5629 Y75.0316
G01 X71.5853 Y75.5310
G01 X71.6314 Y75.9282
G01 X71.7132 Y76.3195
G01 X71.8756 Y76.8352
G01 X71.8901 Y76.9405
G01 X71.8723 Y76.9885
G01 X71.4336 Y76.7502
G01 X70.5538 Y76.2094
G01 Z-0.2000 F900
G01 X69.3216 Y75.4303 F1200
G01 X69.3685 Y74.1344
G01 X69.3699 Y73.7344
G02 X69.2215 Y72.6468 I-4.9157 J0.1165
G02 X68.1888 Y70.8492 I-3.6581 J0.9061
G02 X66.6011 Y69.8852 I-2.9703 J3.1026
G01 X65.5579 Y69.5366
G01 X64.4057 Y69.2016
G02 X62.7877 Y68.8573 I-3.0434 J10.3267
G02 X60.3485 Y69.7459 I1.4361 J7.7342
G01 X59.8509 Y70.0805
G01 X59.4684 Y70.4021
G01 X59.2219 Y70.6528
G01 X58.4807 Y71.4766
G01 X55.3788 Y70.2489
G01 X54.0917 Y69.6981
G01 X53.2560 Y69.3013
G01 X52.8808 Y69.1635
G02 X52.1947 Y69.1484 I-0.3643 J0.9627
G01 X52.1089 Y69.1992
G01 X52.0404 Y69.2714
G01 X51.9794 Y69.3876
G01 X52.0006 Y69.4831
G01 X52.1323 Y69.6328
G01 X52.4499 Y69.8752
G01 X52.7930 Y70.0806
G01 X53.1541 Y70.2521
G01 X53.4414 Y70.3356
G01 X53.5757 Y70.3120
G01 X53.7719 Y70.3368
G01 X54.2527 Y70.4740
G01 X55.0131 Y70.7223
G01 X56.1455 Y71.1195
G01 X57.2694 Y71.5400
G01 X58.0094 Y71.8436
G01 X58.3149 Y72.0034
G01 X58.3974 Y72.1520
G01 X58.4783 Y72.3953
G01 X58.6354 Y73.1053
G01 X58.7199 Y73.3931
G01 X58.8271 Y73.6732
G01 X58.9569 Y73.9435
G02 X59.9664 Y75.1732 I3.8259 J-2.1116
G02 X62.6117 Y76.8710 I10.4173 J-13.3210
G02 X65.1891 Y77.9452 I5.7963 J-10.2790
G02 X65.9606 Y77.9192 I0.3203 J-1.9565
G02 X66.9935 Y77.5496 I-0.9485 J-4.2793
G01 X67.4296 Y77.3055
G01 X67.7599 Y77.0801
G01 X68.0695 Y76.8270
G01 X68.7142 Y76.2075
G01 X68.9529 Y76.0318
G01 X69.0445 Y75.9963
G01 X69.4063 Y76.1647
G01 X70.1053 Y76.5536
G01 X72.9883 Y78.2567
G01 X73.4326 Y78.4859
G01 X73.8045 Y78.6323
G02 X75.0301 Y78.6068 I0.5615 J-2.4797
G02 X76.5523 Y78.1335 I-0.8313 J-5.3579
G02 X77.9583 Y76.8842 I-1.7852 J-3.4248
G01 X78.3353 Y76.2947
G01 X78.6868 Y75.6378
G02 X79.0441 Y74.7069 I-3.2333 J-1.7751
G02 X78.8511 Y73.1062 I-2.8603 J-0.4671
G02 X77.7568 Y71.5694 I-4.2516 J1.8694
G02 X77.0333 Y71.0351 I-1.9670 J1.9062
G02 X75.8626 Y70.8012 I-1.2616 J3.2683
G02 X74.8812 Y70.9383 I-0.2023 J2.1336
G02 X74.5609 Y71.4509 I0.4462 J0.6352
G01 X74.5626 Y71.5200
G01 X74.6015 Y71.5723
G03 X76.0326 Y71.4014 I1.3364 J5.1152
G03 X77.0142 Y71.5421 I0.1882 J2.1819
G03 X77.7970 Y72.2154 I-1.3968 J2.4153
G03 X78.3491 Y73.1604 I-2.4066 J2.0401
G03 X78.3058 Y75.3151 I-2.9787 J1.0179
G03 X77.6155 Y76.6210 I-5.5762 J-2.1121
G03 X76.7781 Y77.4698 I-2.5677 J-1.6959
G03 X75.8681 Y77.8757 I-1.8740 J-2.9780
G03 X74.6421 Y78.1186 I-1.7943 J-5.8413
G03 X73.0413 Y77.6889 I-0.2783 J-2.1597
G03 X72.3250 Y76.5103 I1.5995 J-1.7790
G01 X72.2323 Y76.1214
G01 X72.1624 Y75.6265
G01 X72.1358 Y75.2274
G01 X72.1236 Y74.3587
G01 X72.0898 Y73.9603
G01 X72.0401 Y73.7671
G01 X71.9918 Y73.6801
G01 X71.8544 Y73.6151
G01 X71.7704 Y73.6633
G01 X71.7189 Y73.7485
G01 X71.6352 Y74.0358
G01 X71.5757 Y74.5319
G01 X71.5629 Y75.0316
G01 X71.5853 Y75.5310
G01 X71.6314 Y75.9282
G01 X71.7132 Y76.3195
G01 X71.8756 Y76.8352
G01 X71.8901 Y76.9405
G01 X71.8723 Y76.9885
G01 X71.4336 Y76.7502
G01 X70.5538 Y76.2094
G01 Z-0.3000 F900
G01 X69.3216 Y75.4303 F1200
G01 X69.3685 Y74.1344
G01 X69.3699 Y73.7344
G02 X69.2215 Y72.6468 I-4.9157 J0.1165
G02 X68.1888 Y70.8492 I-3.6581 J0.9061
G02 X66.6011 Y69.8852 I-2.9703 J3.1026
G01 X65.5579 Y69.5366
G01 X64.4057 Y69.2016
G02 X62.7877 Y68.8573 I-3.0434 J10.3267
G02 X60.3485 Y69.7459 I1.4361 J7.7342
G01 X59.8509 Y70.0805
G01 X59.4684 Y70.4021
G01 X59.2219 Y70.6528
G01 X58.4807 Y71.4766
G01 X55.3788 Y70.2489
G01 X54.0917 Y69.6981
G01 X53.2560 Y69.3013
G01 X52.8808 Y69.1635
G02 X52.1947 Y69.1484 I-0.3643 J0.9627
G01 X52.1089 Y69.1992
G01 X52.0404 Y69.2714
G01 X51.9794 Y69.3876
G01 X52.0006 Y69.4831
G01 X52.1323 Y69.6328
G01 X52.4499 Y69.8752
G01 X52.7930 Y70.0806
G01 X53.1541 Y70.2521
G01 X53.4414 Y70.3356
G01 X53.5757 Y70.3120
G01 X53.7719 Y70.3368
G01 X54.2527 Y70.4740
G01 X55.0131 Y70.7223
G01 X56.1455 Y71.1195
G01 X57.2694 Y71.5400
G01 X58.0094 Y71.8436
G01 X58.3149 Y72.0034
G01 X58.3974 Y72.1520
G01 X58.4783 Y72.3953
G01 X58.6354 Y73.1053
G01 X58.7199 Y73.3931
G01 X58.8271 Y73.6732
G01 X58.9569 Y73.9435
G02 X59.9664 Y75.1732 I3.8259 J-2.1116
G02 X62.6117 Y76.8710 I10.4173 J-13.3210
G02 X65.1891 Y77.9452 I5.7963 J-10.2790
G02 X65.9606 Y77.9192 I0.3203 J-1.9565
G02 X66.9935 Y77.5496 I-0.9485 J-4.2793
G01 X67.4296 Y77.3055
G01 X67.7599 Y77.0801
G01 X68.0695 Y76.8270
G01 X68.7142 Y76.2075
G01 X68.9529 Y76.0318
G01 X69.0445 Y75.9963
G01 X69.4063 Y76.1647
G01 X70.1053 Y76.5536
G01 X72.9883 Y78.2567
G01 X73.4326 Y78.4859
G01 X73.8045 Y78.6323
G02 X75.0301 Y78.6068 I0.5615 J-2.4797
G02 X76.5523 Y78.1335 I-0.8313 J-5.3579
G02 X77.9583 Y76.8842 I-1.7852 J-3.4248
G01 X78.3353 Y76.2947
G01 X78.6868 Y75.6378
G02 X79.0441 Y74.7069 I-3.2333 J-1.7751
G02 X78.8511 Y73.1062 I-2.8603 J-0.4671
G02 X77.7568 Y71.5694 I-4.2516 J1.8694
G02 X77.0333 Y71.0351 I-1.9670 J1.9062
G02 X75.8626 Y70.8012 I-1.2616 J3.2683
G02 X74.8812 Y70.9383 I-0.2023 J2.1336
G02 X74.5609 Y71.4509 I0.4462 J0.6352
G01 X74.5626 Y71.5200
G01 X74.6015 Y71.5723
G03 X76.0326 Y71.4014 I1.3364 J5.1152
G03 X77.0142 Y71.5421 I0.1882 J2.1819
G03 X77.7970 Y72.2154 I-1.3968 J2.4153
G03 X78.3491 Y73.1604 I-2.4066 J2.0401
G03 X78.3058 Y75.3151 I-2.9787 J1.0179
G03 X77.6155 Y76.6210 I-5.5762 J-2.1121
G03 X76.7781 Y77.4698 I-2.5677 J-1.6959
G03 X75.8681 Y77.8757 I-1.8740 J-2.9780
G03 X74.6421 Y78.1186 I-1.7943 J-5.8413
G03 X73.0413 Y77.6889 I-0.2783 J-2.1597
G03 X72.3250 Y76.5103 I1.5995 J-1.7790
G01 X72.2323 Y76.1214
G01 X72.1624 Y75.6265
G01 X72.1358 Y75.2274
G01 X72.1236 Y74.3587
G01 X72.0898 Y73.9603
G01 X72.0401 Y73.7671
G01 X71.9918 Y73.6801
G01 X71.8544 Y73.6151
G01 X71.7704 Y73.6633
G01 X71.7189 Y73.7485
G01 X71.6352 Y74.0358
G01 X71.5757 Y74.5319
G01 X71.5629 Y75.0316
G01 X71.5853 Y75.5310
G01 X71.6314 Y75.9282
G01 X71.7132 Y76.3195
G01 X71.8756 Y76.8352
G01 X71.8901 Y76.9405
G01 X71.8723 Y76.9885
G01 X71.4336 Y76.7502
G01 X70.5538 Y76.2094
G01 Z-0.4000 F900
G01 X69.3216 Y75.4303 F1200
G01 X69.3685 Y74.1344
G01 X69.3699 Y73.7344
G02 X69.2215 Y72.6468 I-4.9157 J0.1165
G02 X68.1888 Y70.8492 I-3.6581 J0.9061
G02 X66.6011 Y69.8852 I-2.9703 J3.1026
G01 X65.5579 Y69.5366
G01 X64.4057 Y69.2016
G02 X62.7877 Y68.8573 I-3.0434 J10.3267
G02 X60.3485 Y69.7459 I1.4361 J7.7342
G01 X59.8509 Y70.0805
G01 X59.4684 Y70.4021
G01 X59.2219 Y70.6528
G01 X58.4807 Y71.4766
G01 X55.3788 Y70.2489
G01 X54.0917 Y69.6981
G01 X53.2560 Y69.3013
G01 X52.8808 Y69.1635
G02 X52.1947 Y69.1484 I-0.3643 J0.9627
G01 X52.1089 Y69.1992
G01 X52.0404 Y69.2714
G01 X51.9794 Y69.3876
G01 X52.0006 Y69.4831
G01 X52.1323 Y69.6328
G01 X52.4499 Y69.8752
G01 X52.7930 Y70.0806
G01 X53.1541 Y70.2521
G01 X53.4414 Y70.3356
G01 X53.5757 Y70.3120
G01 X53.7719 Y70.3368
G01 X54.2527 Y70.4740
G01 X55.0131 Y70.7223
G01 X56.1455 Y71.1195
G01 X57.2694 Y71.5400
G01 X58.0094 Y71.8436
G01 X58.3149 Y72.0034
G01 X58.3974 Y72.1520
G01 X58.4783 Y72.3953
G01 X58.6354 Y73.1053
G01 X58.7199 Y73.3931
G01 X58.8271 Y73.6732
G01 X58.9569 Y73.9435
G02 X59.9664 Y75.1732 I3.8259 J-2.1116
G02 X62.6117 Y76.8710 I10.4173 J-13.3210
G02 X65.1891 Y77.9452 I5.7963 J-10.2790
G02 X65.9606 Y77.9192 I0.3203 J-1.9565
G02 X66.9935 Y77.5496 I-0.9485 J-4.2793
G01 X67.4296 Y77.3055
G01 X67.7599 Y77.0801
G01 X68.0695 Y76.8270
G01 X68.7142 Y76.2075
G01 X68.9529 Y76.0318
G01 X69.0445 Y75.9963
G01 X69.4063 Y76.1647
G01 X70.1053 Y76.5536
G01 X72.9883 Y78.2567
G01 X73.4326 Y78.4859
G01 X73.8045 Y78.6323
G02 X75.0301 Y78.6068 I0.5615 J-2.4797
G02 X76.5523 Y78.1335 I-0.8313 J-5.3579
G02 X77.9583 Y76.8842 I-1.7852 J-3.4248
G01 X78.3353 Y76.2947
G01 X78.6868 Y75.6378
G02 X79.0441 Y74.7069 I-3.2333 J-1.7751
G02 X78.8511 Y73.1062 I-2.8603 J-0.4671
G02 X77.7568 Y71.5694 I-4.2516 J1.8694
G02 X77.0333 Y71.0351 I-1.9670 J1.9062
G02 X75.8626 Y70.8012 I-1.2616 J3.2683
G02 X74.8812 Y70.9383 I-0.2023 J2.1336
G02 X74.5609 Y71.4509 I0.4462 J0.6352
G01 X74.5626 Y71.5200
G01 X74.6015 Y71.5723
G03 X76.0326 Y71.4014 I1.3364 J5.1152
G03 X77.0142 Y71.5421 I0.1882 J2.1819
G03 X77.7970 Y72.2154 I-1.3968 J2.4153
G03 X78.3491 Y73.1604 I-2.4066 J2.0401
G03 X78.3058 Y75.3151 I-2.9787 J1.0179
G03 X77.6155 Y76.6210 I-5.5762 J-2.1121
G03 X76.7781 Y77.4698 I-2.5677 J-1.6959
G03 X75.8681 Y77.8757 I-1.8740 J-2.9780
G03 X74.6421 Y78.1186 I-1.7943 J-5.8413
G03 X73.0413 Y77.6889 I-0.2783 J-2.1597
G03 X72.3250 Y76.5103 I1.5995 J-1.7790
G01 X72.2323 Y76.1214
G01 X72.1624 Y75.6265
G01 X72.1358 Y75.2274
G01 X72.1236 Y74.3587
G01 X72.0898 Y73.9603
G01 X72.0401 Y73.7671
G01 X71.9918 Y73.6801
G01 X71.8544 Y73.6151
G01 X71.7704 Y73.6633
G01 X71.7189 Y73.7485
G01 X71.6352 Y74.0358
G01 X71.5757 Y74.5319
G01 X71.5629 Y75.0316
G01 X71.5853 Y75.5310
G01 X71.6314 Y75.9282
G01 X71.7132 Y76.3195
G01 X71.8756 Y76.8352
G01 X71.8901 Y76.9405
G01 X71.8723 Y76.9885
G01 X71.4336 Y76.7502
G01 X70.5538 Y76.2094
G01 Z-0.5000 F900
G01 X69.3216 Y75.4303 F1200
G01 X69.3685 Y74.1344
G01 X69.3699 Y73.7344
G02 X69.2215 Y72.6468 I-4.9157 J0.1165
G02 X68.1888 Y70.8492 I-3.6581 J0.9061
G02 X66.6011 Y69.8852 I-2.9703 J3.1026
G01 X65.5579 Y69.5366
G01 X64.4057 Y69.2016
G02 X62.7877 Y68.8573 I-3.0434 J10.3267
G02 X60.3485 Y69.7459 I1.4361 J7.7342
G01 X59.8509 Y70.0805
G01 X59.4684 Y70.4021
G01 X59.2219 Y70.6528
G01 X58.4807 Y71.4766
G01 X55.3788 Y70.2489
G01 X54.0917 Y69.6981
G01 X53.2560 Y69.3013
G01 X52.8808 Y69.1635
G02 X52.1947 Y69.1484 I-0.3643 J0.9627
G01 X52.1089 Y69.1992
G01 X52.0404 Y69.2714
G01 X51.9794 Y69.3876
G01 X52.0006 Y69.4831
G01 X52.1323 Y69.6328
G01 X52.4499 Y69.8752
G01 X52.7930 Y70.0806
G01 X53.1541 Y70.2521
G01 X53.4414 Y70.3356
G01 X53.5757 Y70.3120
G01 X53.7719 Y70.3368
G01 X54.2527 Y70.4740
G01 X55.0131 Y70.7223
G01 X56.1455 Y71.1195
G01 X57.2694 Y71.5400
G01 X58.0094 Y71.8436
G01 X58.3149 Y72.0034
G01 X58.3974 Y72.1520
G01 X58.4783 Y72.3953
G01 X58.6354 Y73.1053
G01 X58.7199 Y73.3931
G01 X58.8271 Y73.6732
G01 X58.9569 Y73.9435
G02 X59.9664 Y75.1732 I3.8259 J-2.1116
G02 X62.6117 Y76.8710 I10.4173 J-13.3210
G02 X65.1891 Y77.9452 I5.7963 J-10.2790
G02 X65.9606 Y77.9192 I0.3203 J-1.9565
G02 X66.9935 Y77.5496 I-0.9485 J-4.2793
G01 X67.4296 Y77.3055
G01 X67.7599 Y77.0801
G01 X68.0695 Y76.8270
G01 X68.7142 Y76.2075
G01 X68.9529 Y76.0318
G01 X69.0445 Y75.9963
G01 X69.4063 Y76.1647
G01 X70.1053 Y76.5536
G01 X72.9883 Y78.2567
G01 X73.4326 Y78.4859
G01 X73.8045 Y78.6323
G02 X75.0301 Y78.6068 I0.5615 J-2.4797
G02 X76.5523 Y78.1335 I-0.8313 J-5.3579
G02 X77.9583 Y76.8842 I-1.7852 J-3.4248
G01 X78.3353 Y76.2947
G01 X78.6868 Y75.6378
G02 X79.0441 Y74.7069 I-3.2333 J-1.7751
G02 X78.8511 Y73.1062 I-2.8603 J-0.4671
G02 X77.7568 Y71.5694 I-4.2516 J1.8694
G02 X77.0333 Y71.0351 I-1.9670 J1.9062
G02 X75.8626 Y70.8012 I-1.2616 J3.2683
G02 X74.8812 Y70.9383 I-0.2023 J2.1336
G02 X74.5609 Y71.4509 I0.4462 J0.6352
G01 X74.5626 Y71.5200
G01 X74.6015 Y71.5723
G03 X76.0326 Y71.4014 I1.3364 J5.1152
G03 X77.0142 Y71.5421 I0.1882 J2.1819
G03 X77.7970 Y72.2154 I-1.3968 J2.4153
G03 X78.3491 Y73.1604 I-2.4066 J2.0401
G03 X78.3058 Y75.3151 I-2.9787 J1.0179
G03 X77.6155 Y76.6210 I-5.5762 J-2.1121
G03 X76.7781 Y77.4698 I-2.5677 J-1.6959
G03 X75.8681 Y77.8757 I-1.8740 J-2.9780
G03 X74.6421 Y78.1186 I-1.7943 J-5.8413
G03 X73.0413 Y77.6889 I-0.2783 J-2.1597
G03 X72.3250 Y76.5103 I1.5995 J-1.7790
G01 X72.2323 Y76.1214
G01 X72.1624 Y75.6265
G01 X72.1358 Y75.2274
G01 X72.1236 Y74.3587
G01 X72.0898 Y73.9603
G01 X72.0401 Y73.7671
G01 X71.9918 Y73.6801
G01 X71.8544 Y73.6151
G01 X71.7704 Y73.6633
G01 X71.7189 Y73.7485
G01 X71.6352 Y74.0358
G01 X71.5757 Y74.5319
G01 X71.5629 Y75.0316
G01 X71.5853 Y75.5310
G01 X71.6314 Y75.9282
G01 X71.7132 Y76.3195
G01 X71.8756 Y76.8352
G01 X71.8901 Y76.9405
G01 X71.8723 Y76.9885
G01 X71.4336 Y76.7502
G01 X70.5538 Y76.2094
G01 Z-0.6000 F900
G01 X69.3216 Y75.4303 F1200
G01 X69.3685 Y74.1344
G01 X69.3699 Y73.7344
G02 X69.2215 Y72.6468 I-4.9157 J0.1165
G02 X68.1888 Y70.8492 I-3.6581 J0.9061
G02 X66.6011 Y69.8852 I-2.9703 J3.1026
G01 X65.5579 Y69.5366
G01 X64.4057 Y69.2016
G02 X62.7877 Y68.8573 I-3.0434 J10.3267
G02 X60.3485 Y69.7459 I1.4361 J7.7342
G01 X59.8509 Y70.0805
G01 X59.4684 Y70.4021
G01 X59.2219 Y70.6528
G01 X58.4807 Y71.4766
G01 X55.3788 Y70.2489
G01 X54.0917 Y69.6981
G01 X53.2560 Y69.3013
G01 X52.8808 Y69.1635
G02 X52.1947 Y69.1484 I-0.3643 J0.9627
G01 X52.1089 Y69.1992
G01 X52.0404 Y69.2714
G01 X51.9794 Y69.3876
G01 X52.0006 Y69.4831
G01 X52.1323 Y69.6328
G01 X52.4499 Y69.8752
G01 X52.7930 Y70.0806
G01 X53.1541 Y70.2521
G01 X53.4414 Y70.3356
G01 X53.5757 Y70.3120
G01 X53.7719 Y70.3368
G01 X54.2527 Y70.4740
G01 X55.0131 Y70.7223
G01 X56.1455 Y71.1195
G01 X57.2694 Y71.5400
G01 X58.0094 Y71.8436
G01 X58.3149 Y72.0034
G01 X58.3974 Y72.1520
G01 X58.4783 Y72.3953
G01 X58.6354 Y73.1053
G01 X58.7199 Y73.3931
G01 X58.8271 Y73.6732
G01 X58.9569 Y73.9435
G02 X59.9664 Y75.1732 I3.8259 J-2.1116
G02 X62.6117 Y76.8710 I10.4173 J-13.3210
G02 X65.1891 Y77.9452 I5.7963 J-10.2790
G02 X65.9606 Y77.9192 I0.3203 J-1.9565
G02 X66.9935 Y77.5496 I-0.9485 J-4.2793
G01 X67.4296 Y77.3055
G01 X67.7599 Y77.0801
G01 X68.0695 Y76.8270
G01 X68.7142 Y76.2075
G01 X68.9529 Y76.0318
G01 X69.0445 Y75.9963
G01 X69.4063 Y76.1647
G01 X70.1053 Y76.5536
G01 X72.9883 Y78.2567
G01 X73.4326 Y78.4859
G01 X73.8045 Y78.6323
G02 X75.0301 Y78.6068 I0.5615 J-2.4797
G02 X76.5523 Y78.1335 I-0.8313 J-5.3579
G02 X77.9583 Y76.8842 I-1.7852 J-3.4248
G01 X78.3353 Y76.2947
G01 X78.6868 Y75.6378
G02 X79.0441 Y74.7069 I-3.2333 J-1.7751
G02 X78.8511 Y73.1062 I-2.8603 J-0.4671
G02 X77.7568 Y71.5694 I-4.2516 J1.8694
G02 X77.0333 Y71.0351 I-1.9670 J1.9062
G02 X75.8626 Y70.8012 I-1.2616 J3.2683
G02 X74.8812 Y70.9383 I-0.2023 J2.1336
G02 X74.5609 Y71.4509 I0.4462 J0.6352
G01 X74.5626 Y71.5200
G01 X74.6015 Y71.5723
G03 X76.0326 Y71.4014 I1.3364 J5.1152
G03 X77.0142 Y71.5421 I0.1882 J2.1819
G03 X77.7970 Y72.2154 I-1.3968 J2.4153
G03 X78.3491 Y73.1604 I-2.4066 J2.0401
G03 X78.3058 Y75.3151 I-2.9787 J1.0179
G03 X77.6155 Y76.6210 I-5.5762 J-2.1121
G03 X76.7781 Y77.4698 I-2.5677 J-1.6959
G03 X75.8681 Y77.8757 I-1.8740 J-2.9780
G03 X74.6421 Y78.1186 I-1.7943 J-5.8413
G03 X73.0413 Y77.6889 I-0.2783 J-2.1597
G03 X72.3250 Y76.5103 I1.5995 J-1.7790
G01 X72.2323 Y76.1214
G01 X72.1624 Y75.6265
G01 X72.1358 Y75.2274
G01 X72.1236 Y74.3587
G01 X72.0898 Y73.9603
G01 X72.0401 Y73.7671
G01 X71.9918 Y73.6801
G01 X71.8544 Y73.6151
G01 X71.7704 Y73.6633
G01 X71.7189 Y73.7485
G01 X71.6352 Y74.0358
G01 X71.5757 Y74.5319
G01 X71.5629 Y75.0316
G01 X71.5853 Y75.5310
G01 X71.6314 Y75.9282
G01 X71.7132 Y76.3195
G01 X71.8756 Y76.8352
G01 X71.8901 Y76.9405
G01 X71.8723 Y76.9885
G01 X71.4336 Y76.7502
G01 X70.5538 Y76.2094
G01 Z-0.7000 F900
G01 X69.3216 Y75.4303 F1200
G01 X69.3685 Y74.1344
G01 X69.3699 Y73.7344
G02 X69.2215 Y72.6468 I-4.9157 J0.1165
G02 X68.1888 Y70.8492 I-3.6581 J0.9061
G02 X66.6011 Y69.8852 I-2.9703 J3.1026
G01 X65.5579 Y69.5366
G01 X64.4057 Y69.2016
G02 X62.7877 Y68.8573 I-3.0434 J10.3267
G02 X60.3485 Y69.7459 I1.4361 J7.7342
G01 X59.8509 Y70.0805
G01 X59.4684 Y70.4021
G01 X59.2219 Y70.6528
G01 X58.4807 Y71.4766
G01 X55.3788 Y70.2489
G01 X54.0917 Y69.6981
G01 X53.2560 Y69.3013
G01 X52.8808 Y69.1635
G02 X52.1947 Y69.1484 I-0.3643 J0.9627
G01 X52.1089 Y69.1992
G01 X52.0404 Y69.2714
G01 X51.9794 Y69.3876
G01 X52.0006 Y69.4831
G01 X52.1323 Y69.6328
G01 X52.4499 Y69.8752
G01 X52.7930 Y70.0806
G01 X53.1541 Y70.2521
G01 X53.4414 Y70.3356
G01 X53.5757 Y70.3120
G01 X53.7719 Y70.3368
G01 X54.2527 Y70.4740
G01 X55.0131 Y70.7223
G01 X56.1455 Y71.1195
G01 X57.2694 Y71.5400
G01 X58.0094 Y71.8436
G01 X58.3149 Y72.0034
G01 X58.3974 Y72.1520
G01 X58.4783 Y72.3953
G01 X58.6354 Y73.1053
G01 X58.7199 Y73.3931
G01 X58.8271 Y73.6732
G01 X58.9569 Y73.9435
G02 X59.9664 Y75.1732 I3.8259 J-2.1116
G02 X62.6117 Y76.8710 I10.4173 J-13.3210
G02 X65.1891 Y77.9452 I5.7963 J-10.2790
G02 X65.9606 Y77.9192 I0.3203 J-1.9565
G02 X66.9935 Y77.5496 I-0.9485 J-4.2793
G01 X67.4296 Y77.3055
G01 X67.7599 Y77.0801
G01 X68.0695 Y76.8270
G01 X68.7142 Y76.2075
G01 X68.9529 Y76.0318
G01 X69.0445 Y75.9963
G01 X69.4063 Y76.1647
G01 X70.1053 Y76.5536
G01 X72.9883 Y78.2567
G01 X73.4326 Y78.4859
G01 X73.8045 Y78.6323
G02 X75.0301 Y78.6068 I0.5615 J-2.4797
G02 X76.5523 Y78.1335 I-0.8313 J-5.3579
G02 X77.9583 Y76.8842 I-1.7852 J-3.4248
G01 X78.3353 Y76.2947
G01 X78.6868 Y75.6378
G02 X79.0441 Y74.7069 I-3.2333 J-1.7751
G02 X78.8511 Y73.1062 I-2.8603 J-0.4671
G02 X77.7568 Y71.5694 I-4.2516 J1.8694
G02 X77.0333 Y71.0351 I-1.9670 J1.9062
G02 X75.8626 Y70.8012 I-1.2616 J3.2683
G02 X74.8812 Y70.9383 I-0.2023 J2.1336
G02 X74.5609 Y71.4509 I0.4462 J0.6352
G01 X74.5626 Y71.5200
G01 X74.6015 Y71.5723
G03 X76.0326 Y71.4014 I1.3364 J5.1152
G03 X77.0142 Y71.5421 I0.1882 J2.1819
G03 X77.7970 Y72.2154 I-1.3968 J2.4153
G03 X78.3491 Y73.1604 I-2.4066 J2.0401
G03 X78.3058 Y75.3151 I-2.9787 J1.0179
G03 X77.6155 Y76.6210 I-5.5762 J-2.1121
G03 X76.7781 Y77.4698 I-2.5677 J-1.6959
G03 X75.8681 Y77.8757 I-1.8740 J-2.9780
G03 X74.6421 Y78.1186 I-1.7943 J-5.8413
G03 X73.0413 Y77.6889 I-0.2783 J-2.1597
G03 X72.3250 Y76.5103 I1.5995 J-1.7790
G01 X72.2323 Y76.1214
G01 X72.1624 Y75.6265
G01 X72.1358 Y75.2274
G01 X72.1236 Y74.3587
G01 X72.0898 Y73.9603
G01 X72.0401 Y73.7671
G01 X71.9918 Y73.6801
G01 X71.8544 Y73.6151
G01 X71.7704 Y73.6633
G01 X71.7189 Y73.7485
G01 X71.6352 Y74.0358
G01 X71.5757 Y74.5319
G01 X71.5629 Y75.0316
G01 X71.5853 Y75.5310
G01 X71.6314 Y75.9282
G01 X71.7132 Y76.3195
G01 X71.8756 Y76.8352
G01 X71.8901 Y76.9405
G01 X71.8723 Y76.9885
G01 X71.4336 Y76.7502
G01 X70.5538 Y76.2094
G01 Z-0.8000 F900
G01 X69.3216 Y75.4303 F1200
G01 X69.3685 Y74.1344
G01 X69.3699 Y73.7344
G02 X69.2215 Y72.6468 I-4.9157 J0.1165
G02 X68.1888 Y70.8492 I-3.6581 J0.9061
G02 X66.6011 Y69.8852 I-2.9703 J3.1026
G01 X65.5579 Y69.5366
G01 X64.4057 Y69.2016
G02 X62.7877 Y68.8573 I-3.0434 J10.3267
G02 X60.3485 Y69.7459 I1.4361 J7.7342
G01 X59.8509 Y70.0805
G01 X59.4684 Y70.4021
G01 X59.2219 Y70.6528
G01 X58.4807 Y71.4766
G01 X55.3788 Y70.2489
G01 X54.0917 Y69.6981
G01 X53.2560 Y69.3013
G01 X52.8808 Y69.1635
G02 X52.1947 Y69.1484 I-0.3643 J0.9627
G01 X52.1089 Y69.1992
G01 X52.0404 Y69.2714
G01 X51.9794 Y69.3876
G01 X52.0006 Y69.4831
G01 X52.1323 Y69.6328
G01 X52.4499 Y69.8752
G01 X52.7930 Y70.0806
G01 X53.1541 Y70.2521
G01 X53.4414 Y70.3356
G01 X53.5757 Y70.3120
G01 X53.7719 Y70.3368
G01 X54.2527 Y70.4740
G01 X55.0131 Y70.7223
G01 X56.1455 Y71.1195
G01 X57.2694 Y71.5400
G01 X58.0094 Y71.8436
G01 X58.3149 Y72.0034
G01 X58.3974 Y72.1520
G01 X58.4783 Y72.3953
G01 X58.6354 Y73.1053
G01 X58.7199 Y73.3931
G01 X58.8271 Y73.6732
G01 X58.9569 Y73.9435
G02 X59.9664 Y75.1732 I3.8259 J-2.1116
G02 X62.6117 Y76.8710 I10.4173 J-13.3210
G02 X65.1891 Y77.9452 I5.7963 J-10.2790
G02 X65.9606 Y77.9192 I0.3203 J-1.9565
G02 X66.9935 Y77.5496 I-0.9485 J-4.2793
G01 X67.4296 Y77.3055
G01 X67.7599 Y77.0801
G01 X68.0695 Y76.8270
G01 X68.7142 Y76.2075
G01 X68.9529 Y76.0318
G01 X69.0445 Y75.9963
G01 X69.4063 Y76.1647
G01 X70.1053 Y76.5536
G01 X72.9883 Y78.2567
G01 X73.4326 Y78.4859
G01 X73.8045 Y78.6323
G02 X75.0301 Y78.6068 I0.5615 J-2.4797
G02 X76.5523 Y78.1335 I-0.8313 J-5.3579
G02 X77.9583 Y76.8842 I-1.7852 J-3.4248
G01 X78.3353 Y76.2947
G01 X78.6868 Y75.6378
G02 X79.0441 Y74.7069 I-3.2333 J-1.7751
G02 X78.8511 Y73.1062 I-2.8603 J-0.4671
G02 X77.7568 Y71.5694 I-4.2516 J1.8694
G02 X77.0333 Y71.0351 I-1.9670 J1.9062
G02 X75.8626 Y70.8012 I-1.2616 J3.2683
G02 X74.8812 Y70.9383 I-0.2023 J2.1336
G02 X74.5609 Y71.4509 I0.4462 J0.6352
G01 X74.5626 Y71.5200
G01 X74.6015 Y71.5723
G03 X76.0326 Y71.4014 I1.3364 J5.1152
G03 X77.0142 Y71.5421 I0.1882 J2.1819
G03 X77.7970 Y72.2154 I-1.3968 J2.4153
G03 X78.3491 Y73.1604 I-2.4066 J2.0401
G03 X78.3058 Y75.3151 I-2.9787 J1.0179
G03 X77.6155 Y76.6210 I-5.5762 J-2.1121
G03 X76.7781 Y77.4698 I-2.5677 J-1.6959
G03 X75.8681 Y77.8757 I-1.8740 J-2.9780
G03 X74.6421 Y78.1186 I-1.7943 J-5.8413
G03 X73.0413 Y77.6889 I-0.2783 J-2.1597
G03 X72.3250 Y76.5103 I1.5995 J-1.7790
G01 X72.2323 Y76.1214
G01 X72.1624 Y75.6265
G01 X72.1358 Y75.2274
G01 X72.1236 Y74.3587
G01 X72.0898 Y73.9603
G01 X72.0401 Y73.7671
G01 X71.9918 Y73.6801
G01 X71.8544 Y73.6151
G01 X71.7704 Y73.6633
G01 X71.7189 Y73.7485
G01 X71.6352 Y74.0358
G01 X71.5757 Y74.5319
G01 X71.5629 Y75.0316
G01 X71.5853 Y75.5310
G01 X71.6314 Y75.9282
G01 X71.7132 Y76.3195
G01 X71.8756 Y76.8352
G01 X71.8901 Y76.9405
G01 X71.8723 Y76.9885
G01 X71.4336 Y76.7502
G01 X70.5538 Y76.2094
G01 Z-0.9000 F900
G01 X69.3216 Y75.4303 F1200
G01 X69.3685 Y74.1344
G01 X69.3699 Y73.7344
G02 X69.2215 Y72.6468 I-4.9157 J0.1165
G02 X68.1888 Y70.8492 I-3.6581 J0.9061
G02 X66.6011 Y69.8852 I-2.9703 J3.1026
G01 X65.5579 Y69.5366
G01 X64.4057 Y69.2016
G02 X62.7877 Y68.8573 I-3.0434 J10.3267
G02 X60.3485 Y69.7459 I1.4361 J7.7342
G01 X59.8509 Y70.0805
G01 X59.4684 Y70.4021
G01 X59.2219 Y70.6528
G01 X58.4807 Y71.4766
G01 X55.3788 Y70.2489
G01 X54.0917 Y69.6981
G01 X53.2560 Y69.3013
G01 X52.8808 Y69.1635
G02 X52.1947 Y69.1484 I-0.3643 J0.9627
G01 X52.1089 Y69.1992
G01 X52.0404 Y69.2714
G01 X51.9794 Y69.3876
G01 X52.0006 Y69.4831
G01 X52.1323 Y69.6328
G01 X52.4499 Y69.8752
G01 X52.7930 Y70.0806
G01 X53.1541 Y70.2521
G01 X53.4414 Y70.3356
G01 X53.5757 Y70.3120
G01 X53.7719 Y70.3368
G01 X54.2527 Y70.4740
G01 X55.0131 Y70.7223
G01 X56.1455 Y71.1195
G01 X57.2694 Y71.5400
G01 X58.0094 Y71.8436
G01 X58.3149 Y72.0034
G01 X58.3974 Y72.1520
G01 X58.4783 Y72.3953
G01 X58.6354 Y73.1053
G01 X58.7199 Y73.3931
G01 X58.8271 Y73.6732
G01 X58.9569 Y73.9435
G02 X59.9664 Y75.1732 I3.8259 J-2.1116
G02 X62.6117 Y76.8710 I10.4173 J-13.3210
G02 X65.1891 Y77.9452 I5.7963 J-10.2790
G02 X65.9606 Y77.9192 I0.3203 J-1.9565
G02 X66.9935 Y77.5496 I-0.9485 J-4.2793
G01 X67.4296 Y77.3055
G01 X67.7599 Y77.0801
G01 X68.0695 Y76.8270
G01 X68.7142 Y76.2075
G01 X68.9529 Y76.0318
G01 X69.0445 Y75.9963
G01 X69.4063 Y76.1647
G01 X70.1053 Y76.5536
G01 X72.9883 Y78.2567
G01 X73.4326 Y78.4859
G01 X73.8045 Y78.6323
G02 X75.0301 Y78.6068 I0.5615 J-2.4797
G02 X76.5523 Y78.1335 I-0.8313 J-5.3579
G02 X77.9583 Y76.8842 I-1.7852 J-3.4248
G01 X78.3353 Y76.2947
G01 X78.6868 Y75.6378
G02 X79.0441 Y74.7069 I-3.2333 J-1.7751
G02 X78.8511 Y73.1062 I-2.8603 J-0.4671
G02 X77.7568 Y71.5694 I-4.2516 J1.8694
G02 X77.0333 Y71.0351 I-1.9670 J1.9062
G02 X75.8626 Y70.8012 I-1.2616 J3.2683
G02 X74.8812 Y70.9383 I-0.2023 J2.1336
G02 X74.5609 Y71.4509 I0.4462 J0.6352
G01 X74.5626 Y71.5200
G01 X74.6015 Y71.5723
G03 X76.0326 Y71.4014 I1.3364 J5.1152
G03 X77.0142 Y71.5421 I0.1882 J2.1819
G03 X77.7970 Y72.2154 I-1.3968 J2.4153
G03 X78.3491 Y73.1604 I-2.4066 J2.0401
G03 X78.3058 Y75.3151 I-2.9787 J1.0179
G03 X77.6155 Y76.6210 I-5.5762 J-2.1121
G03 X76.7781 Y77.4698 I-2.5677 J-1.6959
G03 X75.8681 Y77.8757 I-1.8740 J-2.9780
G03 X74.6421 Y78.1186 I-1.7943 J-5.8413
G03 X73.0413 Y77.6889 I-0.2783 J-2.1597
G03 X72.3250 Y76.5103 I1.5995 J-1.7790
G01 X72.2323 Y76.1214
G01 X72.1624 Y75.6265
G01 X72.1358 Y75.2274
G01 X72.1236 Y74.3587
G01 X72.0898 Y73.9603
G01 X72.0401 Y73.7671
G01 X71.9918 Y73.6801
G01 X71.8544 Y73.6151
G01 X71.7704 Y73.6633
G01 X71.7189 Y73.7485
G01 X71.6352 Y74.0358
G01 X71.5757 Y74.5319
G01 X71.5629 Y75.0316
G01 X71.5853 Y75.5310
G01 X71.6314 Y75.9282
G01 X71.7132 Y76.3195
G01 X71.8756 Y76.8352
G01 X71.8901 Y76.9405
G01 X71.8723 Y76.9885
G01 X71.4336 Y76.7502
G01 X70.5538 Y76.2094
G01 Z-1.0000 F900
G01 X69.3216 Y75.4303 F1200
G01 X69.3685 Y74.1344
G01 X69.3699 Y73.7344
G02 X69.2215 Y72.6468 I-4.9157 J0.1165
G02 X68.1888 Y70.8492 I-3.6581 J0.9061
G02 X66.6011 Y69.8852 I-2.9703 J3.1026
G01 X65.5579 Y69.5366
G01 X64.4057 Y69.2016
G02 X62.7877 Y68.8573 I-3.0434 J10.3267
G02 X60.3485 Y69.7459 I1.4361 J7.7342
G01 X59.8509 Y70.0805
G01 X59.4684 Y70.4021
G01 X59.2219 Y70.6528
G01 X58.4807 Y71.4766
G01 X55.3788 Y70.2489
G01 X54.0917 Y69.6981
G01 X53.2560 Y69.3013
G01 X52.8808 Y69.1635
G02 X52.1947 Y69.1484 I-0.3643 J0.9627
G01 X52.1089 Y69.1992
G01 X52.0404 Y69.2714
G01 X51.9794 Y69.3876
G01 X52.0006 Y69.4831
G01 X52.1323 Y69.6328
G01 X52.4499 Y69.8752
G01 X52.7930 Y70.0806
G01 X53.1541 Y70.2521
G01 X53.4414 Y70.3356
G01 X53.5757 Y70.3120
G01 X53.7719 Y70.3368
G01 X54.2527 Y70.4740
G01 X55.0131 Y70.7223
G01 X56.1455 Y71.1195
G01 X57.2694 Y71.5400
G01 X58.0094 Y71.8436
G01 X58.3149 Y72.0034
G01 X58.3974 Y72.1520
G01 X58.4783 Y72.3953
G01 X58.6354 Y73.1053
G01 X58.7199 Y73.3931
G01 X58.8271 Y73.6732
G01 X58.9569 Y73.9435
G02 X59.9664 Y75.1732 I3.8259 J-2.1116
G02 X62.6117 Y76.8710 I10.4173 J-13.3210
G02 X65.1891 Y77.9452 I5.7963 J-10.2790
G02 X65.9606 Y77.9192 I0.3203 J-1.9565
G02 X66.9935 Y77.5496 I-0.9485 J-4.2793
G01 X67.4296 Y77.3055
G01 X67.7599 Y77.0801
G01 X68.0695 Y76.8270
G01 X68.7142 Y76.2075
G01 X68.9529 Y76.0318
G01 X69.0445 Y75.9963
G01 X69.4063 Y76.1647
G01 X70.1053 Y76.5536
G01 X72.9883 Y78.2567
G01 X73.4326 Y78.4859
G01 X73.8045 Y78.6323
G02 X75.0301 Y78.6068 I0.5615 J-2.4797
G02 X76.5523 Y78.1335 I-0.8313 J-5.3579
G02 X77.9583 Y76.8842 I-1.7852 J-3.4248
G01 X78.3353 Y76.2947
G01 X78.6868 Y75.6378
G02 X79.0441 Y74.7069 I-3.2333 J-1.7751
G02 X78.8511 Y73.1062 I-2.8603 J-0.4671
G02 X77.7568 Y71.5694 I-4.2516 J1.8694
G02 X77.0333 Y71.0351 I-1.9670 J1.9062
G02 X75.8626 Y70.8012 I-1.2616 J3.2683
G02 X74.8812 Y70.9383 I-0.2023 J2.1336
G02 X74.5609 Y71.4509 I0.4462 J0.6352
G01 X74.5626 Y71.5200
G01 X74.6015 Y71.5723
G03 X76.0326 Y71.4014 I1.3364 J5.1152
G03 X77.0142 Y71.5421 I0.1882 J2.1819
G03 X77.7970 Y72.2154 I-1.3968 J2.4153
G03 X78.3491 Y73.1604 I-2.4066 J2.0401
G03 X78.3058 Y75.3151 I-2.9787 J1.0179
G03 X77.6155 Y76.6210 I-5.5762 J-2.1121
G03 X76.7781 Y77.4698 I-2.5677 J-1.6959
G03 X75.8681 Y77.8757 I-1.8740 J-2.9780
G03 X74.6421 Y78.1186 I-1.7943 J-5.8413
G03 X73.0413 Y77.6889 I-0.2783 J-2.1597
G03 X72.3250 Y76.5103 I1.5995 J-1.7790
G01 X72.2323 Y76.1214
G01 X72.1624 Y75.6265
G01 X72.1358 Y75.2274
G01 X72.1236 Y74.3587
G01 X72.0898 Y73.9603
G01 X72.0401 Y73.7671
G01 X71.9918 Y73.6801
G01 X71.8544 Y73.6151
G01 X71.7704 Y73.6633
G01 X71.7189 Y73.7485
G01 X71.6352 Y74.0358
G01 X71.5757 Y74.5319
G01 X71.5629 Y75.0316
G01 X71.5853 Y75.5310
G01 X71.6314 Y75.9282
G01 X71.7132 Y76.3195
G01 X71.8756 Y76.8352
G01 X71.8901 Y76.9405
G01 X71.8723 Y76.9885
G01 X71.4336 Y76.7502
G01 X70.5538 Y76.2094
G00 Z5.0000


(Nr. 6: Gravur 6)
G00 X75.4378 Y75.8163 Z5.0000
G00 Z0.5000
G01 Z-0.1000 F900
G01 X75.2642 Y75.4562 F1200
G01 X75.1457 Y75.2522
G01 X74.9754 Y75.0053
G01 X74.7023 Y74.7141
G01 X74.5363 Y74.6036
G01 X74.4396 Y74.5829
G01 X74.3497 Y74.7144
G01 X74.3682 Y74.8124
G01 X74.4374 Y74.9999
G02 X75.1448 Y76.2049 I6.1918 J-2.8244
G01 X75.2082 Y76.2822
G01 X75.3459 Y76.3932
G01 X75.4424 Y76.3709
G01 X75.5084 Y76.2995
G02 X75.4378 Y75.8163 I-0.8085 J-0.1287
G01 Z-0.2000 F900
G01 X75.2642 Y75.4562 F1200
G01 X75.1457 Y75.2522
G01 X74.9754 Y75.0053
G01 X74.7023 Y74.7141
G01 X74.5363 Y74.6036
G01 X74.4396 Y74.5829
G01 X74.3497 Y74.7144
G01 X74.3682 Y74.8124
G01 X74.4374 Y74.9999
G02 X75.1448 Y76.2049 I6.1918 J-2.8244
G01 X75.2082 Y76.2822
G01 X75.3459 Y76.3932
G01 X75.4424 Y76.3709
G01 X75.5084 Y76.2995
G02 X75.4378 Y75.8163 I-0.8085 J-0.1287
G01 Z-0.3000 F900
G01 X75.2642 Y75.4562 F1200
G01 X75.1457 Y75.2522
G01 X74.9754 Y75.0053
G01 X74.7023 Y74.7141
G01 X74.5363 Y74.6036
G01 X74.4396 Y74.5829
G01 X74.3497 Y74.7144
G01 X74.3682 Y74.8124
G01 X74.4374 Y74.9999
G02 X75.1448 Y76.2049 I6.1918 J-2.8244
G01 X75.2082 Y76.2822
G01 X75.3459 Y76.3932
G01 X75.4424 Y76.3709
G01 X75.5084 Y76.2995
G02 X75.4378 Y75.8163 I-0.8085 J-0.1287
G01 Z-0.4000 F900
G01 X75.2642 Y75.4562 F1200
G01 X75.1457 Y75.2522
G01 X74.9754 Y75.0053
G01 X74.7023 Y74.7141
G01 X74.5363 Y74.6036
G01 X74.4396 Y74.5829
G01 X74.3497 Y74.7144
G01 X74.3682 Y74.8124
G01 X74.4374 Y74.9999
G02 X75.1448 Y76.2049 I6.1918 J-2.8244
G01 X75.2082 Y76.2822
G01 X75.3459 Y76.3932
G01 X75.4424 Y76.3709
G01 X75.5084 Y76.2995
G02 X75.4378 Y75.8163 I-0.8085 J-0.1287
G01 Z-0.5000 F900
G01 X75.2642 Y75.4562 F1200
G01 X75.1457 Y75.2522
G01 X74.9754 Y75.0053
G01 X74.7023 Y74.7141
G01 X74.5363 Y74.6036
G01 X74.4396 Y74.5829
G01 X74.3497 Y74.7144
G01 X74.3682 Y74.8124
G01 X74.4374 Y74.9999
G02 X75.1448 Y76.2049 I6.1918 J-2.8244
G01 X75.2082 Y76.2822
G01 X75.3459 Y76.3932
G01 X75.4424 Y76.3709
G01 X75.5084 Y76.2995
G02 X75.4378 Y75.8163 I-0.8085 J-0.1287
G01 Z-0.6000 F900
G01 X75.2642 Y75.4562 F1200
G01 X75.1457 Y75.2522
G01 X74.9754 Y75.0053
G01 X74.7023 Y74.7141
G01 X74.5363 Y74.6036
G01 X74.4396 Y74.5829
G01 X74.3497 Y74.7144
G01 X74.3682 Y74.8124
G01 X74.4374 Y74.9999
G02 X75.1448 Y76.2049 I6.1918 J-2.8244
G01 X75.2082 Y76.2822
G01 X75.3459 Y76.3932
G01 X75.4424 Y76.3709
G01 X75.5084 Y76.2995
G02 X75.4378 Y75.8163 I-0.8085 J-0.1287
G01 Z-0.7000 F900
G01 X75.2642 Y75.4562 F1200
G01 X75.1457 Y75.2522
G01 X74.9754 Y75.0053
G01 X74.7023 Y74.7141
G01 X74.5363 Y74.6036
G01 X74.4396 Y74.5829
G01 X74.3497 Y74.7144
G01 X74.3682 Y74.8124
G01 X74.4374 Y74.9999
G02 X75.1448 Y76.2049 I6.1918 J-2.8244
G01 X75.2082 Y76.2822
G01 X75.3459 Y76.3932
G01 X75.4424 Y76.3709
G01 X75.5084 Y76.2995
G02 X75.4378 Y75.8163 I-0.8085 J-0.1287
G01 Z-0.8000 F900
G01 X75.2642 Y75.4562 F1200
G01 X75.1457 Y75.2522
G01 X74.9754 Y75.0053
G01 X74.7023 Y74.7141
G01 X74.5363 Y74.6036
G01 X74.4396 Y74.5829
G01 X74.3497 Y74.7144
G01 X74.3682 Y74.8124
G01 X74.4374 Y74.9999
G02 X75.1448 Y76.2049 I6.1918 J-2.8244
G01 X75.2082 Y76.2822
G01 X75.3459 Y76.3932
G01 X75.4424 Y76.3709
G01 X75.5084 Y76.2995
G02 X75.4378 Y75.8163 I-0.8085 J-0.1287
G01 Z-0.9000 F900
G01 X75.2642 Y75.4562 F1200
G01 X75.1457 Y75.2522
G01 X74.9754 Y75.0053
G01 X74.7023 Y74.7141
G01 X74.5363 Y74.6036
G01 X74.4396 Y74.5829
G01 X74.3497 Y74.7144
G01 X74.3682 Y74.8124
G01 X74.4374 Y74.9999
G02 X75.1448 Y76.2049 I6.1918 J-2.8244
G01 X75.2082 Y76.2822
G01 X75.3459 Y76.3932
G01 X75.4424 Y76.3709
G01 X75.5084 Y76.2995
G02 X75.4378 Y75.8163 I-0.8085 J-0.1287
G01 Z-1.0000 F900
G01 X75.2642 Y75.4562 F1200
G01 X75.1457 Y75.2522
G01 X74.9754 Y75.0053
G01 X74.7023 Y74.7141
G01 X74.5363 Y74.6036
G01 X74.4396 Y74.5829
G01 X74.3497 Y74.7144
G01 X74.3682 Y74.8124
G01 X74.4374 Y74.9999
G02 X75.1448 Y76.2049 I6.1918 J-2.8244
G01 X75.2082 Y76.2822
G01 X75.3459 Y76.3932
G01 X75.4424 Y76.3709
G01 X75.5084 Y76.2995
G02 X75.4378 Y75.8163 I-0.8085 J-0.1287
G00 Z5.0000


(Nr. 7: Gravur 7)
G00 X75.7153 Y74.4795 Z5.0000
G00 Z0.5000
G01 Z-0.1000 F900
G01 X76.0968 Y74.8025 F1200
G01 X76.4257 Y75.0295
G01 X76.5987 Y75.0703
G01 X76.6000 Y74.9743
G01 X76.5111 Y74.7958
G02 X75.7160 Y73.8919 I-4.3764 J3.0482
G02 X75.0752 Y73.4253 I-1.5246 J1.4202
G01 X74.9827 Y73.4470
G01 X74.9450 Y73.5748
G01 X74.9768 Y73.6689
G02 X75.7153 Y74.4795 I3.7475 J-2.6725
G01 Z-0.2000 F900
G01 X76.0968 Y74.8025 F1200
G01 X76.4257 Y75.0295
G01 X76.5987 Y75.0703
G01 X76.6000 Y74.9743
G01 X76.5111 Y74.7958
G02 X75.7160 Y73.8919 I-4.3764 J3.0482
G02 X75.0752 Y73.4253 I-1.5246 J1.4202
G01 X74.9827 Y73.4470
G01 X74.9450 Y73.5748
G01 X74.9768 Y73.6689
G02 X75.7153 Y74.4795 I3.7475 J-2.6725
G01 Z-0.3000 F900
G01 X76.0968 Y74.8025 F1200
G01 X76.4257 Y75.0295
G01 X76.5987 Y75.0703
G01 X76.6000 Y74.9743
G01 X76.5111 Y74.7958
G02 X75.7160 Y73.8919 I-4.3764 J3.0482
G02 X75.0752 Y73.4253 I-1.5246 J1.4202
G01 X74.9827 Y73.4470
G01 X74.9450 Y73.5748
G01 X74.9768 Y73.6689
G02 X75.7153 Y74.4795 I3.7475 J-2.6725
G01 Z-0.4000 F900
G01 X76.0968 Y74.8025 F1200
G01 X76.4257 Y75.0295
G01 X76.5987 Y75.0703
G01 X76.6000 Y74.9743
G01 X76.5111 Y74.7958
G02 X75.7160 Y73.8919 I-4.3764 J3.0482
G02 X75.0752 Y73.4253 I-1.5246 J1.4202
G01 X74.9827 Y73.4470
G01 X74.9450 Y73.5748
G01 X74.9768 Y73.6689
G02 X75.7153 Y74.4795 I3.7475 J-2.6725
G01 Z-0.5000 F900
G01 X76.0968 Y74.8025 F1200
G01 X76.4257 Y75.0295
G01 X76.5987 Y75.0703
G01 X76.6000 Y74.9743
G01 X76.5111 Y74.7958
G02 X75.7160 Y73.8919 I-4.3764 J3.0482
G02 X75.0752 Y73.4253 I-1.5246 J1.4202
G01 X74.9827 Y73.4470
G01 X74.9450 Y73.5748
G01 X74.9768 Y73.6689
G02 X75.7153 Y74.4795 I3.7475 J-2.6725
G01 Z-0.6000 F900
G01 X76.0968 Y74.8025 F1200
G01 X76.4257 Y75.0295
G01 X76.5987 Y75.0703
G01 X76.6000 Y74.9743
G01 X76.5111 Y74.7958
G02 X75.7160 Y73.8919 I-4.3764 J3.0482
G02 X75.0752 Y73.4253 I-1.5246 J1.4202
G01 X74.9827 Y73.4470
G01 X74.9450 Y73.5748
G01 X74.9768 Y73.6689
G02 X75.7153 Y74.4795 I3.7475 J-2.6725
G01 Z-0.7000 F900
G01 X76.0968 Y74.8025 F1200
G01 X76.4257 Y75.0295
G01 X76.5987 Y75.0703
G01 X76.6000 Y74.9743
G01 X76.5111 Y74.7958
G02 X75.7160 Y73.8919 I-4.3764 J3.0482
G02 X75.0752 Y73.4253 I-1.5246 J1.4202
G01 X74.9827 Y73.4470
G01 X74.9450 Y73.5748
G01 X74.9768 Y73.6689
G02 X75.7153 Y74.4795 I3.7475 J-2.6725
G01 Z-0.8000 F900
G01 X76.0968 Y74.8025 F1200
G01 X76.4257 Y75.0295
G01 X76.5987 Y75.0703
G01 X76.6000 Y74.9743
G01 X76.5111 Y74.7958
G02 X75.7160 Y73.8919 I-4.3764 J3.0482
G02 X75.0752 Y73.4253 I-1.5246 J1.4202
G01 X74.9827 Y73.4470
G01 X74.9450 Y73.5748
G01 X74.9768 Y73.6689
G02 X75.7153 Y74.4795 I3.7475 J-2.6725
G01 Z-0.9000 F900
G01 X76.0968 Y74.8025 F1200
G01 X76.4257 Y75.0295
G01 X76.5987 Y75.0703
G01 X76.6000 Y74.9743
G01 X76.5111 Y74.7958
G02 X75.7160 Y73.8919 I-4.3764 J3.0482
G02 X75.0752 Y73.4253 I-1.5246 J1.4202
G01 X74.9827 Y73.4470
G01 X74.9450 Y73.5748
G01 X74.9768 Y73.6689
G02 X75.7153 Y74.4795 I3.7475 J-2.6725
G01 Z-1.0000 F900
G01 X76.0968 Y74.8025 F1200
G01 X76.4257 Y75.0295
G01 X76.5987 Y75.0703
G01 X76.6000 Y74.9743
G01 X76.5111 Y74.7958
G02 X75.7160 Y73.8919 I-4.3764 J3.0482
G02 X75.0752 Y73.4253 I-1.5246 J1.4202
G01 X74.9827 Y73.4470
G01 X74.9450 Y73.5748
G01 X74.9768 Y73.6689
G02 X75.7153 Y74.4795 I3.7475 J-2.6725
G00 Z5.0000
G00 X0.0000 Y0.0000

M05
M30
