(Projekt farnsworth-test-body-back)
(Erstellt mit Estlcam Version 8 Build 8,107)
(Laufzeit ca. 00:00:58 Stunden)

(Benoetigte Werkzeuge:)
(Fraeser 3mm)

G90
M03 S25000
G00 Z5.0000


(Nr. 1: Tasche raeumen: Ausschnitt 2)
G00 X13.5511 Y17.2451 Z5.0000
G00 Z0.5000
G01 Z-0.1000 F900 S25000
G01 X9.4031 F1200
G01 X9.3585 Y17.5181
G01 X9.3798 Y17.5541
G03 X11.9302 Y19.9451 I-17.1934 J20.8947
G01 X16.1667
G01 X16.9326 Y20.8463
G01 X17.3278 Y21.3506
G01 X17.6299 Y21.7682
G01 X17.8627 Y22.1476
G01 X17.8418 Y22.0966
G01 X17.9570 Y22.4501
G01 X18.0386 Y22.6451
G01 X13.9628
G00 Z5.0000
G00 X20.8825 Y25.3451
G00 Z0.5000
G01 Z-0.1000 F900
G01 X22.8799 F1200
G00 Z5.0000
G00 X24.3894 Y28.0451
G00 Z0.5000
G01 Z-0.1000 F900
G01 X30.1278 F1200
G01 X28.6143
G01 Y30.7451
G01 X35.2433
G01 X34.1870
G01 Y33.4451
G01 X39.0937
G03 X42.8301 Y36.1451 I-12.9177 J21.8120
G01 X36.6858
G01 X38.3560 Y38.2247
G01 X38.8982 Y38.8451
G01 X46.1222
G01 X41.6011
G01 Y41.5451
G01 X78.7621
G01 X78.2691 Y41.9139
G01 X77.7593 Y42.2574
G01 X76.4312 Y43.0897
G01 X75.8794 Y43.4764
G01 X75.4026 Y43.8453
G01 X74.9668 Y44.2451
G01 X43.8166
G02 X45.6932 Y46.4683 I23.5861 J-18.0054
G01 X45.7794 Y46.5518
G01 X46.1005 Y46.7785
G01 X46.3707 Y46.9451
G01 X72.3162
G03 X70.0954 Y48.4378 I-6.3497 J-7.0490
G01 X69.5402 Y48.6563
G01 X69.1948 Y48.7546
G02 X67.3571 Y49.2089 I2.0070 J12.0636
G01 X66.7664 Y49.4281
G01 X66.3002 Y49.6451
G01 X51.0932
G00 Z5.0000
G00 X69.4887 Y41.5451
G00 Z0.5000
G01 Z-0.1000
G01 Y38.8451
G01 X49.8304
G02 X50.1160 Y37.8514 I-2.0787 J-1.1353
G01 X50.1289 Y37.4524
G01 X50.0982 Y36.9144
G01 X50.0005 Y36.1451
G01 X68.5449
G03 X67.4678 Y33.4451 I20.8304 J-9.8750
G01 X50.1210
G02 X50.3448 Y30.7451 I-2.6438 J-1.5784
G01 X66.6800
G01 X65.9592 Y28.0451
G01 X50.6370
G01 X50.6154 Y27.8519
G01 X50.5187 Y27.5057
G01 X49.5074 Y25.3451
G01 X65.5937
G01 X65.5769 Y24.8185
G01 X65.5865 Y23.5621
G01 X65.6160 Y22.6451
G01 X48.4293
G01 X48.1555 Y21.7551
G01 X47.8106 Y20.7545
G01 X47.5074 Y19.9451
G01 X65.7294
G01 X65.8248 Y18.3967
G01 X65.9360 Y17.2451
G01 X46.5615
G03 X46.5041 Y14.5451 I7.6480 J-1.5132
G01 X66.4444
G03 X67.5401 Y11.8451 I13.9346 J4.0824
G01 X47.1513
G03 X48.9038 Y9.1451 I6.9599 J2.5987
G01 X68.6999
G00 Z5.0000
G00 X85.8239 Y30.7451
G00 Z0.5000
G01 Z-0.1000 F900
G01 X94.2626 F1200
G02 X90.6950 Y33.4451 I39.1650 J55.4578
G01 X82.9720
G01 X84.7806
G01 Y36.1451
G01 X78.3570
G02 X74.8752 Y38.8451 I20.4427 J29.9573
G01 X81.7439
G00 Z5.0000
G00 X91.0764 Y30.7451
G00 Z0.5000
G01 Z-0.1000
G01 Y28.0451
G01 X97.9935
G00 Z5.0000
G00 X98.0248 Y25.3451
G00 Z0.5000
G01 Z-0.1000 F900
G01 X108.3836 F1200
G03 X108.1653 Y22.6451 I2.1003 J-1.5287
G01 X102.2564
G02 X104.2063 Y19.9451 I-8.2182 J-7.9893
G01 X109.6994
G03 X111.7433 Y17.2451 I20.1469 J13.1281
G01 X105.7638
G03 X107.8953 Y14.5451 I12.4003 J7.5982
G01 X112.2563
G00 Z5.0000


(Nr. 2: Tasche Seitenwand: Ausschnitt 2)
G00 X9.1722 Y16.4154 Z5.0000
G00 Z0.5000
G01 Z-0.1000 F900
G01 X9.2448 Y16.5381 F1200
G01 X9.2315 Y16.5474
G01 X9.1165 Y17.1390
G01 X9.0396 Y17.6690
G03 X12.5120 Y21.0362 I-17.0597 J21.0669
G01 X12.9995 Y21.6370
G01 X13.3630 Y22.1581
G03 X13.9110 Y23.4613 I-2.8698 J1.9736
G03 X13.4721 Y25.4606 I-2.5253 J0.4934
G01 X13.3116 Y25.6699
G01 X13.1799 Y25.8117
G01 X11.6337 Y26.9493
G01 X11.5615 Y26.9740
G01 X11.6337 Y26.9493
G01 X13.1799 Y25.8117
G01 X14.2367 Y25.5665
G01 X15.3644 Y25.3472
G03 X18.9243 Y24.9777 I3.6271 J17.6088
G03 X20.3281 Y25.3592 I-0.0927 J3.1148
G01 X20.9061 Y25.7202
G01 X21.6119 Y26.2500
G01 X23.4171 Y27.6915
G01 X24.5224 Y28.5176
G01 X25.9826 Y29.5234
G01 X27.3958 Y30.4052
G01 X28.5791 Y31.0664
G01 X29.5990 Y31.5657
G01 X30.4334 Y31.9054
G01 X31.4695 Y32.2230
G01 X31.9327 Y32.3922
G01 X32.5137 Y32.6570
G03 X33.9561 Y33.6407 I-3.5118 J6.6988
G01 X34.3852 Y34.0288
G01 X34.8580 Y34.5009
G01 X35.3694 Y35.0546
G01 X35.9866 Y35.7676
G01 X36.7694 Y36.7188
G01 X38.1251 Y38.4163
G01 X39.1290 Y39.5650
G01 X39.6515 Y40.1209
G01 X40.1830 Y40.6566
G01 X40.6509 Y41.0981
G01 X41.7054 Y42.0406
G01 X42.0964 Y42.4252
G01 X42.4860 Y42.8387
G01 X42.7256 Y43.1165
G01 X42.9907 Y43.4666
G01 X43.1348 Y43.7046
G01 X43.3361 Y44.0905
G01 X43.7707 Y44.6942
G01 X44.5524 Y45.6355
G01 X45.5708 Y46.7673
G01 X46.0776 Y47.1216
G01 X46.6916 Y47.4880
G01 X47.1729 Y47.7470
G01 X48.3943 Y48.3594
G01 X49.4089 Y48.9201
G01 X50.3251 Y49.4771
G01 X51.2190 Y50.0963
G01 X51.5782 Y50.3231
G01 X52.1079 Y50.6170
G02 X54.0779 Y51.4078 I5.3679 J-10.5229
G01 X54.5790 Y51.5475
G01 X55.0117 Y51.5935
G01 X56.5460 Y51.6818
G01 X58.6092 Y51.7415
G01 X61.7601 Y51.7679
G01 X62.5165 Y51.7571
G01 X62.9633 Y51.7306
G03 X64.1183 Y50.9577 I3.2590 J3.6204
G01 X64.5779 Y50.7438
G01 X65.1894 Y50.5018
G01 X65.6920 Y50.2826
G01 X66.8817 Y49.7051
G01 X67.4521 Y49.4934
G01 X68.0055 Y49.3250
G01 X68.5728 Y49.1845
G01 X69.2655 Y49.0462
G01 X69.6335 Y48.9414
G02 X71.3870 Y48.0452 I-2.4599 J-6.9761
G02 X73.7997 Y46.0171 I-12.5432 J-17.3707
G01 X74.2547 Y45.5605
G01 X74.7162 Y45.0480
G01 X75.0081 Y44.6573
G01 X75.1850 Y44.4504
G01 X75.5937 Y44.0766
G01 X76.0569 Y43.7182
G01 X76.5987 Y43.3386
G01 X77.9210 Y42.5101
G01 X78.4426 Y42.1586
G01 X79.0239 Y41.7238
G01 X79.5971 Y41.2541
G01 X80.6616 Y40.2994
G01 X82.2522 Y38.7732
G01 X83.3027 Y37.7981
G01 X84.3147 Y36.9061
G01 X85.0164 Y36.3401
G03 X86.5301 Y35.5377 I4.0040 J5.7239
G01 X87.6343 Y35.1067
G01 X89.4678 Y34.4898
G01 X89.9826 Y34.2671
G01 X90.3690 Y34.0508
G01 X90.7526 Y33.7820
G01 X92.1053 Y32.7119
G01 X93.5795 Y31.6098
G01 X98.8946 Y27.7633
G03 X101.0690 Y26.4104 I8.2400 J10.8192
G03 X102.9830 Y25.9583 I1.8990 J3.7625
G03 X104.1380 Y26.1351 I-0.1306 J4.7145
G01 X105.0268 Y26.4100
G01 X105.4969 Y26.5255
G01 X106.0344 Y26.6069
G01 X106.5574 Y26.6277
G01 X106.9890 Y26.5952
G01 X107.4064 Y26.5151
G01 X107.7427 Y26.4119
G01 X108.3537 Y26.1629
G01 X108.7468 Y26.0252
G01 X109.0885 Y25.9388
G01 X109.3916 Y25.8982
G01 X111.9230 Y26.9502
G01 X112.0599 Y26.8363
G01 X111.9230 Y26.9502
G01 X109.3916 Y25.8982
G01 X109.2105 Y25.7732
G01 X109.0170 Y25.6111
G03 X108.1876 Y23.7552 I1.5352 J-1.7993
G01 X108.2232 Y23.4665
G01 X108.2670 Y23.2577
G01 X108.4114 Y22.8293
G01 X108.7229 Y22.1563
G03 X110.3514 Y19.5155 I22.3861 J11.9828
G01 X110.8457 Y18.8300
G01 X111.3008 Y18.2376
G01 X112.8562 Y16.3901
G01 X113.2634 Y15.8794
G01 X113.5109 Y15.5410
G01 X113.7833 Y15.4745
G01 X113.5109 Y15.5410
G01 X113.1837 Y15.2867
G01 X112.8565 Y14.9431
G03 X112.2617 Y13.5883 I2.3792 J-1.8523
G01 X112.1304 Y13.6121
G01 X111.7569 Y13.7584
G01 X111.4626 Y13.8140
G01 X111.0995 Y13.8223
G01 X110.7856 Y13.7681
G03 X109.4807 Y12.8600 I0.8770 J-2.6517
G01 X109.2039 Y13.0330
G02 X106.7247 Y15.4052 I6.9142 J9.7072
G02 X105.2064 Y17.5396 I17.3420 J13.9438
G01 X104.5375 Y18.6726
G01 X103.7292 Y20.2079
G01 X103.4207 Y20.7014
G01 X103.0967 Y21.1672
G03 X100.6817 Y23.6683 I-9.9227 J-7.1646
G03 X98.8218 Y24.6829 I-5.4674 J-7.8101
G01 X97.8372 Y25.0987
G01 X96.6066 Y25.5901
G01 X94.9924 Y26.2043
G01 X93.1046 Y26.8872
G01 X91.3924 Y27.5803
G02 X86.4095 Y29.9398 I21.3247 J51.4752
G01 X86.0298 Y30.1809
G01 X85.3613 Y30.7422
G01 X84.4487 Y31.5859
G01 X82.8023 Y33.1952
G01 X82.2836 Y33.6463
G01 X81.8831 Y33.9518
G01 X81.5283 Y34.1819
G01 X81.1039 Y34.4008
G01 X80.2935 Y34.6863
G01 X79.6250 Y35.0087
G01 X78.8428 Y35.4652
G01 X77.9032 Y36.0853
G01 X76.8984 Y36.8132
G01 X75.8370 Y37.6435
G01 X74.8000 Y38.5115
G01 X73.1981 Y39.9230
G01 X72.7593 Y40.2799
G03 X71.5901 Y40.7563 I-1.2292 J-1.3437
G03 X70.5153 Y40.2985 I0.0040 J-1.5000
G03 X69.8881 Y39.1143 I2.1578 J-1.9011
G01 X69.4076 Y37.5914
G01 X69.0936 Y36.7080
G01 X68.7457 Y35.8397
G01 X68.2752 Y34.7845
G01 X67.9313 Y33.8790
G01 X67.5955 Y32.8851
G01 X67.2915 Y31.8800
G01 X66.1896 Y27.7386
G03 X65.9017 Y25.6766 I10.2144 J-2.4772
G01 X65.8760 Y24.7099
G01 X65.8887 Y23.4658
G01 X65.9460 Y21.7406
G01 X66.0434 Y19.6496
G03 X66.4575 Y15.7690 I28.6364 J1.0937
G03 X67.1164 Y13.4944 I12.5389 J2.3994
G01 X67.5094 Y12.5819
G01 X68.1074 Y11.3715
G01 X68.3784 Y10.7847
G01 X68.6664 Y10.0973
G01 X68.9306 Y9.3982
G02 X69.5843 Y7.0867 I-14.3518 J-5.3065
G01 X69.9459 Y6.8162
G01 X69.5843 Y7.0867
G01 X68.3601 Y7.0552
G01 X66.6640 Y7.0361
G01 X60.4734 Y7.0220
G01 X53.6683 Y7.0459
G01 X51.7764 Y7.0799
G01 X50.6751 Y7.1296
G01 X49.9692 Y7.7914
G01 X48.8240 Y8.7989
G02 X47.7325 Y10.0803 I5.5128 J5.8012
G02 X46.4225 Y13.2246 I7.5086 J4.9733
G01 X46.2622 Y14.0790
G01 X46.1584 Y14.8794
G02 X46.1701 Y16.7417 I8.0302 J0.8804
G02 X46.5645 Y18.3785 I8.1069 J-1.0874
G01 X46.7177 Y18.7917
G01 X47.2004 Y19.9806
G01 X47.5285 Y20.8564
G01 X47.8702 Y21.8478
G01 X48.1845 Y22.8694
G01 X48.4687 Y23.6568
G02 X50.2393 Y27.6149 I43.3882 J-17.0347
G01 X50.3199 Y27.9033
G01 X50.3382 Y28.0521
G01 X50.3299 Y28.3515
G01 X50.3034 Y28.4991
G01 X49.7561 Y30.1468
G03 X50.2054 Y31.3694 I-3.6384 J2.0310
G03 X50.2206 Y32.3529 I-2.7815 J0.5350
G03 X49.1908 Y34.0506 I-2.7229 J-0.4906
G03 X49.7104 Y36.2136 I-10.8440 J3.7488
G03 X49.7883 Y38.0575 I-5.9666 J1.1757
G03 X48.3871 Y39.5444 I-1.7107 J-0.2084
G03 X46.9490 Y39.1692 I-0.2734 J-1.8957
G01 X46.6032 Y38.8942
G01 X45.8432 Y38.1567
G01 X45.1433 Y37.5543
G01 X44.4768 Y37.0223
G01 X42.8831 Y35.8084
G01 X41.7438 Y34.8739
G01 X41.4160 Y34.6230
G01 X40.4069 Y33.9245
G01 X38.8353 Y32.9261
G01 X37.9639 Y32.3442
G01 X37.1757 Y31.7743
G01 X36.4793 Y31.1971
G01 X35.9875 Y30.8531
G01 X34.9473 Y30.2093
G01 X33.6843 Y29.4941
G02 X29.3430 Y27.3779 I-22.8008 J41.2630
G01 X28.7524 Y27.1498
G01 X26.3638 Y26.3066
G01 X23.2079 Y25.1436
G01 X20.3739 Y24.1327
G01 X19.7153 Y23.8658
G01 X19.2871 Y23.6407
G03 X18.5832 Y23.0038 I1.2844 J-2.1270
G03 X18.1168 Y21.9749 I2.5585 J-1.7801
G01 X18.1359 Y22.0238
G01 X17.8775 Y21.5988
G02 X16.1751 Y19.4953 I-18.8268 J13.4959
G01 X15.0599 Y18.2950
G01 X13.9704 Y17.2157
G02 X12.4097 Y15.9225 I-6.8336 J6.6590
G02 X11.3722 Y15.6323 I-1.3110 J2.6876
G01 X11.2161 Y15.4178
G01 X11.3722 Y15.6323
G03 X10.6164 Y16.2463 I-1.6133 J-1.2138
G01 X10.4033 Y16.3320
G01 X10.1113 Y16.4170
G01 X9.8024 Y16.4741
G01 X9.2448 Y16.5381
G01 X9.1722 Y16.4154
G00 Z5.0000
G00 X0.0000 Y0.0000

M05
M30
